(Exported by FreeCAD)
(Post Processor: linuxcnc_post)
(Output Time:2024-06-04 13:54:30.429382)
(begin preamble)
G17 G54 G40 G49 G80 G90
G21
(begin operation: Fixture)
(machine units: mm/min)
G54 
(finish operation: Fixture)
(begin operation: TC: 1mm_cut3mm001)
(machine units: mm/min)
(TC: 1mm_cut3mm) 
M5
M6 T4 
G43 H4 
M3 S15000 
(finish operation: TC: 1mm_cut3mm001)
(begin operation: Profile003)
(machine units: mm/min)
(Profile003) 
(Compensated Tool Path. Diameter: 1.0) 
G0 Z5.000 
G0 X25.223 Y23.223 
G0 Z3.000 
G1 X25.223 Y23.223 Z-1.000 F571.000 
G2 X25.121 Y22.816 Z-1.000 I-0.173 J-0.173 F571.000 
G3 X24.550 Y22.300 Z-1.000 I-0.024 J-0.547 F571.000 
G1 X24.550 Y5.700 Z-1.000 F571.000 
G3 X24.977 Y5.205 Z-1.000 I0.500 J-0.000 F571.000 
G2 X25.293 Y4.974 Z-1.000 I0.043 J-0.274 F571.000 
G2 X24.816 Y4.879 Z-1.000 I-0.243 J-0.024 F571.000 
G3 X24.300 Y5.450 Z-1.000 I-0.547 J0.024 F571.000 
G1 X12.700 Y5.450 Z-1.000 F571.000 
G3 X12.205 Y5.023 Z-1.000 I0.000 J-0.500 F571.000 
G2 X11.974 Y4.707 Z-1.000 I-0.274 J-0.043 F571.000 
G2 X11.879 Y5.184 Z-1.000 I-0.024 J0.243 F571.000 
G3 X12.450 Y5.700 Z-1.000 I0.024 J0.547 F571.000 
G1 X12.450 Y22.300 Z-1.000 F571.000 
G3 X12.023 Y22.795 Z-1.000 I-0.500 J-0.000 F571.000 
G2 X11.707 Y23.026 Z-1.000 I-0.043 J0.274 F571.000 
G2 X12.184 Y23.121 Z-1.000 I0.243 J0.024 F571.000 
G3 X12.700 Y22.550 Z-1.000 I0.547 J-0.024 F571.000 
G1 X24.300 Y22.550 Z-1.000 F571.000 
G3 X24.795 Y22.977 Z-1.000 I-0.000 J0.500 F571.000 
G2 X25.026 Y23.293 Z-1.000 I0.274 J0.043 F571.000 
G2 X25.223 Y23.223 Z-1.000 I0.024 J-0.243 F571.000 
G1 X25.223 Y23.223 Z-1.800 F571.000 
G2 X25.121 Y22.816 Z-1.800 I-0.173 J-0.173 F571.000 
G3 X24.550 Y22.300 Z-1.800 I-0.024 J-0.547 F571.000 
G1 X24.550 Y5.700 Z-1.800 F571.000 
G3 X24.977 Y5.205 Z-1.800 I0.500 J-0.000 F571.000 
G2 X25.293 Y4.974 Z-1.800 I0.043 J-0.274 F571.000 
G2 X24.816 Y4.879 Z-1.800 I-0.243 J-0.024 F571.000 
G3 X24.300 Y5.450 Z-1.800 I-0.547 J0.024 F571.000 
G1 X12.700 Y5.450 Z-1.800 F571.000 
G3 X12.205 Y5.023 Z-1.800 I0.000 J-0.500 F571.000 
G2 X11.974 Y4.707 Z-1.800 I-0.274 J-0.043 F571.000 
G2 X11.879 Y5.184 Z-1.800 I-0.024 J0.243 F571.000 
G3 X12.450 Y5.700 Z-1.800 I0.024 J0.547 F571.000 
G1 X12.450 Y22.300 Z-1.800 F571.000 
G3 X12.023 Y22.795 Z-1.800 I-0.500 J-0.000 F571.000 
G2 X11.707 Y23.026 Z-1.800 I-0.043 J0.274 F571.000 
G2 X12.184 Y23.121 Z-1.800 I0.243 J0.024 F571.000 
G3 X12.700 Y22.550 Z-1.800 I0.547 J-0.024 F571.000 
G1 X24.300 Y22.550 Z-1.800 F571.000 
G3 X24.795 Y22.977 Z-1.800 I-0.000 J0.500 F571.000 
G2 X25.026 Y23.293 Z-1.800 I0.274 J0.043 F571.000 
G2 X25.223 Y23.223 Z-1.800 I0.024 J-0.243 F571.000 
G0 Z5.000 
G0 Z5.000 
(finish operation: Profile003)
(begin operation: Profile004)
(machine units: mm/min)
(Profile004) 
(Compensated Tool Path. Diameter: 1.0) 
G0 Z5.000 
G0 X30.354 Y35.354 
G0 Z3.000 
G1 X30.354 Y35.354 Z-1.000 F571.000 
G2 X30.500 Y35.000 Z-1.000 I-0.354 J-0.354 F571.000 
G1 X30.500 Y0.000 Z-1.000 F571.000 
G2 X30.000 Y-0.500 Z-1.000 I-0.500 J-0.000 F571.000 
G1 X0.000 Y-0.500 Z-1.000 F571.000 
G2 X-0.500 Y0.000 Z-1.000 I-0.000 J0.500 F571.000 
G1 X-0.500 Y35.000 Z-1.000 F571.000 
G2 X0.000 Y35.500 Z-1.000 I0.500 J0.000 F571.000 
G1 X30.000 Y35.500 Z-1.000 F571.000 
G2 X30.354 Y35.354 Z-1.000 I0.000 J-0.500 F571.000 
G1 X30.354 Y35.354 Z-1.800 F571.000 
G2 X30.500 Y35.000 Z-1.800 I-0.354 J-0.354 F571.000 
G1 X30.500 Y0.000 Z-1.800 F571.000 
G2 X30.000 Y-0.500 Z-1.800 I-0.500 J-0.000 F571.000 
G1 X0.000 Y-0.500 Z-1.800 F571.000 
G2 X-0.500 Y0.000 Z-1.800 I-0.000 J0.500 F571.000 
G1 X-0.500 Y35.000 Z-1.800 F571.000 
G2 X0.000 Y35.500 Z-1.800 I0.500 J0.000 F571.000 
G1 X30.000 Y35.500 Z-1.800 F571.000 
G2 X30.354 Y35.354 Z-1.800 I0.000 J-0.500 F571.000 
G0 Z5.000 
G0 Z5.000 
(finish operation: Profile004)
(begin postamble)
M05
G17 G54 G90 G80 G40
M2
