(Exported by FreeCAD)
(Post Processor: linuxcnc_post)
(Output Time:2024-06-04 13:34:27.617245)
(begin preamble)
G17 G54 G40 G49 G80 G90
G21
(begin operation: Fixture)
(machine units: mm/min)
G54 
(finish operation: Fixture)
(begin operation: TC: v_15deg_.3mmtip)
(machine units: mm/min)
(TC: v_15deg_.3mmtip) 
M5
M6 T6 
G43 H6 
M3 S15000 
(finish operation: TC: v_15deg_.3mmtip)
(begin operation: Profile)
(machine units: mm/min)
(Profile) 
(Compensated Tool Path. Diameter: 0.3) 
G0 Z5.000 
G0 X33.950 Y38.950 
G0 Z3.000 
G1 X33.950 Y38.950 Z-0.300 F571.000 
G1 X33.950 Y34.250 Z-0.300 F571.000 
G1 X33.150 Y34.250 Z-0.300 F571.000 
G1 X33.150 Y38.000 Z-0.300 F571.000 
G3 X33.000 Y38.150 Z-0.300 I-0.150 J-0.000 F571.000 
G1 X29.250 Y38.150 Z-0.300 F571.000 
G1 X29.250 Y38.950 Z-0.300 F571.000 
G1 X33.950 Y38.950 Z-0.300 F571.000 
G0 Z5.000 
G0 X25.785 Z5.000 
G0 X25.785 Z3.000 
G1 X25.785 Y38.950 Z-0.300 F571.000 
G1 X25.785 Y36.150 Z-0.300 F571.000 
G1 X25.615 Y36.150 Z-0.300 F571.000 
G1 X25.615 Y40.850 Z-0.300 F571.000 
G1 X25.785 Y40.850 Z-0.300 F571.000 
G1 X25.785 Y38.950 Z-0.300 F571.000 
G0 Z5.000 
G0 X20.315 Z5.000 
G0 X20.315 Z3.000 
G1 X20.315 Y38.950 Z-0.300 F571.000 
G1 X20.315 Y25.150 Z-0.300 F571.000 
G1 X20.145 Y25.150 Z-0.300 F571.000 
G1 X20.145 Y40.850 Z-0.300 F571.000 
G1 X20.315 Y40.850 Z-0.300 F571.000 
G1 X20.315 Y38.950 Z-0.300 F571.000 
G0 Z5.000 
G0 X14.845 Z5.000 
G0 X14.845 Z3.000 
G1 X14.845 Y38.950 Z-0.300 F571.000 
G1 X14.845 Y36.150 Z-0.300 F571.000 
G1 X14.675 Y36.150 Z-0.300 F571.000 
G1 X14.675 Y40.850 Z-0.300 F571.000 
G1 X14.845 Y40.850 Z-0.300 F571.000 
G1 X14.845 Y38.950 Z-0.300 F571.000 
G0 Z5.000 
G0 X6.750 Y38.950 Z5.000 
G0 X6.750 Y38.950 Z3.000 
G1 X6.750 Y38.950 Z-0.300 F571.000 
G1 X6.750 Y38.150 Z-0.300 F571.000 
G1 X3.000 Y38.150 Z-0.300 F571.000 
G3 X2.850 Y38.000 Z-0.300 I0.000 J-0.150 F571.000 
G1 X2.850 Y34.250 Z-0.300 F571.000 
G1 X2.050 Y34.250 Z-0.300 F571.000 
G1 X2.050 Y38.950 Z-0.300 F571.000 
G1 X6.750 Y38.950 Z-0.300 F571.000 
G0 Z5.000 
G0 X4.850 Y20.700 Z5.000 
G0 X4.850 Y20.700 Z3.000 
G1 X4.850 Y20.700 Z-0.300 F571.000 
G1 X4.850 Y20.530 Z-0.300 F571.000 
G1 X0.150 Y20.530 Z-0.300 F571.000 
G1 X0.150 Y20.700 Z-0.300 F571.000 
G1 X4.850 Y20.700 Z-0.300 F571.000 
G0 Z5.000 
G0 Y15.230 Z5.000 
G0 Y15.230 Z3.000 
G1 X4.850 Y15.230 Z-0.300 F571.000 
G1 X15.850 Y15.230 Z-0.300 F571.000 
G1 X15.850 Y15.060 Z-0.300 F571.000 
G1 X0.150 Y15.060 Z-0.300 F571.000 
G1 X0.150 Y15.230 Z-0.300 F571.000 
G1 X4.850 Y15.230 Z-0.300 F571.000 
G0 Z5.000 
G0 Y9.760 Z5.000 
G0 Y9.760 Z3.000 
G1 X4.850 Y9.760 Z-0.300 F571.000 
G1 X4.850 Y9.590 Z-0.300 F571.000 
G1 X0.150 Y9.590 Z-0.300 F571.000 
G1 X0.150 Y9.760 Z-0.300 F571.000 
G1 X4.850 Y9.760 Z-0.300 F571.000 
G0 Z5.000 
G0 X2.850 Y6.750 Z5.000 
G0 X2.850 Y6.750 Z3.000 
G1 X2.850 Y6.750 Z-0.300 F571.000 
G1 X2.850 Y3.000 Z-0.300 F571.000 
G3 X3.000 Y2.850 Z-0.300 I0.150 J0.000 F571.000 
G1 X6.750 Y2.850 Z-0.300 F571.000 
G1 X6.750 Y2.050 Z-0.300 F571.000 
G1 X2.050 Y2.050 Z-0.300 F571.000 
G1 X2.050 Y6.750 Z-0.300 F571.000 
G1 X2.850 Y6.750 Z-0.300 F571.000 
G0 Z5.000 
G0 X29.250 Y2.850 Z5.000 
G0 X29.250 Y2.850 Z3.000 
G1 X29.250 Y2.850 Z-0.300 F571.000 
G1 X33.000 Y2.850 Z-0.300 F571.000 
G3 X33.150 Y3.000 Z-0.300 I-0.000 J0.150 F571.000 
G1 X33.150 Y6.750 Z-0.300 F571.000 
G1 X33.950 Y6.750 Z-0.300 F571.000 
G1 X33.950 Y2.050 Z-0.300 F571.000 
G1 X29.250 Y2.050 Z-0.300 F571.000 
G1 X29.250 Y2.850 Z-0.300 F571.000 
G0 Z5.000 
G0 Z5.000 
(finish operation: Profile)
(begin operation: TC: 1mm_cut3mm)
(machine units: mm/min)
(TC: 1mm_cut3mm) 
M5
M6 T4 
G43 H4 
M3 S15000 
(finish operation: TC: 1mm_cut3mm)
(begin operation: Helix)
(machine units: mm/min)
(Helix) 
(helix cut operation) 
G0 Z5.000 
G0 Z5.000 
G0 X1.300 Y12.010 Z5.000 
G0 X1.300 Y12.010 Z0.000 
G0 X1.550 Y12.010 
G1 Z0.000 F571.000 
G2 X1.050 Y12.010 Z-0.144 I-0.250 J0.000 F571.000 
G2 X1.550 Y12.010 Z-0.287 I0.250 J0.000 F571.000 
G2 X1.050 Y12.010 Z-0.431 I-0.250 J0.000 F571.000 
G2 X1.550 Y12.010 Z-0.575 I0.250 J0.000 F571.000 
G2 X1.050 Y12.010 Z-0.719 I-0.250 J0.000 F571.000 
G2 X1.550 Y12.010 Z-0.862 I0.250 J0.000 F571.000 
G2 X1.050 Y12.010 Z-1.006 I-0.250 J0.000 F571.000 
G2 X1.550 Y12.010 Z-1.150 I0.250 J0.000 F571.000 
G2 X1.050 Y12.010 Z-1.294 I-0.250 J0.000 F571.000 
G2 X1.550 Y12.010 Z-1.438 I0.250 J0.000 F571.000 
G2 X1.050 Y12.010 Z-1.581 I-0.250 J0.000 F571.000 
G2 X1.550 Y12.010 Z-1.725 I0.250 J0.000 F571.000 
G2 X1.050 Y12.010 Z-1.869 I-0.250 J0.000 F571.000 
G2 X1.550 Y12.010 Z-2.012 I0.250 J0.000 F571.000 
G2 X1.050 Y12.010 Z-2.156 I-0.250 J0.000 F571.000 
G2 X1.550 Y12.010 Z-2.300 I0.250 J0.000 F571.000 
G2 X1.050 Y12.010 Z-2.300 I-0.250 J0.000 F571.000 
G2 X1.550 Y12.010 Z-2.300 I0.250 J0.000 F571.000 
G0 X1.300 Y12.010 Z-2.300 
G0 Z0.000 
G0 Z5.000 
G0 X1.300 Y18.280 Z5.000 
G0 X1.300 Y18.280 Z0.000 
G0 X1.550 Y18.280 
G1 Z0.000 F571.000 
G2 X1.050 Y18.280 Z-0.144 I-0.250 J0.000 F571.000 
G2 X1.550 Y18.280 Z-0.287 I0.250 J0.000 F571.000 
G2 X1.050 Y18.280 Z-0.431 I-0.250 J0.000 F571.000 
G2 X1.550 Y18.280 Z-0.575 I0.250 J0.000 F571.000 
G2 X1.050 Y18.280 Z-0.719 I-0.250 J0.000 F571.000 
G2 X1.550 Y18.280 Z-0.862 I0.250 J0.000 F571.000 
G2 X1.050 Y18.280 Z-1.006 I-0.250 J0.000 F571.000 
G2 X1.550 Y18.280 Z-1.150 I0.250 J0.000 F571.000 
G2 X1.050 Y18.280 Z-1.294 I-0.250 J0.000 F571.000 
G2 X1.550 Y18.280 Z-1.438 I0.250 J0.000 F571.000 
G2 X1.050 Y18.280 Z-1.581 I-0.250 J0.000 F571.000 
G2 X1.550 Y18.280 Z-1.725 I0.250 J0.000 F571.000 
G2 X1.050 Y18.280 Z-1.869 I-0.250 J0.000 F571.000 
G2 X1.550 Y18.280 Z-2.012 I0.250 J0.000 F571.000 
G2 X1.050 Y18.280 Z-2.156 I-0.250 J0.000 F571.000 
G2 X1.550 Y18.280 Z-2.300 I0.250 J0.000 F571.000 
G2 X1.050 Y18.280 Z-2.300 I-0.250 J0.000 F571.000 
G2 X1.550 Y18.280 Z-2.300 I0.250 J0.000 F571.000 
G0 X1.300 Y18.280 Z-2.300 
G0 Z0.000 
G0 Z5.000 
G0 X17.260 Y39.700 Z5.000 
G0 X17.260 Y39.700 Z0.000 
G0 X17.510 Y39.700 
G1 Z0.000 F571.000 
G2 X17.010 Y39.700 Z-0.144 I-0.250 J0.000 F571.000 
G2 X17.510 Y39.700 Z-0.287 I0.250 J0.000 F571.000 
G2 X17.010 Y39.700 Z-0.431 I-0.250 J0.000 F571.000 
G2 X17.510 Y39.700 Z-0.575 I0.250 J0.000 F571.000 
G2 X17.010 Y39.700 Z-0.719 I-0.250 J0.000 F571.000 
G2 X17.510 Y39.700 Z-0.862 I0.250 J0.000 F571.000 
G2 X17.010 Y39.700 Z-1.006 I-0.250 J0.000 F571.000 
G2 X17.510 Y39.700 Z-1.150 I0.250 J0.000 F571.000 
G2 X17.010 Y39.700 Z-1.294 I-0.250 J0.000 F571.000 
G2 X17.510 Y39.700 Z-1.438 I0.250 J0.000 F571.000 
G2 X17.010 Y39.700 Z-1.581 I-0.250 J0.000 F571.000 
G2 X17.510 Y39.700 Z-1.725 I0.250 J0.000 F571.000 
G2 X17.010 Y39.700 Z-1.869 I-0.250 J0.000 F571.000 
G2 X17.510 Y39.700 Z-2.012 I0.250 J0.000 F571.000 
G2 X17.010 Y39.700 Z-2.156 I-0.250 J0.000 F571.000 
G2 X17.510 Y39.700 Z-2.300 I0.250 J0.000 F571.000 
G2 X17.010 Y39.700 Z-2.300 I-0.250 J0.000 F571.000 
G2 X17.510 Y39.700 Z-2.300 I0.250 J0.000 F571.000 
G0 X17.260 Y39.700 Z-2.300 
G0 Z0.000 
G0 Z5.000 
G0 X22.965 Y39.700 Z5.000 
G0 X22.965 Y39.700 Z0.000 
G0 X23.215 Y39.700 
G1 Z0.000 F571.000 
G2 X22.715 Y39.700 Z-0.144 I-0.250 J0.000 F571.000 
G2 X23.215 Y39.700 Z-0.287 I0.250 J0.000 F571.000 
G2 X22.715 Y39.700 Z-0.431 I-0.250 J0.000 F571.000 
G2 X23.215 Y39.700 Z-0.575 I0.250 J0.000 F571.000 
G2 X22.715 Y39.700 Z-0.719 I-0.250 J0.000 F571.000 
G2 X23.215 Y39.700 Z-0.862 I0.250 J0.000 F571.000 
G2 X22.715 Y39.700 Z-1.006 I-0.250 J0.000 F571.000 
G2 X23.215 Y39.700 Z-1.150 I0.250 J0.000 F571.000 
G2 X22.715 Y39.700 Z-1.294 I-0.250 J0.000 F571.000 
G2 X23.215 Y39.700 Z-1.438 I0.250 J0.000 F571.000 
G2 X22.715 Y39.700 Z-1.581 I-0.250 J0.000 F571.000 
G2 X23.215 Y39.700 Z-1.725 I0.250 J0.000 F571.000 
G2 X22.715 Y39.700 Z-1.869 I-0.250 J0.000 F571.000 
G2 X23.215 Y39.700 Z-2.012 I0.250 J0.000 F571.000 
G2 X22.715 Y39.700 Z-2.156 I-0.250 J0.000 F571.000 
G2 X23.215 Y39.700 Z-2.300 I0.250 J0.000 F571.000 
G2 X22.715 Y39.700 Z-2.300 I-0.250 J0.000 F571.000 
G2 X23.215 Y39.700 Z-2.300 I0.250 J0.000 F571.000 
G0 X22.965 Y39.700 Z-2.300 
G0 Z0.000 
G0 Z5.000 
(finish operation: Helix)
(begin operation: Profile001)
(machine units: mm/min)
(Profile001) 
(Compensated Tool Path. Diameter: 1.0) 
G0 Z5.000 
G0 X30.500 Y35.500 
G0 Y35.500 
G0 Y35.500 Z3.000 
G1 X30.500 Y35.500 Z-2.300 F571.000 
G1 X30.500 Y5.500 Z-2.300 F571.000 
G1 X5.500 Y5.500 Z-2.300 F571.000 
G1 X5.500 Y13.610 Z-2.300 F571.000 
G1 X16.000 Y13.610 Z-2.300 F571.000 
G3 X16.500 Y14.110 Z-2.300 I0.000 J0.500 F571.000 
G1 X16.500 Y16.180 Z-2.300 F571.000 
G3 X16.000 Y16.680 Z-2.300 I-0.500 J0.000 F571.000 
G1 X5.500 Y16.680 Z-2.300 F571.000 
G1 X5.500 Y35.500 Z-2.300 F571.000 
G1 X18.695 Y35.500 Z-2.300 F571.000 
G1 X18.695 Y25.000 Z-2.300 F571.000 
G3 X19.195 Y24.500 Z-2.300 I0.500 J-0.000 F571.000 
G1 X21.265 Y24.500 Z-2.300 F571.000 
G3 X21.765 Y25.000 Z-2.300 I0.000 J0.500 F571.000 
G1 X21.765 Y35.500 Z-2.300 F571.000 
G1 X30.500 Y35.500 Z-2.300 F571.000 
G0 Z5.000 
G0 Z5.000 
(finish operation: Profile001)
(begin operation: Profile002)
(machine units: mm/min)
(Profile002) 
(Compensated Tool Path. Diameter: 1.0) 
G0 Z5.000 
G0 X36.354 Y41.354 
G0 Z3.000 
G1 X36.354 Y41.354 Z-2.300 F571.000 
G2 X36.500 Y41.000 Z-2.300 I-0.354 J-0.354 F571.000 
G1 X36.500 Y0.000 Z-2.300 F571.000 
G2 X36.000 Y-0.500 Z-2.300 I-0.500 J-0.000 F571.000 
G1 X0.000 Y-0.500 Z-2.300 F571.000 
G2 X-0.500 Y0.000 Z-2.300 I-0.000 J0.500 F571.000 
G1 X-0.500 Y41.000 Z-2.300 F571.000 
G2 X0.000 Y41.500 Z-2.300 I0.500 J0.000 F571.000 
G1 X36.000 Y41.500 Z-2.300 F571.000 
G2 X36.354 Y41.354 Z-2.300 I0.000 J-0.500 F571.000 
G0 Z5.000 
G0 Z5.000 
(finish operation: Profile002)
(begin postamble)
M05
G17 G54 G90 G80 G40
M2
