(Exported by FreeCAD)
(Post Processor: linuxcnc_post)
(Output Time:2024-04-23 10:36:50.671014)
(begin preamble)
G17 G54 G40 G49 G80 G90
G21
(begin operation: Fixture)
(machine units: mm/min)
G54 
(finish operation: Fixture)
(begin operation: TC: m2_neck6mm_threadmill)
(machine units: mm/min)
(TC: m2_neck6mm_threadmill) 
M5
M6 T3 
G43 H3 
M3 S15000 
(finish operation: TC: m2_neck6mm_threadmill)
(begin operation: ThreadMilling)
(machine units: mm/min)
(ThreadMilling) 
(Begin Thread Milling) 
G0 Z5.000 
G0 X-10.944 Y-1.158 
G0 Z-2.500 
G1 Y-1.068 F571.000 
G3 Y-1.248 Z-2.300 J-0.090 F571.000 
G3 Y-1.068 Z-2.100 J0.090 F571.000 
G3 Y-1.248 Z-1.900 J-0.090 F571.000 
G3 Y-1.068 Z-1.700 J0.090 F571.000 
G3 Y-1.248 Z-1.500 J-0.090 F571.000 
G3 Y-1.068 Z-1.300 J0.090 F571.000 
G3 Y-1.248 Z-1.100 J-0.090 F571.000 
G3 Y-1.068 Z-0.900 J0.090 F571.000 
G3 Y-1.248 Z-0.700 J-0.090 F571.000 
G3 Y-1.068 Z-0.500 J0.090 F571.000 
G3 Y-1.248 Z-0.300 J-0.090 F571.000 
G3 Y-1.068 Z-0.100 J0.090 F571.000 
G3 X-11.034 Y-1.158 Z0.000 J-0.090 F571.000 
G1 X-10.944 Y-1.158 F571.000 
G0 Z5.000 
G0 X-10.944 Y-1.158 
G0 Z-2.500 
G1 Y-1.046 F571.000 
G3 Y-1.270 Z-2.300 J-0.112 F571.000 
G3 Y-1.046 Z-2.100 J0.112 F571.000 
G3 Y-1.270 Z-1.900 J-0.112 F571.000 
G3 Y-1.046 Z-1.700 J0.112 F571.000 
G3 Y-1.270 Z-1.500 J-0.112 F571.000 
G3 Y-1.046 Z-1.300 J0.112 F571.000 
G3 Y-1.270 Z-1.100 J-0.112 F571.000 
G3 Y-1.046 Z-0.900 J0.112 F571.000 
G3 Y-1.270 Z-0.700 J-0.112 F571.000 
G3 Y-1.046 Z-0.500 J0.112 F571.000 
G3 Y-1.270 Z-0.300 J-0.112 F571.000 
G3 Y-1.046 Z-0.100 J0.112 F571.000 
G3 X-11.056 Y-1.158 Z0.000 J-0.112 F571.000 
G1 X-10.944 Y-1.158 F571.000 
G0 Z5.000 
G0 X-10.944 Y-1.158 
G0 Z-2.500 
G1 Y-1.029 F571.000 
G3 Y-1.287 Z-2.300 J-0.129 F571.000 
G3 Y-1.029 Z-2.100 J0.129 F571.000 
G3 Y-1.287 Z-1.900 J-0.129 F571.000 
G3 Y-1.029 Z-1.700 J0.129 F571.000 
G3 Y-1.287 Z-1.500 J-0.129 F571.000 
G3 Y-1.029 Z-1.300 J0.129 F571.000 
G3 Y-1.287 Z-1.100 J-0.129 F571.000 
G3 Y-1.029 Z-0.900 J0.129 F571.000 
G3 Y-1.287 Z-0.700 J-0.129 F571.000 
G3 Y-1.029 Z-0.500 J0.129 F571.000 
G3 Y-1.287 Z-0.300 J-0.129 F571.000 
G3 Y-1.029 Z-0.100 J0.129 F571.000 
G3 X-11.073 Y-1.158 Z0.000 J-0.129 F571.000 
G1 X-10.944 Y-1.158 F571.000 
G0 Z5.000 
G0 X-10.944 Y-1.158 
G0 Z-2.500 
G1 Y-1.015 F571.000 
G3 Y-1.301 Z-2.300 J-0.143 F571.000 
G3 Y-1.015 Z-2.100 J0.143 F571.000 
G3 Y-1.301 Z-1.900 J-0.143 F571.000 
G3 Y-1.015 Z-1.700 J0.143 F571.000 
G3 Y-1.301 Z-1.500 J-0.143 F571.000 
G3 Y-1.015 Z-1.300 J0.143 F571.000 
G3 Y-1.301 Z-1.100 J-0.143 F571.000 
G3 Y-1.015 Z-0.900 J0.143 F571.000 
G3 Y-1.301 Z-0.700 J-0.143 F571.000 
G3 Y-1.015 Z-0.500 J0.143 F571.000 
G3 Y-1.301 Z-0.300 J-0.143 F571.000 
G3 Y-1.015 Z-0.100 J0.143 F571.000 
G3 X-11.087 Y-1.158 Z0.000 J-0.143 F571.000 
G1 X-10.944 Y-1.158 F571.000 
G0 Z5.000 
G0 X-10.944 Y-1.158 
G0 Z-2.500 
G1 Y-1.002 F571.000 
G3 Y-1.313 Z-2.300 J-0.155 F571.000 
G3 Y-1.002 Z-2.100 J0.155 F571.000 
G3 Y-1.313 Z-1.900 J-0.155 F571.000 
G3 Y-1.002 Z-1.700 J0.155 F571.000 
G3 Y-1.313 Z-1.500 J-0.155 F571.000 
G3 Y-1.002 Z-1.300 J0.155 F571.000 
G3 Y-1.313 Z-1.100 J-0.155 F571.000 
G3 Y-1.002 Z-0.900 J0.155 F571.000 
G3 Y-1.313 Z-0.700 J-0.155 F571.000 
G3 Y-1.002 Z-0.500 J0.155 F571.000 
G3 Y-1.313 Z-0.300 J-0.155 F571.000 
G3 Y-1.002 Z-0.100 J0.155 F571.000 
G3 X-11.099 Y-1.158 Z0.000 J-0.155 F571.000 
G1 X-10.944 Y-1.158 F571.000 
G0 Z5.000 
G0 X-10.944 Y-1.158 
G0 Z-2.500 
G1 Y-0.991 F571.000 
G3 Y-1.324 Z-2.300 J-0.167 F571.000 
G3 Y-0.991 Z-2.100 J0.167 F571.000 
G3 Y-1.324 Z-1.900 J-0.167 F571.000 
G3 Y-0.991 Z-1.700 J0.167 F571.000 
G3 Y-1.324 Z-1.500 J-0.167 F571.000 
G3 Y-0.991 Z-1.300 J0.167 F571.000 
G3 Y-1.324 Z-1.100 J-0.167 F571.000 
G3 Y-0.991 Z-0.900 J0.167 F571.000 
G3 Y-1.324 Z-0.700 J-0.167 F571.000 
G3 Y-0.991 Z-0.500 J0.167 F571.000 
G3 Y-1.324 Z-0.300 J-0.167 F571.000 
G3 Y-0.991 Z-0.100 J0.167 F571.000 
G3 X-11.111 Y-1.158 Z0.000 J-0.167 F571.000 
G1 X-10.944 Y-1.158 F571.000 
G0 Z5.000 
G0 X-10.944 Y-1.158 
G0 Z-2.500 
G1 Y-0.981 F571.000 
G3 Y-1.335 Z-2.300 J-0.177 F571.000 
G3 Y-0.981 Z-2.100 J0.177 F571.000 
G3 Y-1.335 Z-1.900 J-0.177 F571.000 
G3 Y-0.981 Z-1.700 J0.177 F571.000 
G3 Y-1.335 Z-1.500 J-0.177 F571.000 
G3 Y-0.981 Z-1.300 J0.177 F571.000 
G3 Y-1.335 Z-1.100 J-0.177 F571.000 
G3 Y-0.981 Z-0.900 J0.177 F571.000 
G3 Y-1.335 Z-0.700 J-0.177 F571.000 
G3 Y-0.981 Z-0.500 J0.177 F571.000 
G3 Y-1.335 Z-0.300 J-0.177 F571.000 
G3 Y-0.981 Z-0.100 J0.177 F571.000 
G3 X-11.121 Y-1.158 Z0.000 J-0.177 F571.000 
G1 X-10.944 Y-1.158 F571.000 
G0 Z5.000 
G0 X-10.944 Y-1.158 
G0 Z-2.500 
G1 Y-0.971 F571.000 
G3 Y-1.344 Z-2.300 J-0.187 F571.000 
G3 Y-0.971 Z-2.100 J0.187 F571.000 
G3 Y-1.344 Z-1.900 J-0.187 F571.000 
G3 Y-0.971 Z-1.700 J0.187 F571.000 
G3 Y-1.344 Z-1.500 J-0.187 F571.000 
G3 Y-0.971 Z-1.300 J0.187 F571.000 
G3 Y-1.344 Z-1.100 J-0.187 F571.000 
G3 Y-0.971 Z-0.900 J0.187 F571.000 
G3 Y-1.344 Z-0.700 J-0.187 F571.000 
G3 Y-0.971 Z-0.500 J0.187 F571.000 
G3 Y-1.344 Z-0.300 J-0.187 F571.000 
G3 Y-0.971 Z-0.100 J0.187 F571.000 
G3 X-11.131 Y-1.158 Z0.000 J-0.187 F571.000 
G1 X-10.944 Y-1.158 F571.000 
G0 Z5.000 
G0 X-10.944 Y-1.158 
G0 Z-2.500 
G1 Y-0.962 F571.000 
G3 Y-1.353 Z-2.300 J-0.196 F571.000 
G3 Y-0.962 Z-2.100 J0.196 F571.000 
G3 Y-1.353 Z-1.900 J-0.196 F571.000 
G3 Y-0.962 Z-1.700 J0.196 F571.000 
G3 Y-1.353 Z-1.500 J-0.196 F571.000 
G3 Y-0.962 Z-1.300 J0.196 F571.000 
G3 Y-1.353 Z-1.100 J-0.196 F571.000 
G3 Y-0.962 Z-0.900 J0.196 F571.000 
G3 Y-1.353 Z-0.700 J-0.196 F571.000 
G3 Y-0.962 Z-0.500 J0.196 F571.000 
G3 Y-1.353 Z-0.300 J-0.196 F571.000 
G3 Y-0.962 Z-0.100 J0.196 F571.000 
G3 X-11.140 Y-1.158 Z0.000 J-0.196 F571.000 
G1 X-10.944 Y-1.158 F571.000 
G0 Z5.000 
G0 X-10.944 Y-1.158 
G0 Z-2.500 
G1 Y-0.954 F571.000 
G3 Y-1.362 Z-2.300 J-0.204 F571.000 
G3 Y-0.954 Z-2.100 J0.204 F571.000 
G3 Y-1.362 Z-1.900 J-0.204 F571.000 
G3 Y-0.954 Z-1.700 J0.204 F571.000 
G3 Y-1.362 Z-1.500 J-0.204 F571.000 
G3 Y-0.954 Z-1.300 J0.204 F571.000 
G3 Y-1.362 Z-1.100 J-0.204 F571.000 
G3 Y-0.954 Z-0.900 J0.204 F571.000 
G3 Y-1.362 Z-0.700 J-0.204 F571.000 
G3 Y-0.954 Z-0.500 J0.204 F571.000 
G3 Y-1.362 Z-0.300 J-0.204 F571.000 
G3 Y-0.954 Z-0.100 J0.204 F571.000 
G3 X-11.148 Y-1.158 Z0.000 J-0.204 F571.000 
G1 X-10.944 Y-1.158 F571.000 
G0 Z5.000 
G0 X-10.944 Y-1.158 
G0 Z-2.500 
G1 Y-0.946 F571.000 
G3 Y-1.370 Z-2.300 J-0.212 F571.000 
G3 Y-0.946 Z-2.100 J0.212 F571.000 
G3 Y-1.370 Z-1.900 J-0.212 F571.000 
G3 Y-0.946 Z-1.700 J0.212 F571.000 
G3 Y-1.370 Z-1.500 J-0.212 F571.000 
G3 Y-0.946 Z-1.300 J0.212 F571.000 
G3 Y-1.370 Z-1.100 J-0.212 F571.000 
G3 Y-0.946 Z-0.900 J0.212 F571.000 
G3 Y-1.370 Z-0.700 J-0.212 F571.000 
G3 Y-0.946 Z-0.500 J0.212 F571.000 
G3 Y-1.370 Z-0.300 J-0.212 F571.000 
G3 Y-0.946 Z-0.100 J0.212 F571.000 
G3 X-11.156 Y-1.158 Z0.000 J-0.212 F571.000 
G1 X-10.944 Y-1.158 F571.000 
G0 Z5.000 
G0 X-10.944 Y-1.158 
G0 Z-2.500 
G1 Y-0.938 F571.000 
G3 Y-1.378 Z-2.300 J-0.220 F571.000 
G3 Y-0.938 Z-2.100 J0.220 F571.000 
G3 Y-1.378 Z-1.900 J-0.220 F571.000 
G3 Y-0.938 Z-1.700 J0.220 F571.000 
G3 Y-1.378 Z-1.500 J-0.220 F571.000 
G3 Y-0.938 Z-1.300 J0.220 F571.000 
G3 Y-1.378 Z-1.100 J-0.220 F571.000 
G3 Y-0.938 Z-0.900 J0.220 F571.000 
G3 Y-1.378 Z-0.700 J-0.220 F571.000 
G3 Y-0.938 Z-0.500 J0.220 F571.000 
G3 Y-1.378 Z-0.300 J-0.220 F571.000 
G3 Y-0.938 Z-0.100 J0.220 F571.000 
G3 X-11.164 Y-1.158 Z0.000 J-0.220 F571.000 
G1 X-10.944 Y-1.158 F571.000 
G0 Z5.000 
G0 Z5.000 
G0 X10.944 Y-1.158 
G0 Z-2.500 
G1 Y-1.068 F571.000 
G3 Y-1.248 Z-2.300 J-0.090 F571.000 
G3 Y-1.068 Z-2.100 J0.090 F571.000 
G3 Y-1.248 Z-1.900 J-0.090 F571.000 
G3 Y-1.068 Z-1.700 J0.090 F571.000 
G3 Y-1.248 Z-1.500 J-0.090 F571.000 
G3 Y-1.068 Z-1.300 J0.090 F571.000 
G3 Y-1.248 Z-1.100 J-0.090 F571.000 
G3 Y-1.068 Z-0.900 J0.090 F571.000 
G3 Y-1.248 Z-0.700 J-0.090 F571.000 
G3 Y-1.068 Z-0.500 J0.090 F571.000 
G3 Y-1.248 Z-0.300 J-0.090 F571.000 
G3 Y-1.068 Z-0.100 J0.090 F571.000 
G3 X10.854 Y-1.158 Z0.000 J-0.090 F571.000 
G1 X10.944 Y-1.158 F571.000 
G0 Z5.000 
G0 X10.944 Y-1.158 
G0 Z-2.500 
G1 Y-1.046 F571.000 
G3 Y-1.270 Z-2.300 J-0.112 F571.000 
G3 Y-1.046 Z-2.100 J0.112 F571.000 
G3 Y-1.270 Z-1.900 J-0.112 F571.000 
G3 Y-1.046 Z-1.700 J0.112 F571.000 
G3 Y-1.270 Z-1.500 J-0.112 F571.000 
G3 Y-1.046 Z-1.300 J0.112 F571.000 
G3 Y-1.270 Z-1.100 J-0.112 F571.000 
G3 Y-1.046 Z-0.900 J0.112 F571.000 
G3 Y-1.270 Z-0.700 J-0.112 F571.000 
G3 Y-1.046 Z-0.500 J0.112 F571.000 
G3 Y-1.270 Z-0.300 J-0.112 F571.000 
G3 Y-1.046 Z-0.100 J0.112 F571.000 
G3 X10.832 Y-1.158 Z0.000 J-0.112 F571.000 
G1 X10.944 Y-1.158 F571.000 
G0 Z5.000 
G0 X10.944 Y-1.158 
G0 Z-2.500 
G1 Y-1.029 F571.000 
G3 Y-1.287 Z-2.300 J-0.129 F571.000 
G3 Y-1.029 Z-2.100 J0.129 F571.000 
G3 Y-1.287 Z-1.900 J-0.129 F571.000 
G3 Y-1.029 Z-1.700 J0.129 F571.000 
G3 Y-1.287 Z-1.500 J-0.129 F571.000 
G3 Y-1.029 Z-1.300 J0.129 F571.000 
G3 Y-1.287 Z-1.100 J-0.129 F571.000 
G3 Y-1.029 Z-0.900 J0.129 F571.000 
G3 Y-1.287 Z-0.700 J-0.129 F571.000 
G3 Y-1.029 Z-0.500 J0.129 F571.000 
G3 Y-1.287 Z-0.300 J-0.129 F571.000 
G3 Y-1.029 Z-0.100 J0.129 F571.000 
G3 X10.815 Y-1.158 Z0.000 J-0.129 F571.000 
G1 X10.944 Y-1.158 F571.000 
G0 Z5.000 
G0 X10.944 Y-1.158 
G0 Z-2.500 
G1 Y-1.015 F571.000 
G3 Y-1.301 Z-2.300 J-0.143 F571.000 
G3 Y-1.015 Z-2.100 J0.143 F571.000 
G3 Y-1.301 Z-1.900 J-0.143 F571.000 
G3 Y-1.015 Z-1.700 J0.143 F571.000 
G3 Y-1.301 Z-1.500 J-0.143 F571.000 
G3 Y-1.015 Z-1.300 J0.143 F571.000 
G3 Y-1.301 Z-1.100 J-0.143 F571.000 
G3 Y-1.015 Z-0.900 J0.143 F571.000 
G3 Y-1.301 Z-0.700 J-0.143 F571.000 
G3 Y-1.015 Z-0.500 J0.143 F571.000 
G3 Y-1.301 Z-0.300 J-0.143 F571.000 
G3 Y-1.015 Z-0.100 J0.143 F571.000 
G3 X10.801 Y-1.158 Z0.000 J-0.143 F571.000 
G1 X10.944 Y-1.158 F571.000 
G0 Z5.000 
G0 X10.944 Y-1.158 
G0 Z-2.500 
G1 Y-1.002 F571.000 
G3 Y-1.313 Z-2.300 J-0.155 F571.000 
G3 Y-1.002 Z-2.100 J0.155 F571.000 
G3 Y-1.313 Z-1.900 J-0.155 F571.000 
G3 Y-1.002 Z-1.700 J0.155 F571.000 
G3 Y-1.313 Z-1.500 J-0.155 F571.000 
G3 Y-1.002 Z-1.300 J0.155 F571.000 
G3 Y-1.313 Z-1.100 J-0.155 F571.000 
G3 Y-1.002 Z-0.900 J0.155 F571.000 
G3 Y-1.313 Z-0.700 J-0.155 F571.000 
G3 Y-1.002 Z-0.500 J0.155 F571.000 
G3 Y-1.313 Z-0.300 J-0.155 F571.000 
G3 Y-1.002 Z-0.100 J0.155 F571.000 
G3 X10.789 Y-1.158 Z0.000 J-0.155 F571.000 
G1 X10.944 Y-1.158 F571.000 
G0 Z5.000 
G0 X10.944 Y-1.158 
G0 Z-2.500 
G1 Y-0.991 F571.000 
G3 Y-1.324 Z-2.300 J-0.167 F571.000 
G3 Y-0.991 Z-2.100 J0.167 F571.000 
G3 Y-1.324 Z-1.900 J-0.167 F571.000 
G3 Y-0.991 Z-1.700 J0.167 F571.000 
G3 Y-1.324 Z-1.500 J-0.167 F571.000 
G3 Y-0.991 Z-1.300 J0.167 F571.000 
G3 Y-1.324 Z-1.100 J-0.167 F571.000 
G3 Y-0.991 Z-0.900 J0.167 F571.000 
G3 Y-1.324 Z-0.700 J-0.167 F571.000 
G3 Y-0.991 Z-0.500 J0.167 F571.000 
G3 Y-1.324 Z-0.300 J-0.167 F571.000 
G3 Y-0.991 Z-0.100 J0.167 F571.000 
G3 X10.777 Y-1.158 Z0.000 J-0.167 F571.000 
G1 X10.944 Y-1.158 F571.000 
G0 Z5.000 
G0 X10.944 Y-1.158 
G0 Z-2.500 
G1 Y-0.981 F571.000 
G3 Y-1.335 Z-2.300 J-0.177 F571.000 
G3 Y-0.981 Z-2.100 J0.177 F571.000 
G3 Y-1.335 Z-1.900 J-0.177 F571.000 
G3 Y-0.981 Z-1.700 J0.177 F571.000 
G3 Y-1.335 Z-1.500 J-0.177 F571.000 
G3 Y-0.981 Z-1.300 J0.177 F571.000 
G3 Y-1.335 Z-1.100 J-0.177 F571.000 
G3 Y-0.981 Z-0.900 J0.177 F571.000 
G3 Y-1.335 Z-0.700 J-0.177 F571.000 
G3 Y-0.981 Z-0.500 J0.177 F571.000 
G3 Y-1.335 Z-0.300 J-0.177 F571.000 
G3 Y-0.981 Z-0.100 J0.177 F571.000 
G3 X10.767 Y-1.158 Z0.000 J-0.177 F571.000 
G1 X10.944 Y-1.158 F571.000 
G0 Z5.000 
G0 X10.944 Y-1.158 
G0 Z-2.500 
G1 Y-0.971 F571.000 
G3 Y-1.344 Z-2.300 J-0.187 F571.000 
G3 Y-0.971 Z-2.100 J0.187 F571.000 
G3 Y-1.344 Z-1.900 J-0.187 F571.000 
G3 Y-0.971 Z-1.700 J0.187 F571.000 
G3 Y-1.344 Z-1.500 J-0.187 F571.000 
G3 Y-0.971 Z-1.300 J0.187 F571.000 
G3 Y-1.344 Z-1.100 J-0.187 F571.000 
G3 Y-0.971 Z-0.900 J0.187 F571.000 
G3 Y-1.344 Z-0.700 J-0.187 F571.000 
G3 Y-0.971 Z-0.500 J0.187 F571.000 
G3 Y-1.344 Z-0.300 J-0.187 F571.000 
G3 Y-0.971 Z-0.100 J0.187 F571.000 
G3 X10.757 Y-1.158 Z0.000 J-0.187 F571.000 
G1 X10.944 Y-1.158 F571.000 
G0 Z5.000 
G0 X10.944 Y-1.158 
G0 Z-2.500 
G1 Y-0.962 F571.000 
G3 Y-1.353 Z-2.300 J-0.196 F571.000 
G3 Y-0.962 Z-2.100 J0.196 F571.000 
G3 Y-1.353 Z-1.900 J-0.196 F571.000 
G3 Y-0.962 Z-1.700 J0.196 F571.000 
G3 Y-1.353 Z-1.500 J-0.196 F571.000 
G3 Y-0.962 Z-1.300 J0.196 F571.000 
G3 Y-1.353 Z-1.100 J-0.196 F571.000 
G3 Y-0.962 Z-0.900 J0.196 F571.000 
G3 Y-1.353 Z-0.700 J-0.196 F571.000 
G3 Y-0.962 Z-0.500 J0.196 F571.000 
G3 Y-1.353 Z-0.300 J-0.196 F571.000 
G3 Y-0.962 Z-0.100 J0.196 F571.000 
G3 X10.748 Y-1.158 Z0.000 J-0.196 F571.000 
G1 X10.944 Y-1.158 F571.000 
G0 Z5.000 
G0 X10.944 Y-1.158 
G0 Z-2.500 
G1 Y-0.954 F571.000 
G3 Y-1.362 Z-2.300 J-0.204 F571.000 
G3 Y-0.954 Z-2.100 J0.204 F571.000 
G3 Y-1.362 Z-1.900 J-0.204 F571.000 
G3 Y-0.954 Z-1.700 J0.204 F571.000 
G3 Y-1.362 Z-1.500 J-0.204 F571.000 
G3 Y-0.954 Z-1.300 J0.204 F571.000 
G3 Y-1.362 Z-1.100 J-0.204 F571.000 
G3 Y-0.954 Z-0.900 J0.204 F571.000 
G3 Y-1.362 Z-0.700 J-0.204 F571.000 
G3 Y-0.954 Z-0.500 J0.204 F571.000 
G3 Y-1.362 Z-0.300 J-0.204 F571.000 
G3 Y-0.954 Z-0.100 J0.204 F571.000 
G3 X10.740 Y-1.158 Z0.000 J-0.204 F571.000 
G1 X10.944 Y-1.158 F571.000 
G0 Z5.000 
G0 X10.944 Y-1.158 
G0 Z-2.500 
G1 Y-0.946 F571.000 
G3 Y-1.370 Z-2.300 J-0.212 F571.000 
G3 Y-0.946 Z-2.100 J0.212 F571.000 
G3 Y-1.370 Z-1.900 J-0.212 F571.000 
G3 Y-0.946 Z-1.700 J0.212 F571.000 
G3 Y-1.370 Z-1.500 J-0.212 F571.000 
G3 Y-0.946 Z-1.300 J0.212 F571.000 
G3 Y-1.370 Z-1.100 J-0.212 F571.000 
G3 Y-0.946 Z-0.900 J0.212 F571.000 
G3 Y-1.370 Z-0.700 J-0.212 F571.000 
G3 Y-0.946 Z-0.500 J0.212 F571.000 
G3 Y-1.370 Z-0.300 J-0.212 F571.000 
G3 Y-0.946 Z-0.100 J0.212 F571.000 
G3 X10.732 Y-1.158 Z0.000 J-0.212 F571.000 
G1 X10.944 Y-1.158 F571.000 
G0 Z5.000 
G0 X10.944 Y-1.158 
G0 Z-2.500 
G1 Y-0.938 F571.000 
G3 Y-1.378 Z-2.300 J-0.220 F571.000 
G3 Y-0.938 Z-2.100 J0.220 F571.000 
G3 Y-1.378 Z-1.900 J-0.220 F571.000 
G3 Y-0.938 Z-1.700 J0.220 F571.000 
G3 Y-1.378 Z-1.500 J-0.220 F571.000 
G3 Y-0.938 Z-1.300 J0.220 F571.000 
G3 Y-1.378 Z-1.100 J-0.220 F571.000 
G3 Y-0.938 Z-0.900 J0.220 F571.000 
G3 Y-1.378 Z-0.700 J-0.220 F571.000 
G3 Y-0.938 Z-0.500 J0.220 F571.000 
G3 Y-1.378 Z-0.300 J-0.220 F571.000 
G3 Y-0.938 Z-0.100 J0.220 F571.000 
G3 X10.724 Y-1.158 Z0.000 J-0.220 F571.000 
G1 X10.944 Y-1.158 F571.000 
G0 Z5.000 
G0 Z5.000 
G0 X6.475 Y-8.899 
G0 Z-2.500 
G1 Y-8.809 F571.000 
G3 Y-8.989 Z-2.300 J-0.090 F571.000 
G3 Y-8.809 Z-2.100 J0.090 F571.000 
G3 Y-8.989 Z-1.900 J-0.090 F571.000 
G3 Y-8.809 Z-1.700 J0.090 F571.000 
G3 Y-8.989 Z-1.500 J-0.090 F571.000 
G3 Y-8.809 Z-1.300 J0.090 F571.000 
G3 Y-8.989 Z-1.100 J-0.090 F571.000 
G3 Y-8.809 Z-0.900 J0.090 F571.000 
G3 Y-8.989 Z-0.700 J-0.090 F571.000 
G3 Y-8.809 Z-0.500 J0.090 F571.000 
G3 Y-8.989 Z-0.300 J-0.090 F571.000 
G3 Y-8.809 Z-0.100 J0.090 F571.000 
G3 X6.384 Y-8.899 Z0.000 J-0.090 F571.000 
G1 X6.475 Y-8.899 F571.000 
G0 Z5.000 
G0 X6.475 Y-8.899 
G0 Z-2.500 
G1 Y-8.787 F571.000 
G3 Y-9.011 Z-2.300 J-0.112 F571.000 
G3 Y-8.787 Z-2.100 J0.112 F571.000 
G3 Y-9.011 Z-1.900 J-0.112 F571.000 
G3 Y-8.787 Z-1.700 J0.112 F571.000 
G3 Y-9.011 Z-1.500 J-0.112 F571.000 
G3 Y-8.787 Z-1.300 J0.112 F571.000 
G3 Y-9.011 Z-1.100 J-0.112 F571.000 
G3 Y-8.787 Z-0.900 J0.112 F571.000 
G3 Y-9.011 Z-0.700 J-0.112 F571.000 
G3 Y-8.787 Z-0.500 J0.112 F571.000 
G3 Y-9.011 Z-0.300 J-0.112 F571.000 
G3 Y-8.787 Z-0.100 J0.112 F571.000 
G3 X6.363 Y-8.899 Z0.000 J-0.112 F571.000 
G1 X6.475 Y-8.899 F571.000 
G0 Z5.000 
G0 X6.475 Y-8.899 
G0 Z-2.500 
G1 Y-8.770 F571.000 
G3 Y-9.028 Z-2.300 J-0.129 F571.000 
G3 Y-8.770 Z-2.100 J0.129 F571.000 
G3 Y-9.028 Z-1.900 J-0.129 F571.000 
G3 Y-8.770 Z-1.700 J0.129 F571.000 
G3 Y-9.028 Z-1.500 J-0.129 F571.000 
G3 Y-8.770 Z-1.300 J0.129 F571.000 
G3 Y-9.028 Z-1.100 J-0.129 F571.000 
G3 Y-8.770 Z-0.900 J0.129 F571.000 
G3 Y-9.028 Z-0.700 J-0.129 F571.000 
G3 Y-8.770 Z-0.500 J0.129 F571.000 
G3 Y-9.028 Z-0.300 J-0.129 F571.000 
G3 Y-8.770 Z-0.100 J0.129 F571.000 
G3 X6.346 Y-8.899 Z0.000 J-0.129 F571.000 
G1 X6.475 Y-8.899 F571.000 
G0 Z5.000 
G0 X6.475 Y-8.899 
G0 Z-2.500 
G1 Y-8.756 F571.000 
G3 Y-9.042 Z-2.300 J-0.143 F571.000 
G3 Y-8.756 Z-2.100 J0.143 F571.000 
G3 Y-9.042 Z-1.900 J-0.143 F571.000 
G3 Y-8.756 Z-1.700 J0.143 F571.000 
G3 Y-9.042 Z-1.500 J-0.143 F571.000 
G3 Y-8.756 Z-1.300 J0.143 F571.000 
G3 Y-9.042 Z-1.100 J-0.143 F571.000 
G3 Y-8.756 Z-0.900 J0.143 F571.000 
G3 Y-9.042 Z-0.700 J-0.143 F571.000 
G3 Y-8.756 Z-0.500 J0.143 F571.000 
G3 Y-9.042 Z-0.300 J-0.143 F571.000 
G3 Y-8.756 Z-0.100 J0.143 F571.000 
G3 X6.332 Y-8.899 Z0.000 J-0.143 F571.000 
G1 X6.475 Y-8.899 F571.000 
G0 Z5.000 
G0 X6.475 Y-8.899 
G0 Z-2.500 
G1 Y-8.743 F571.000 
G3 Y-9.054 Z-2.300 J-0.155 F571.000 
G3 Y-8.743 Z-2.100 J0.155 F571.000 
G3 Y-9.054 Z-1.900 J-0.155 F571.000 
G3 Y-8.743 Z-1.700 J0.155 F571.000 
G3 Y-9.054 Z-1.500 J-0.155 F571.000 
G3 Y-8.743 Z-1.300 J0.155 F571.000 
G3 Y-9.054 Z-1.100 J-0.155 F571.000 
G3 Y-8.743 Z-0.900 J0.155 F571.000 
G3 Y-9.054 Z-0.700 J-0.155 F571.000 
G3 Y-8.743 Z-0.500 J0.155 F571.000 
G3 Y-9.054 Z-0.300 J-0.155 F571.000 
G3 Y-8.743 Z-0.100 J0.155 F571.000 
G3 X6.319 Y-8.899 Z0.000 J-0.155 F571.000 
G1 X6.475 Y-8.899 F571.000 
G0 Z5.000 
G0 X6.475 Y-8.899 
G0 Z-2.500 
G1 Y-8.732 F571.000 
G3 Y-9.065 Z-2.300 J-0.167 F571.000 
G3 Y-8.732 Z-2.100 J0.167 F571.000 
G3 Y-9.065 Z-1.900 J-0.167 F571.000 
G3 Y-8.732 Z-1.700 J0.167 F571.000 
G3 Y-9.065 Z-1.500 J-0.167 F571.000 
G3 Y-8.732 Z-1.300 J0.167 F571.000 
G3 Y-9.065 Z-1.100 J-0.167 F571.000 
G3 Y-8.732 Z-0.900 J0.167 F571.000 
G3 Y-9.065 Z-0.700 J-0.167 F571.000 
G3 Y-8.732 Z-0.500 J0.167 F571.000 
G3 Y-9.065 Z-0.300 J-0.167 F571.000 
G3 Y-8.732 Z-0.100 J0.167 F571.000 
G3 X6.308 Y-8.899 Z0.000 J-0.167 F571.000 
G1 X6.475 Y-8.899 F571.000 
G0 Z5.000 
G0 X6.475 Y-8.899 
G0 Z-2.500 
G1 Y-8.722 F571.000 
G3 Y-9.076 Z-2.300 J-0.177 F571.000 
G3 Y-8.722 Z-2.100 J0.177 F571.000 
G3 Y-9.076 Z-1.900 J-0.177 F571.000 
G3 Y-8.722 Z-1.700 J0.177 F571.000 
G3 Y-9.076 Z-1.500 J-0.177 F571.000 
G3 Y-8.722 Z-1.300 J0.177 F571.000 
G3 Y-9.076 Z-1.100 J-0.177 F571.000 
G3 Y-8.722 Z-0.900 J0.177 F571.000 
G3 Y-9.076 Z-0.700 J-0.177 F571.000 
G3 Y-8.722 Z-0.500 J0.177 F571.000 
G3 Y-9.076 Z-0.300 J-0.177 F571.000 
G3 Y-8.722 Z-0.100 J0.177 F571.000 
G3 X6.298 Y-8.899 Z0.000 J-0.177 F571.000 
G1 X6.475 Y-8.899 F571.000 
G0 Z5.000 
G0 X6.475 Y-8.899 
G0 Z-2.500 
G1 Y-8.712 F571.000 
G3 Y-9.085 Z-2.300 J-0.187 F571.000 
G3 Y-8.712 Z-2.100 J0.187 F571.000 
G3 Y-9.085 Z-1.900 J-0.187 F571.000 
G3 Y-8.712 Z-1.700 J0.187 F571.000 
G3 Y-9.085 Z-1.500 J-0.187 F571.000 
G3 Y-8.712 Z-1.300 J0.187 F571.000 
G3 Y-9.085 Z-1.100 J-0.187 F571.000 
G3 Y-8.712 Z-0.900 J0.187 F571.000 
G3 Y-9.085 Z-0.700 J-0.187 F571.000 
G3 Y-8.712 Z-0.500 J0.187 F571.000 
G3 Y-9.085 Z-0.300 J-0.187 F571.000 
G3 Y-8.712 Z-0.100 J0.187 F571.000 
G3 X6.288 Y-8.899 Z0.000 J-0.187 F571.000 
G1 X6.475 Y-8.899 F571.000 
G0 Z5.000 
G0 X6.475 Y-8.899 
G0 Z-2.500 
G1 Y-8.703 F571.000 
G3 Y-9.094 Z-2.300 J-0.196 F571.000 
G3 Y-8.703 Z-2.100 J0.196 F571.000 
G3 Y-9.094 Z-1.900 J-0.196 F571.000 
G3 Y-8.703 Z-1.700 J0.196 F571.000 
G3 Y-9.094 Z-1.500 J-0.196 F571.000 
G3 Y-8.703 Z-1.300 J0.196 F571.000 
G3 Y-9.094 Z-1.100 J-0.196 F571.000 
G3 Y-8.703 Z-0.900 J0.196 F571.000 
G3 Y-9.094 Z-0.700 J-0.196 F571.000 
G3 Y-8.703 Z-0.500 J0.196 F571.000 
G3 Y-9.094 Z-0.300 J-0.196 F571.000 
G3 Y-8.703 Z-0.100 J0.196 F571.000 
G3 X6.279 Y-8.899 Z0.000 J-0.196 F571.000 
G1 X6.475 Y-8.899 F571.000 
G0 Z5.000 
G0 X6.475 Y-8.899 
G0 Z-2.500 
G1 Y-8.695 F571.000 
G3 Y-9.103 Z-2.300 J-0.204 F571.000 
G3 Y-8.695 Z-2.100 J0.204 F571.000 
G3 Y-9.103 Z-1.900 J-0.204 F571.000 
G3 Y-8.695 Z-1.700 J0.204 F571.000 
G3 Y-9.103 Z-1.500 J-0.204 F571.000 
G3 Y-8.695 Z-1.300 J0.204 F571.000 
G3 Y-9.103 Z-1.100 J-0.204 F571.000 
G3 Y-8.695 Z-0.900 J0.204 F571.000 
G3 Y-9.103 Z-0.700 J-0.204 F571.000 
G3 Y-8.695 Z-0.500 J0.204 F571.000 
G3 Y-9.103 Z-0.300 J-0.204 F571.000 
G3 Y-8.695 Z-0.100 J0.204 F571.000 
G3 X6.271 Y-8.899 Z0.000 J-0.204 F571.000 
G1 X6.475 Y-8.899 F571.000 
G0 Z5.000 
G0 X6.475 Y-8.899 
G0 Z-2.500 
G1 Y-8.687 F571.000 
G3 Y-9.111 Z-2.300 J-0.212 F571.000 
G3 Y-8.687 Z-2.100 J0.212 F571.000 
G3 Y-9.111 Z-1.900 J-0.212 F571.000 
G3 Y-8.687 Z-1.700 J0.212 F571.000 
G3 Y-9.111 Z-1.500 J-0.212 F571.000 
G3 Y-8.687 Z-1.300 J0.212 F571.000 
G3 Y-9.111 Z-1.100 J-0.212 F571.000 
G3 Y-8.687 Z-0.900 J0.212 F571.000 
G3 Y-9.111 Z-0.700 J-0.212 F571.000 
G3 Y-8.687 Z-0.500 J0.212 F571.000 
G3 Y-9.111 Z-0.300 J-0.212 F571.000 
G3 Y-8.687 Z-0.100 J0.212 F571.000 
G3 X6.262 Y-8.899 Z0.000 J-0.212 F571.000 
G1 X6.475 Y-8.899 F571.000 
G0 Z5.000 
G0 X6.475 Y-8.899 
G0 Z-2.500 
G1 Y-8.679 F571.000 
G3 Y-9.119 Z-2.300 J-0.220 F571.000 
G3 Y-8.679 Z-2.100 J0.220 F571.000 
G3 Y-9.119 Z-1.900 J-0.220 F571.000 
G3 Y-8.679 Z-1.700 J0.220 F571.000 
G3 Y-9.119 Z-1.500 J-0.220 F571.000 
G3 Y-8.679 Z-1.300 J0.220 F571.000 
G3 Y-9.119 Z-1.100 J-0.220 F571.000 
G3 Y-8.679 Z-0.900 J0.220 F571.000 
G3 Y-9.119 Z-0.700 J-0.220 F571.000 
G3 Y-8.679 Z-0.500 J0.220 F571.000 
G3 Y-9.119 Z-0.300 J-0.220 F571.000 
G3 Y-8.679 Z-0.100 J0.220 F571.000 
G3 X6.255 Y-8.899 Z0.000 J-0.220 F571.000 
G1 X6.475 Y-8.899 F571.000 
G0 Z5.000 
G0 Z5.000 
G0 X-6.475 Y-8.899 
G0 Z-2.500 
G1 Y-8.809 F571.000 
G3 Y-8.989 Z-2.300 J-0.090 F571.000 
G3 Y-8.809 Z-2.100 J0.090 F571.000 
G3 Y-8.989 Z-1.900 J-0.090 F571.000 
G3 Y-8.809 Z-1.700 J0.090 F571.000 
G3 Y-8.989 Z-1.500 J-0.090 F571.000 
G3 Y-8.809 Z-1.300 J0.090 F571.000 
G3 Y-8.989 Z-1.100 J-0.090 F571.000 
G3 Y-8.809 Z-0.900 J0.090 F571.000 
G3 Y-8.989 Z-0.700 J-0.090 F571.000 
G3 Y-8.809 Z-0.500 J0.090 F571.000 
G3 Y-8.989 Z-0.300 J-0.090 F571.000 
G3 Y-8.809 Z-0.100 J0.090 F571.000 
G3 X-6.565 Y-8.899 Z0.000 J-0.090 F571.000 
G1 X-6.475 Y-8.899 F571.000 
G0 Z5.000 
G0 X-6.475 Y-8.899 
G0 Z-2.500 
G1 Y-8.787 F571.000 
G3 Y-9.011 Z-2.300 J-0.112 F571.000 
G3 Y-8.787 Z-2.100 J0.112 F571.000 
G3 Y-9.011 Z-1.900 J-0.112 F571.000 
G3 Y-8.787 Z-1.700 J0.112 F571.000 
G3 Y-9.011 Z-1.500 J-0.112 F571.000 
G3 Y-8.787 Z-1.300 J0.112 F571.000 
G3 Y-9.011 Z-1.100 J-0.112 F571.000 
G3 Y-8.787 Z-0.900 J0.112 F571.000 
G3 Y-9.011 Z-0.700 J-0.112 F571.000 
G3 Y-8.787 Z-0.500 J0.112 F571.000 
G3 Y-9.011 Z-0.300 J-0.112 F571.000 
G3 Y-8.787 Z-0.100 J0.112 F571.000 
G3 X-6.587 Y-8.899 Z0.000 J-0.112 F571.000 
G1 X-6.475 Y-8.899 F571.000 
G0 Z5.000 
G0 X-6.475 Y-8.899 
G0 Z-2.500 
G1 Y-8.770 F571.000 
G3 Y-9.028 Z-2.300 J-0.129 F571.000 
G3 Y-8.770 Z-2.100 J0.129 F571.000 
G3 Y-9.028 Z-1.900 J-0.129 F571.000 
G3 Y-8.770 Z-1.700 J0.129 F571.000 
G3 Y-9.028 Z-1.500 J-0.129 F571.000 
G3 Y-8.770 Z-1.300 J0.129 F571.000 
G3 Y-9.028 Z-1.100 J-0.129 F571.000 
G3 Y-8.770 Z-0.900 J0.129 F571.000 
G3 Y-9.028 Z-0.700 J-0.129 F571.000 
G3 Y-8.770 Z-0.500 J0.129 F571.000 
G3 Y-9.028 Z-0.300 J-0.129 F571.000 
G3 Y-8.770 Z-0.100 J0.129 F571.000 
G3 X-6.604 Y-8.899 Z0.000 J-0.129 F571.000 
G1 X-6.475 Y-8.899 F571.000 
G0 Z5.000 
G0 X-6.475 Y-8.899 
G0 Z-2.500 
G1 Y-8.756 F571.000 
G3 Y-9.042 Z-2.300 J-0.143 F571.000 
G3 Y-8.756 Z-2.100 J0.143 F571.000 
G3 Y-9.042 Z-1.900 J-0.143 F571.000 
G3 Y-8.756 Z-1.700 J0.143 F571.000 
G3 Y-9.042 Z-1.500 J-0.143 F571.000 
G3 Y-8.756 Z-1.300 J0.143 F571.000 
G3 Y-9.042 Z-1.100 J-0.143 F571.000 
G3 Y-8.756 Z-0.900 J0.143 F571.000 
G3 Y-9.042 Z-0.700 J-0.143 F571.000 
G3 Y-8.756 Z-0.500 J0.143 F571.000 
G3 Y-9.042 Z-0.300 J-0.143 F571.000 
G3 Y-8.756 Z-0.100 J0.143 F571.000 
G3 X-6.618 Y-8.899 Z0.000 J-0.143 F571.000 
G1 X-6.475 Y-8.899 F571.000 
G0 Z5.000 
G0 X-6.475 Y-8.899 
G0 Z-2.500 
G1 Y-8.743 F571.000 
G3 Y-9.054 Z-2.300 J-0.155 F571.000 
G3 Y-8.743 Z-2.100 J0.155 F571.000 
G3 Y-9.054 Z-1.900 J-0.155 F571.000 
G3 Y-8.743 Z-1.700 J0.155 F571.000 
G3 Y-9.054 Z-1.500 J-0.155 F571.000 
G3 Y-8.743 Z-1.300 J0.155 F571.000 
G3 Y-9.054 Z-1.100 J-0.155 F571.000 
G3 Y-8.743 Z-0.900 J0.155 F571.000 
G3 Y-9.054 Z-0.700 J-0.155 F571.000 
G3 Y-8.743 Z-0.500 J0.155 F571.000 
G3 Y-9.054 Z-0.300 J-0.155 F571.000 
G3 Y-8.743 Z-0.100 J0.155 F571.000 
G3 X-6.630 Y-8.899 Z0.000 J-0.155 F571.000 
G1 X-6.475 Y-8.899 F571.000 
G0 Z5.000 
G0 X-6.475 Y-8.899 
G0 Z-2.500 
G1 Y-8.732 F571.000 
G3 Y-9.065 Z-2.300 J-0.167 F571.000 
G3 Y-8.732 Z-2.100 J0.167 F571.000 
G3 Y-9.065 Z-1.900 J-0.167 F571.000 
G3 Y-8.732 Z-1.700 J0.167 F571.000 
G3 Y-9.065 Z-1.500 J-0.167 F571.000 
G3 Y-8.732 Z-1.300 J0.167 F571.000 
G3 Y-9.065 Z-1.100 J-0.167 F571.000 
G3 Y-8.732 Z-0.900 J0.167 F571.000 
G3 Y-9.065 Z-0.700 J-0.167 F571.000 
G3 Y-8.732 Z-0.500 J0.167 F571.000 
G3 Y-9.065 Z-0.300 J-0.167 F571.000 
G3 Y-8.732 Z-0.100 J0.167 F571.000 
G3 X-6.641 Y-8.899 Z0.000 J-0.167 F571.000 
G1 X-6.475 Y-8.899 F571.000 
G0 Z5.000 
G0 X-6.475 Y-8.899 
G0 Z-2.500 
G1 Y-8.722 F571.000 
G3 Y-9.076 Z-2.300 J-0.177 F571.000 
G3 Y-8.722 Z-2.100 J0.177 F571.000 
G3 Y-9.076 Z-1.900 J-0.177 F571.000 
G3 Y-8.722 Z-1.700 J0.177 F571.000 
G3 Y-9.076 Z-1.500 J-0.177 F571.000 
G3 Y-8.722 Z-1.300 J0.177 F571.000 
G3 Y-9.076 Z-1.100 J-0.177 F571.000 
G3 Y-8.722 Z-0.900 J0.177 F571.000 
G3 Y-9.076 Z-0.700 J-0.177 F571.000 
G3 Y-8.722 Z-0.500 J0.177 F571.000 
G3 Y-9.076 Z-0.300 J-0.177 F571.000 
G3 Y-8.722 Z-0.100 J0.177 F571.000 
G3 X-6.652 Y-8.899 Z0.000 J-0.177 F571.000 
G1 X-6.475 Y-8.899 F571.000 
G0 Z5.000 
G0 X-6.475 Y-8.899 
G0 Z-2.500 
G1 Y-8.712 F571.000 
G3 Y-9.085 Z-2.300 J-0.187 F571.000 
G3 Y-8.712 Z-2.100 J0.187 F571.000 
G3 Y-9.085 Z-1.900 J-0.187 F571.000 
G3 Y-8.712 Z-1.700 J0.187 F571.000 
G3 Y-9.085 Z-1.500 J-0.187 F571.000 
G3 Y-8.712 Z-1.300 J0.187 F571.000 
G3 Y-9.085 Z-1.100 J-0.187 F571.000 
G3 Y-8.712 Z-0.900 J0.187 F571.000 
G3 Y-9.085 Z-0.700 J-0.187 F571.000 
G3 Y-8.712 Z-0.500 J0.187 F571.000 
G3 Y-9.085 Z-0.300 J-0.187 F571.000 
G3 Y-8.712 Z-0.100 J0.187 F571.000 
G3 X-6.661 Y-8.899 Z0.000 J-0.187 F571.000 
G1 X-6.475 Y-8.899 F571.000 
G0 Z5.000 
G0 X-6.475 Y-8.899 
G0 Z-2.500 
G1 Y-8.703 F571.000 
G3 Y-9.094 Z-2.300 J-0.196 F571.000 
G3 Y-8.703 Z-2.100 J0.196 F571.000 
G3 Y-9.094 Z-1.900 J-0.196 F571.000 
G3 Y-8.703 Z-1.700 J0.196 F571.000 
G3 Y-9.094 Z-1.500 J-0.196 F571.000 
G3 Y-8.703 Z-1.300 J0.196 F571.000 
G3 Y-9.094 Z-1.100 J-0.196 F571.000 
G3 Y-8.703 Z-0.900 J0.196 F571.000 
G3 Y-9.094 Z-0.700 J-0.196 F571.000 
G3 Y-8.703 Z-0.500 J0.196 F571.000 
G3 Y-9.094 Z-0.300 J-0.196 F571.000 
G3 Y-8.703 Z-0.100 J0.196 F571.000 
G3 X-6.670 Y-8.899 Z0.000 J-0.196 F571.000 
G1 X-6.475 Y-8.899 F571.000 
G0 Z5.000 
G0 X-6.475 Y-8.899 
G0 Z-2.500 
G1 Y-8.695 F571.000 
G3 Y-9.103 Z-2.300 J-0.204 F571.000 
G3 Y-8.695 Z-2.100 J0.204 F571.000 
G3 Y-9.103 Z-1.900 J-0.204 F571.000 
G3 Y-8.695 Z-1.700 J0.204 F571.000 
G3 Y-9.103 Z-1.500 J-0.204 F571.000 
G3 Y-8.695 Z-1.300 J0.204 F571.000 
G3 Y-9.103 Z-1.100 J-0.204 F571.000 
G3 Y-8.695 Z-0.900 J0.204 F571.000 
G3 Y-9.103 Z-0.700 J-0.204 F571.000 
G3 Y-8.695 Z-0.500 J0.204 F571.000 
G3 Y-9.103 Z-0.300 J-0.204 F571.000 
G3 Y-8.695 Z-0.100 J0.204 F571.000 
G3 X-6.679 Y-8.899 Z0.000 J-0.204 F571.000 
G1 X-6.475 Y-8.899 F571.000 
G0 Z5.000 
G0 X-6.475 Y-8.899 
G0 Z-2.500 
G1 Y-8.687 F571.000 
G3 Y-9.111 Z-2.300 J-0.212 F571.000 
G3 Y-8.687 Z-2.100 J0.212 F571.000 
G3 Y-9.111 Z-1.900 J-0.212 F571.000 
G3 Y-8.687 Z-1.700 J0.212 F571.000 
G3 Y-9.111 Z-1.500 J-0.212 F571.000 
G3 Y-8.687 Z-1.300 J0.212 F571.000 
G3 Y-9.111 Z-1.100 J-0.212 F571.000 
G3 Y-8.687 Z-0.900 J0.212 F571.000 
G3 Y-9.111 Z-0.700 J-0.212 F571.000 
G3 Y-8.687 Z-0.500 J0.212 F571.000 
G3 Y-9.111 Z-0.300 J-0.212 F571.000 
G3 Y-8.687 Z-0.100 J0.212 F571.000 
G3 X-6.687 Y-8.899 Z0.000 J-0.212 F571.000 
G1 X-6.475 Y-8.899 F571.000 
G0 Z5.000 
G0 X-6.475 Y-8.899 
G0 Z-2.500 
G1 Y-8.679 F571.000 
G3 Y-9.119 Z-2.300 J-0.220 F571.000 
G3 Y-8.679 Z-2.100 J0.220 F571.000 
G3 Y-9.119 Z-1.900 J-0.220 F571.000 
G3 Y-8.679 Z-1.700 J0.220 F571.000 
G3 Y-9.119 Z-1.500 J-0.220 F571.000 
G3 Y-8.679 Z-1.300 J0.220 F571.000 
G3 Y-9.119 Z-1.100 J-0.220 F571.000 
G3 Y-8.679 Z-0.900 J0.220 F571.000 
G3 Y-9.119 Z-0.700 J-0.220 F571.000 
G3 Y-8.679 Z-0.500 J0.220 F571.000 
G3 Y-9.119 Z-0.300 J-0.220 F571.000 
G3 Y-8.679 Z-0.100 J0.220 F571.000 
G3 X-6.695 Y-8.899 Z0.000 J-0.220 F571.000 
G1 X-6.475 Y-8.899 F571.000 
G0 Z5.000 
G0 Z5.000 
G0 X4.469 Y10.057 
G0 Z-2.500 
G1 Y10.147 F571.000 
G3 Y9.966 Z-2.300 J-0.090 F571.000 
G3 Y10.147 Z-2.100 J0.090 F571.000 
G3 Y9.966 Z-1.900 J-0.090 F571.000 
G3 Y10.147 Z-1.700 J0.090 F571.000 
G3 Y9.966 Z-1.500 J-0.090 F571.000 
G3 Y10.147 Z-1.300 J0.090 F571.000 
G3 Y9.966 Z-1.100 J-0.090 F571.000 
G3 Y10.147 Z-0.900 J0.090 F571.000 
G3 Y9.966 Z-0.700 J-0.090 F571.000 
G3 Y10.147 Z-0.500 J0.090 F571.000 
G3 Y9.966 Z-0.300 J-0.090 F571.000 
G3 Y10.147 Z-0.100 J0.090 F571.000 
G3 X4.379 Y10.057 Z0.000 J-0.090 F571.000 
G1 X4.469 Y10.057 F571.000 
G0 Z5.000 
G0 X4.469 Y10.057 
G0 Z-2.500 
G1 Y10.169 F571.000 
G3 Y9.945 Z-2.300 J-0.112 F571.000 
G3 Y10.169 Z-2.100 J0.112 F571.000 
G3 Y9.945 Z-1.900 J-0.112 F571.000 
G3 Y10.169 Z-1.700 J0.112 F571.000 
G3 Y9.945 Z-1.500 J-0.112 F571.000 
G3 Y10.169 Z-1.300 J0.112 F571.000 
G3 Y9.945 Z-1.100 J-0.112 F571.000 
G3 Y10.169 Z-0.900 J0.112 F571.000 
G3 Y9.945 Z-0.700 J-0.112 F571.000 
G3 Y10.169 Z-0.500 J0.112 F571.000 
G3 Y9.945 Z-0.300 J-0.112 F571.000 
G3 Y10.169 Z-0.100 J0.112 F571.000 
G3 X4.357 Y10.057 Z0.000 J-0.112 F571.000 
G1 X4.469 Y10.057 F571.000 
G0 Z5.000 
G0 X4.469 Y10.057 
G0 Z-2.500 
G1 Y10.186 F571.000 
G3 Y9.928 Z-2.300 J-0.129 F571.000 
G3 Y10.186 Z-2.100 J0.129 F571.000 
G3 Y9.928 Z-1.900 J-0.129 F571.000 
G3 Y10.186 Z-1.700 J0.129 F571.000 
G3 Y9.928 Z-1.500 J-0.129 F571.000 
G3 Y10.186 Z-1.300 J0.129 F571.000 
G3 Y9.928 Z-1.100 J-0.129 F571.000 
G3 Y10.186 Z-0.900 J0.129 F571.000 
G3 Y9.928 Z-0.700 J-0.129 F571.000 
G3 Y10.186 Z-0.500 J0.129 F571.000 
G3 Y9.928 Z-0.300 J-0.129 F571.000 
G3 Y10.186 Z-0.100 J0.129 F571.000 
G3 X4.340 Y10.057 Z0.000 J-0.129 F571.000 
G1 X4.469 Y10.057 F571.000 
G0 Z5.000 
G0 X4.469 Y10.057 
G0 Z-2.500 
G1 Y10.200 F571.000 
G3 Y9.914 Z-2.300 J-0.143 F571.000 
G3 Y10.200 Z-2.100 J0.143 F571.000 
G3 Y9.914 Z-1.900 J-0.143 F571.000 
G3 Y10.200 Z-1.700 J0.143 F571.000 
G3 Y9.914 Z-1.500 J-0.143 F571.000 
G3 Y10.200 Z-1.300 J0.143 F571.000 
G3 Y9.914 Z-1.100 J-0.143 F571.000 
G3 Y10.200 Z-0.900 J0.143 F571.000 
G3 Y9.914 Z-0.700 J-0.143 F571.000 
G3 Y10.200 Z-0.500 J0.143 F571.000 
G3 Y9.914 Z-0.300 J-0.143 F571.000 
G3 Y10.200 Z-0.100 J0.143 F571.000 
G3 X4.326 Y10.057 Z0.000 J-0.143 F571.000 
G1 X4.469 Y10.057 F571.000 
G0 Z5.000 
G0 X4.469 Y10.057 
G0 Z-2.500 
G1 Y10.212 F571.000 
G3 Y9.901 Z-2.300 J-0.155 F571.000 
G3 Y10.212 Z-2.100 J0.155 F571.000 
G3 Y9.901 Z-1.900 J-0.155 F571.000 
G3 Y10.212 Z-1.700 J0.155 F571.000 
G3 Y9.901 Z-1.500 J-0.155 F571.000 
G3 Y10.212 Z-1.300 J0.155 F571.000 
G3 Y9.901 Z-1.100 J-0.155 F571.000 
G3 Y10.212 Z-0.900 J0.155 F571.000 
G3 Y9.901 Z-0.700 J-0.155 F571.000 
G3 Y10.212 Z-0.500 J0.155 F571.000 
G3 Y9.901 Z-0.300 J-0.155 F571.000 
G3 Y10.212 Z-0.100 J0.155 F571.000 
G3 X4.314 Y10.057 Z0.000 J-0.155 F571.000 
G1 X4.469 Y10.057 F571.000 
G0 Z5.000 
G0 X4.469 Y10.057 
G0 Z-2.500 
G1 Y10.223 F571.000 
G3 Y9.890 Z-2.300 J-0.167 F571.000 
G3 Y10.223 Z-2.100 J0.167 F571.000 
G3 Y9.890 Z-1.900 J-0.167 F571.000 
G3 Y10.223 Z-1.700 J0.167 F571.000 
G3 Y9.890 Z-1.500 J-0.167 F571.000 
G3 Y10.223 Z-1.300 J0.167 F571.000 
G3 Y9.890 Z-1.100 J-0.167 F571.000 
G3 Y10.223 Z-0.900 J0.167 F571.000 
G3 Y9.890 Z-0.700 J-0.167 F571.000 
G3 Y10.223 Z-0.500 J0.167 F571.000 
G3 Y9.890 Z-0.300 J-0.167 F571.000 
G3 Y10.223 Z-0.100 J0.167 F571.000 
G3 X4.303 Y10.057 Z0.000 J-0.167 F571.000 
G1 X4.469 Y10.057 F571.000 
G0 Z5.000 
G0 X4.469 Y10.057 
G0 Z-2.500 
G1 Y10.234 F571.000 
G3 Y9.880 Z-2.300 J-0.177 F571.000 
G3 Y10.234 Z-2.100 J0.177 F571.000 
G3 Y9.880 Z-1.900 J-0.177 F571.000 
G3 Y10.234 Z-1.700 J0.177 F571.000 
G3 Y9.880 Z-1.500 J-0.177 F571.000 
G3 Y10.234 Z-1.300 J0.177 F571.000 
G3 Y9.880 Z-1.100 J-0.177 F571.000 
G3 Y10.234 Z-0.900 J0.177 F571.000 
G3 Y9.880 Z-0.700 J-0.177 F571.000 
G3 Y10.234 Z-0.500 J0.177 F571.000 
G3 Y9.880 Z-0.300 J-0.177 F571.000 
G3 Y10.234 Z-0.100 J0.177 F571.000 
G3 X4.292 Y10.057 Z0.000 J-0.177 F571.000 
G1 X4.469 Y10.057 F571.000 
G0 Z5.000 
G0 X4.469 Y10.057 
G0 Z-2.500 
G1 Y10.243 F571.000 
G3 Y9.870 Z-2.300 J-0.187 F571.000 
G3 Y10.243 Z-2.100 J0.187 F571.000 
G3 Y9.870 Z-1.900 J-0.187 F571.000 
G3 Y10.243 Z-1.700 J0.187 F571.000 
G3 Y9.870 Z-1.500 J-0.187 F571.000 
G3 Y10.243 Z-1.300 J0.187 F571.000 
G3 Y9.870 Z-1.100 J-0.187 F571.000 
G3 Y10.243 Z-0.900 J0.187 F571.000 
G3 Y9.870 Z-0.700 J-0.187 F571.000 
G3 Y10.243 Z-0.500 J0.187 F571.000 
G3 Y9.870 Z-0.300 J-0.187 F571.000 
G3 Y10.243 Z-0.100 J0.187 F571.000 
G3 X4.283 Y10.057 Z0.000 J-0.187 F571.000 
G1 X4.469 Y10.057 F571.000 
G0 Z5.000 
G0 X4.469 Y10.057 
G0 Z-2.500 
G1 Y10.252 F571.000 
G3 Y9.861 Z-2.300 J-0.196 F571.000 
G3 Y10.252 Z-2.100 J0.196 F571.000 
G3 Y9.861 Z-1.900 J-0.196 F571.000 
G3 Y10.252 Z-1.700 J0.196 F571.000 
G3 Y9.861 Z-1.500 J-0.196 F571.000 
G3 Y10.252 Z-1.300 J0.196 F571.000 
G3 Y9.861 Z-1.100 J-0.196 F571.000 
G3 Y10.252 Z-0.900 J0.196 F571.000 
G3 Y9.861 Z-0.700 J-0.196 F571.000 
G3 Y10.252 Z-0.500 J0.196 F571.000 
G3 Y9.861 Z-0.300 J-0.196 F571.000 
G3 Y10.252 Z-0.100 J0.196 F571.000 
G3 X4.274 Y10.057 Z0.000 J-0.196 F571.000 
G1 X4.469 Y10.057 F571.000 
G0 Z5.000 
G0 X4.469 Y10.057 
G0 Z-2.500 
G1 Y10.261 F571.000 
G3 Y9.853 Z-2.300 J-0.204 F571.000 
G3 Y10.261 Z-2.100 J0.204 F571.000 
G3 Y9.853 Z-1.900 J-0.204 F571.000 
G3 Y10.261 Z-1.700 J0.204 F571.000 
G3 Y9.853 Z-1.500 J-0.204 F571.000 
G3 Y10.261 Z-1.300 J0.204 F571.000 
G3 Y9.853 Z-1.100 J-0.204 F571.000 
G3 Y10.261 Z-0.900 J0.204 F571.000 
G3 Y9.853 Z-0.700 J-0.204 F571.000 
G3 Y10.261 Z-0.500 J0.204 F571.000 
G3 Y9.853 Z-0.300 J-0.204 F571.000 
G3 Y10.261 Z-0.100 J0.204 F571.000 
G3 X4.265 Y10.057 Z0.000 J-0.204 F571.000 
G1 X4.469 Y10.057 F571.000 
G0 Z5.000 
G0 X4.469 Y10.057 
G0 Z-2.500 
G1 Y10.269 F571.000 
G3 Y9.844 Z-2.300 J-0.212 F571.000 
G3 Y10.269 Z-2.100 J0.212 F571.000 
G3 Y9.844 Z-1.900 J-0.212 F571.000 
G3 Y10.269 Z-1.700 J0.212 F571.000 
G3 Y9.844 Z-1.500 J-0.212 F571.000 
G3 Y10.269 Z-1.300 J0.212 F571.000 
G3 Y9.844 Z-1.100 J-0.212 F571.000 
G3 Y10.269 Z-0.900 J0.212 F571.000 
G3 Y9.844 Z-0.700 J-0.212 F571.000 
G3 Y10.269 Z-0.500 J0.212 F571.000 
G3 Y9.844 Z-0.300 J-0.212 F571.000 
G3 Y10.269 Z-0.100 J0.212 F571.000 
G3 X4.257 Y10.057 Z0.000 J-0.212 F571.000 
G1 X4.469 Y10.057 F571.000 
G0 Z5.000 
G0 X4.469 Y10.057 
G0 Z-2.500 
G1 Y10.277 F571.000 
G3 Y9.837 Z-2.300 J-0.220 F571.000 
G3 Y10.277 Z-2.100 J0.220 F571.000 
G3 Y9.837 Z-1.900 J-0.220 F571.000 
G3 Y10.277 Z-1.700 J0.220 F571.000 
G3 Y9.837 Z-1.500 J-0.220 F571.000 
G3 Y10.277 Z-1.300 J0.220 F571.000 
G3 Y9.837 Z-1.100 J-0.220 F571.000 
G3 Y10.277 Z-0.900 J0.220 F571.000 
G3 Y9.837 Z-0.700 J-0.220 F571.000 
G3 Y10.277 Z-0.500 J0.220 F571.000 
G3 Y9.837 Z-0.300 J-0.220 F571.000 
G3 Y10.277 Z-0.100 J0.220 F571.000 
G3 X4.249 Y10.057 Z0.000 J-0.220 F571.000 
G1 X4.469 Y10.057 F571.000 
G0 Z5.000 
G0 Z5.000 
G0 X-4.469 Y10.057 
G0 Z-2.500 
G1 Y10.147 F571.000 
G3 Y9.966 Z-2.300 J-0.090 F571.000 
G3 Y10.147 Z-2.100 J0.090 F571.000 
G3 Y9.966 Z-1.900 J-0.090 F571.000 
G3 Y10.147 Z-1.700 J0.090 F571.000 
G3 Y9.966 Z-1.500 J-0.090 F571.000 
G3 Y10.147 Z-1.300 J0.090 F571.000 
G3 Y9.966 Z-1.100 J-0.090 F571.000 
G3 Y10.147 Z-0.900 J0.090 F571.000 
G3 Y9.966 Z-0.700 J-0.090 F571.000 
G3 Y10.147 Z-0.500 J0.090 F571.000 
G3 Y9.966 Z-0.300 J-0.090 F571.000 
G3 Y10.147 Z-0.100 J0.090 F571.000 
G3 X-4.560 Y10.057 Z0.000 J-0.090 F571.000 
G1 X-4.469 Y10.057 F571.000 
G0 Z5.000 
G0 X-4.469 Y10.057 
G0 Z-2.500 
G1 Y10.169 F571.000 
G3 Y9.945 Z-2.300 J-0.112 F571.000 
G3 Y10.169 Z-2.100 J0.112 F571.000 
G3 Y9.945 Z-1.900 J-0.112 F571.000 
G3 Y10.169 Z-1.700 J0.112 F571.000 
G3 Y9.945 Z-1.500 J-0.112 F571.000 
G3 Y10.169 Z-1.300 J0.112 F571.000 
G3 Y9.945 Z-1.100 J-0.112 F571.000 
G3 Y10.169 Z-0.900 J0.112 F571.000 
G3 Y9.945 Z-0.700 J-0.112 F571.000 
G3 Y10.169 Z-0.500 J0.112 F571.000 
G3 Y9.945 Z-0.300 J-0.112 F571.000 
G3 Y10.169 Z-0.100 J0.112 F571.000 
G3 X-4.581 Y10.057 Z0.000 J-0.112 F571.000 
G1 X-4.469 Y10.057 F571.000 
G0 Z5.000 
G0 X-4.469 Y10.057 
G0 Z-2.500 
G1 Y10.186 F571.000 
G3 Y9.928 Z-2.300 J-0.129 F571.000 
G3 Y10.186 Z-2.100 J0.129 F571.000 
G3 Y9.928 Z-1.900 J-0.129 F571.000 
G3 Y10.186 Z-1.700 J0.129 F571.000 
G3 Y9.928 Z-1.500 J-0.129 F571.000 
G3 Y10.186 Z-1.300 J0.129 F571.000 
G3 Y9.928 Z-1.100 J-0.129 F571.000 
G3 Y10.186 Z-0.900 J0.129 F571.000 
G3 Y9.928 Z-0.700 J-0.129 F571.000 
G3 Y10.186 Z-0.500 J0.129 F571.000 
G3 Y9.928 Z-0.300 J-0.129 F571.000 
G3 Y10.186 Z-0.100 J0.129 F571.000 
G3 X-4.598 Y10.057 Z0.000 J-0.129 F571.000 
G1 X-4.469 Y10.057 F571.000 
G0 Z5.000 
G0 X-4.469 Y10.057 
G0 Z-2.500 
G1 Y10.200 F571.000 
G3 Y9.914 Z-2.300 J-0.143 F571.000 
G3 Y10.200 Z-2.100 J0.143 F571.000 
G3 Y9.914 Z-1.900 J-0.143 F571.000 
G3 Y10.200 Z-1.700 J0.143 F571.000 
G3 Y9.914 Z-1.500 J-0.143 F571.000 
G3 Y10.200 Z-1.300 J0.143 F571.000 
G3 Y9.914 Z-1.100 J-0.143 F571.000 
G3 Y10.200 Z-0.900 J0.143 F571.000 
G3 Y9.914 Z-0.700 J-0.143 F571.000 
G3 Y10.200 Z-0.500 J0.143 F571.000 
G3 Y9.914 Z-0.300 J-0.143 F571.000 
G3 Y10.200 Z-0.100 J0.143 F571.000 
G3 X-4.612 Y10.057 Z0.000 J-0.143 F571.000 
G1 X-4.469 Y10.057 F571.000 
G0 Z5.000 
G0 X-4.469 Y10.057 
G0 Z-2.500 
G1 Y10.212 F571.000 
G3 Y9.901 Z-2.300 J-0.155 F571.000 
G3 Y10.212 Z-2.100 J0.155 F571.000 
G3 Y9.901 Z-1.900 J-0.155 F571.000 
G3 Y10.212 Z-1.700 J0.155 F571.000 
G3 Y9.901 Z-1.500 J-0.155 F571.000 
G3 Y10.212 Z-1.300 J0.155 F571.000 
G3 Y9.901 Z-1.100 J-0.155 F571.000 
G3 Y10.212 Z-0.900 J0.155 F571.000 
G3 Y9.901 Z-0.700 J-0.155 F571.000 
G3 Y10.212 Z-0.500 J0.155 F571.000 
G3 Y9.901 Z-0.300 J-0.155 F571.000 
G3 Y10.212 Z-0.100 J0.155 F571.000 
G3 X-4.625 Y10.057 Z0.000 J-0.155 F571.000 
G1 X-4.469 Y10.057 F571.000 
G0 Z5.000 
G0 X-4.469 Y10.057 
G0 Z-2.500 
G1 Y10.223 F571.000 
G3 Y9.890 Z-2.300 J-0.167 F571.000 
G3 Y10.223 Z-2.100 J0.167 F571.000 
G3 Y9.890 Z-1.900 J-0.167 F571.000 
G3 Y10.223 Z-1.700 J0.167 F571.000 
G3 Y9.890 Z-1.500 J-0.167 F571.000 
G3 Y10.223 Z-1.300 J0.167 F571.000 
G3 Y9.890 Z-1.100 J-0.167 F571.000 
G3 Y10.223 Z-0.900 J0.167 F571.000 
G3 Y9.890 Z-0.700 J-0.167 F571.000 
G3 Y10.223 Z-0.500 J0.167 F571.000 
G3 Y9.890 Z-0.300 J-0.167 F571.000 
G3 Y10.223 Z-0.100 J0.167 F571.000 
G3 X-4.636 Y10.057 Z0.000 J-0.167 F571.000 
G1 X-4.469 Y10.057 F571.000 
G0 Z5.000 
G0 X-4.469 Y10.057 
G0 Z-2.500 
G1 Y10.234 F571.000 
G3 Y9.880 Z-2.300 J-0.177 F571.000 
G3 Y10.234 Z-2.100 J0.177 F571.000 
G3 Y9.880 Z-1.900 J-0.177 F571.000 
G3 Y10.234 Z-1.700 J0.177 F571.000 
G3 Y9.880 Z-1.500 J-0.177 F571.000 
G3 Y10.234 Z-1.300 J0.177 F571.000 
G3 Y9.880 Z-1.100 J-0.177 F571.000 
G3 Y10.234 Z-0.900 J0.177 F571.000 
G3 Y9.880 Z-0.700 J-0.177 F571.000 
G3 Y10.234 Z-0.500 J0.177 F571.000 
G3 Y9.880 Z-0.300 J-0.177 F571.000 
G3 Y10.234 Z-0.100 J0.177 F571.000 
G3 X-4.646 Y10.057 Z0.000 J-0.177 F571.000 
G1 X-4.469 Y10.057 F571.000 
G0 Z5.000 
G0 X-4.469 Y10.057 
G0 Z-2.500 
G1 Y10.243 F571.000 
G3 Y9.870 Z-2.300 J-0.187 F571.000 
G3 Y10.243 Z-2.100 J0.187 F571.000 
G3 Y9.870 Z-1.900 J-0.187 F571.000 
G3 Y10.243 Z-1.700 J0.187 F571.000 
G3 Y9.870 Z-1.500 J-0.187 F571.000 
G3 Y10.243 Z-1.300 J0.187 F571.000 
G3 Y9.870 Z-1.100 J-0.187 F571.000 
G3 Y10.243 Z-0.900 J0.187 F571.000 
G3 Y9.870 Z-0.700 J-0.187 F571.000 
G3 Y10.243 Z-0.500 J0.187 F571.000 
G3 Y9.870 Z-0.300 J-0.187 F571.000 
G3 Y10.243 Z-0.100 J0.187 F571.000 
G3 X-4.656 Y10.057 Z0.000 J-0.187 F571.000 
G1 X-4.469 Y10.057 F571.000 
G0 Z5.000 
G0 X-4.469 Y10.057 
G0 Z-2.500 
G1 Y10.252 F571.000 
G3 Y9.861 Z-2.300 J-0.196 F571.000 
G3 Y10.252 Z-2.100 J0.196 F571.000 
G3 Y9.861 Z-1.900 J-0.196 F571.000 
G3 Y10.252 Z-1.700 J0.196 F571.000 
G3 Y9.861 Z-1.500 J-0.196 F571.000 
G3 Y10.252 Z-1.300 J0.196 F571.000 
G3 Y9.861 Z-1.100 J-0.196 F571.000 
G3 Y10.252 Z-0.900 J0.196 F571.000 
G3 Y9.861 Z-0.700 J-0.196 F571.000 
G3 Y10.252 Z-0.500 J0.196 F571.000 
G3 Y9.861 Z-0.300 J-0.196 F571.000 
G3 Y10.252 Z-0.100 J0.196 F571.000 
G3 X-4.665 Y10.057 Z0.000 J-0.196 F571.000 
G1 X-4.469 Y10.057 F571.000 
G0 Z5.000 
G0 X-4.469 Y10.057 
G0 Z-2.500 
G1 Y10.261 F571.000 
G3 Y9.853 Z-2.300 J-0.204 F571.000 
G3 Y10.261 Z-2.100 J0.204 F571.000 
G3 Y9.853 Z-1.900 J-0.204 F571.000 
G3 Y10.261 Z-1.700 J0.204 F571.000 
G3 Y9.853 Z-1.500 J-0.204 F571.000 
G3 Y10.261 Z-1.300 J0.204 F571.000 
G3 Y9.853 Z-1.100 J-0.204 F571.000 
G3 Y10.261 Z-0.900 J0.204 F571.000 
G3 Y9.853 Z-0.700 J-0.204 F571.000 
G3 Y10.261 Z-0.500 J0.204 F571.000 
G3 Y9.853 Z-0.300 J-0.204 F571.000 
G3 Y10.261 Z-0.100 J0.204 F571.000 
G3 X-4.673 Y10.057 Z0.000 J-0.204 F571.000 
G1 X-4.469 Y10.057 F571.000 
G0 Z5.000 
G0 X-4.469 Y10.057 
G0 Z-2.500 
G1 Y10.269 F571.000 
G3 Y9.844 Z-2.300 J-0.212 F571.000 
G3 Y10.269 Z-2.100 J0.212 F571.000 
G3 Y9.844 Z-1.900 J-0.212 F571.000 
G3 Y10.269 Z-1.700 J0.212 F571.000 
G3 Y9.844 Z-1.500 J-0.212 F571.000 
G3 Y10.269 Z-1.300 J0.212 F571.000 
G3 Y9.844 Z-1.100 J-0.212 F571.000 
G3 Y10.269 Z-0.900 J0.212 F571.000 
G3 Y9.844 Z-0.700 J-0.212 F571.000 
G3 Y10.269 Z-0.500 J0.212 F571.000 
G3 Y9.844 Z-0.300 J-0.212 F571.000 
G3 Y10.269 Z-0.100 J0.212 F571.000 
G3 X-4.682 Y10.057 Z0.000 J-0.212 F571.000 
G1 X-4.469 Y10.057 F571.000 
G0 Z5.000 
G0 X-4.469 Y10.057 
G0 Z-2.500 
G1 Y10.277 F571.000 
G3 Y9.837 Z-2.300 J-0.220 F571.000 
G3 Y10.277 Z-2.100 J0.220 F571.000 
G3 Y9.837 Z-1.900 J-0.220 F571.000 
G3 Y10.277 Z-1.700 J0.220 F571.000 
G3 Y9.837 Z-1.500 J-0.220 F571.000 
G3 Y10.277 Z-1.300 J0.220 F571.000 
G3 Y9.837 Z-1.100 J-0.220 F571.000 
G3 Y10.277 Z-0.900 J0.220 F571.000 
G3 Y9.837 Z-0.700 J-0.220 F571.000 
G3 Y10.277 Z-0.500 J0.220 F571.000 
G3 Y9.837 Z-0.300 J-0.220 F571.000 
G3 Y10.277 Z-0.100 J0.220 F571.000 
G3 X-4.689 Y10.057 Z0.000 J-0.220 F571.000 
G1 X-4.469 Y10.057 F571.000 
G0 Z5.000 
G0 Z5.000 
(finish operation: ThreadMilling)
(begin operation: TC: chamfer)
(machine units: mm/min)
(TC: chamfer) 
M5
M6 T5 
G43 H5 
M3 S15000 
(finish operation: TC: chamfer)
(begin operation: RampEntryDressup)
(machine units: mm/min)
G0 X0.000 Y0.000 Z5.000 
G0 X1.960 Y-10.862 Z5.000 
G0 X1.960 Y-10.862 Z3.000 
G1 X1.960 Y-10.862 Z0.300 F2286.000 
G1 X1.671 Y-10.695 Z0.294 F2286.000 
G1 X1.671 Y-11.029 Z0.288 F2286.000 
G1 X1.960 Y-10.862 Z0.283 F2286.000 
G1 X1.671 Y-11.029 Z0.277 F2286.000 
G1 X1.671 Y-10.695 Z0.271 F2286.000 
G1 X1.960 Y-10.862 Z0.265 F2286.000 
G1 X1.671 Y-10.695 Z0.259 F2286.000 
G1 X1.671 Y-11.029 Z0.253 F2286.000 
G1 X1.960 Y-10.862 Z0.248 F2286.000 
G1 X1.671 Y-11.029 Z0.242 F2286.000 
G1 X1.671 Y-10.695 Z0.236 F2286.000 
G1 X1.960 Y-10.862 Z0.230 F2286.000 
G1 X1.671 Y-10.695 Z0.224 F2286.000 
G1 X1.671 Y-11.029 Z0.218 F2286.000 
G1 X1.960 Y-10.862 Z0.213 F2286.000 
G1 X1.671 Y-11.029 Z0.207 F2286.000 
G1 X1.671 Y-10.695 Z0.201 F2286.000 
G1 X1.960 Y-10.862 Z0.195 F2286.000 
G1 X1.671 Y-10.695 Z0.189 F2286.000 
G1 X1.671 Y-11.029 Z0.184 F2286.000 
G1 X1.960 Y-10.862 Z0.178 F2286.000 
G1 X1.671 Y-11.029 Z0.172 F2286.000 
G1 X1.671 Y-10.695 Z0.166 F2286.000 
G1 X1.960 Y-10.862 Z0.160 F2286.000 
G1 X1.671 Y-10.695 Z0.154 F2286.000 
G1 X1.671 Y-11.029 Z0.149 F2286.000 
G1 X1.960 Y-10.862 Z0.143 F2286.000 
G1 X1.671 Y-11.029 Z0.137 F2286.000 
G1 X1.671 Y-10.695 Z0.131 F2286.000 
G1 X1.960 Y-10.862 Z0.125 F2286.000 
G1 X1.671 Y-10.695 Z0.119 F2286.000 
G1 X1.671 Y-11.029 Z0.114 F2286.000 
G1 X1.960 Y-10.862 Z0.108 F2286.000 
G1 X1.671 Y-11.029 Z0.102 F2286.000 
G1 X1.671 Y-10.695 Z0.096 F2286.000 
G1 X1.960 Y-10.862 Z0.090 F2286.000 
G1 X1.671 Y-10.695 Z0.085 F2286.000 
G1 X1.671 Y-11.029 Z0.079 F2286.000 
G1 X1.960 Y-10.862 Z0.073 F2286.000 
G1 X1.671 Y-11.029 Z0.067 F2286.000 
G1 X1.671 Y-10.695 Z0.061 F2286.000 
G1 X1.960 Y-10.862 Z0.055 F2286.000 
G1 X1.671 Y-10.695 Z0.050 F2286.000 
G1 X1.671 Y-11.029 Z0.044 F2286.000 
G1 X1.960 Y-10.862 Z0.038 F2286.000 
G1 X1.671 Y-11.029 Z0.032 F2286.000 
G1 X1.671 Y-10.695 Z0.026 F2286.000 
G1 X1.960 Y-10.862 Z0.020 F2286.000 
G1 X1.671 Y-10.695 Z0.015 F2286.000 
G1 X1.671 Y-11.029 Z0.009 F2286.000 
G1 X1.960 Y-10.862 Z0.003 F2286.000 
G1 X1.671 Y-11.029 Z-0.003 F2286.000 
G1 X1.671 Y-10.695 Z-0.009 F2286.000 
G1 X1.960 Y-10.862 Z-0.015 F2286.000 
G1 X1.671 Y-10.695 Z-0.020 F2286.000 
G1 X1.671 Y-11.029 Z-0.026 F2286.000 
G1 X1.960 Y-10.862 Z-0.032 F2286.000 
G1 X1.671 Y-11.029 Z-0.038 F2286.000 
G1 X1.671 Y-10.695 Z-0.044 F2286.000 
G1 X1.960 Y-10.862 Z-0.049 F2286.000 
G1 X1.671 Y-10.695 Z-0.055 F2286.000 
G1 X1.671 Y-11.029 Z-0.061 F2286.000 
G1 X1.960 Y-10.862 Z-0.067 F2286.000 
G1 X1.671 Y-11.029 Z-0.073 F2286.000 
G1 X1.671 Y-10.695 Z-0.079 F2286.000 
G1 X1.960 Y-10.862 Z-0.084 F2286.000 
G1 X1.671 Y-10.695 Z-0.090 F2286.000 
G1 X1.671 Y-11.029 Z-0.096 F2286.000 
G1 X1.960 Y-10.862 Z-0.102 F2286.000 
G1 X1.671 Y-11.029 Z-0.108 F2286.000 
G1 X1.671 Y-10.695 Z-0.114 F2286.000 
G1 X1.960 Y-10.862 Z-0.119 F2286.000 
G1 X1.671 Y-10.695 Z-0.125 F2286.000 
G1 X1.671 Y-11.029 Z-0.131 F2286.000 
G1 X1.960 Y-10.862 Z-0.137 F2286.000 
G1 X1.671 Y-11.029 Z-0.143 F2286.000 
G1 X1.671 Y-10.695 Z-0.148 F2286.000 
G1 X1.960 Y-10.862 Z-0.154 F2286.000 
G1 X1.671 Y-10.695 Z-0.160 F2286.000 
G1 X1.671 Y-11.029 Z-0.166 F2286.000 
G1 X1.960 Y-10.862 Z-0.172 F2286.000 
G1 X1.671 Y-11.029 Z-0.178 F2286.000 
G1 X1.671 Y-10.695 Z-0.183 F2286.000 
G1 X1.960 Y-10.862 Z-0.189 F2286.000 
G1 X1.671 Y-10.695 Z-0.195 F2286.000 
G1 X1.671 Y-11.029 Z-0.201 F2286.000 
G1 X1.960 Y-10.862 Z-0.207 F2286.000 
G1 X1.671 Y-11.029 Z-0.213 F2286.000 
G1 X1.671 Y-10.695 Z-0.218 F2286.000 
G1 X1.960 Y-10.862 Z-0.224 F2286.000 
G1 X1.671 Y-10.695 Z-0.230 F2286.000 
G1 X1.671 Y-11.029 Z-0.236 F2286.000 
G1 X1.960 Y-10.862 Z-0.242 F2286.000 
G1 X1.671 Y-11.029 Z-0.247 F2286.000 
G1 X1.671 Y-10.695 Z-0.253 F2286.000 
G1 X1.960 Y-10.862 Z-0.259 F2286.000 
G1 X1.671 Y-10.695 Z-0.265 F2286.000 
G1 X1.671 Y-11.029 Z-0.271 F2286.000 
G1 X1.960 Y-10.862 Z-0.277 F2286.000 
G1 X1.671 Y-11.029 Z-0.282 F2286.000 
G1 X1.671 Y-10.695 Z-0.288 F2286.000 
G1 X1.960 Y-10.862 Z-0.294 F2286.000 
G1 X1.671 Y-10.695 Z-0.300 F2286.000 
G1 X1.671 Y-11.029 Z-0.306 F2286.000 
G1 X1.960 Y-10.862 Z-0.312 F2286.000 
G1 X1.671 Y-11.029 Z-0.317 F2286.000 
G1 X1.671 Y-10.695 Z-0.323 F2286.000 
G1 X1.960 Y-10.862 Z-0.329 F2286.000 
G1 X1.671 Y-10.695 Z-0.335 F2286.000 
G1 X1.671 Y-11.029 Z-0.341 F2286.000 
G1 X1.960 Y-10.862 Z-0.346 F2286.000 
G1 X1.671 Y-11.029 Z-0.352 F2286.000 
G1 X1.671 Y-10.695 Z-0.358 F2286.000 
G1 X1.960 Y-10.862 Z-0.364 F2286.000 
G1 X1.671 Y-10.695 Z-0.370 F2286.000 
G1 X1.671 Y-11.029 Z-0.376 F2286.000 
G1 X1.960 Y-10.862 Z-0.381 F2286.000 
G1 X1.671 Y-11.029 Z-0.387 F2286.000 
G1 X1.671 Y-10.695 Z-0.393 F2286.000 
G1 X1.960 Y-10.862 Z-0.399 F2286.000 
G1 X1.671 Y-10.695 Z-0.405 F2286.000 
G1 X1.671 Y-11.029 Z-0.411 F2286.000 
G1 X1.960 Y-10.862 Z-0.416 F2286.000 
G1 X1.671 Y-11.029 Z-0.422 F2286.000 
G1 X1.671 Y-10.695 Z-0.428 F2286.000 
G1 X1.960 Y-10.862 Z-0.434 F2286.000 
G1 X1.671 Y-10.695 Z-0.440 F2286.000 
G1 X1.671 Y-11.029 Z-0.446 F2286.000 
G1 X1.960 Y-10.862 Z-0.451 F2286.000 
G1 X1.671 Y-11.029 Z-0.457 F2286.000 
G1 X1.671 Y-10.695 Z-0.463 F2286.000 
G1 X1.960 Y-10.862 Z-0.469 F2286.000 
G1 X1.671 Y-10.695 Z-0.475 F2286.000 
G1 X1.671 Y-11.029 Z-0.480 F2286.000 
G1 X1.960 Y-10.862 Z-0.486 F2286.000 
G1 X1.671 Y-11.029 Z-0.492 F2286.000 
G1 X1.671 Y-10.695 Z-0.498 F2286.000 
G1 X1.960 Y-10.862 Z-0.504 F2286.000 
G1 X1.671 Y-10.695 Z-0.510 F2286.000 
G1 X1.671 Y-11.029 Z-0.515 F2286.000 
G1 X1.960 Y-10.862 Z-0.521 F2286.000 
G1 X1.671 Y-11.029 Z-0.527 F2286.000 
G1 X1.671 Y-10.695 Z-0.533 F2286.000 
G1 X1.960 Y-10.862 Z-0.539 F2286.000 
G1 X1.671 Y-10.695 Z-0.545 F2286.000 
G1 X1.671 Y-11.029 Z-0.550 F2286.000 
G1 X1.960 Y-10.862 Z-0.556 F2286.000 
G1 X1.671 Y-11.029 Z-0.562 F2286.000 
G1 X1.671 Y-10.695 Z-0.568 F2286.000 
G1 X1.960 Y-10.862 Z-0.574 F2286.000 
G1 X1.671 Y-10.695 Z-0.579 F2286.000 
G1 X1.671 Y-11.029 Z-0.585 F2286.000 
G1 X1.960 Y-10.862 Z-0.591 F2286.000 
G1 X1.671 Y-11.029 Z-0.597 F2286.000 
G1 X1.671 Y-10.695 Z-0.603 F2286.000 
G1 X1.960 Y-10.862 Z-0.609 F2286.000 
G1 X1.671 Y-10.695 Z-0.614 F2286.000 
G1 X1.671 Y-11.029 Z-0.620 F2286.000 
G1 X1.960 Y-10.862 Z-0.626 F2286.000 
G1 X1.671 Y-11.029 Z-0.632 F2286.000 
G1 X1.671 Y-10.695 Z-0.638 F2286.000 
G1 X1.960 Y-10.862 Z-0.644 F2286.000 
G1 X1.671 Y-10.695 Z-0.649 F2286.000 
G1 X1.671 Y-11.029 Z-0.655 F2286.000 
G1 X1.960 Y-10.862 Z-0.661 F2286.000 
G1 X1.671 Y-11.029 Z-0.667 F2286.000 
G1 X1.671 Y-10.695 Z-0.673 F2286.000 
G1 X1.960 Y-10.862 Z-0.678 F2286.000 
G1 X1.671 Y-10.695 Z-0.684 F2286.000 
G1 X1.671 Y-11.029 Z-0.690 F2286.000 
G1 X1.960 Y-10.862 Z-0.696 F2286.000 
G1 X1.671 Y-11.029 Z-0.702 F2286.000 
G1 X1.671 Y-10.695 Z-0.708 F2286.000 
G1 X1.960 Y-10.862 Z-0.713 F2286.000 
G1 X1.671 Y-10.695 Z-0.719 F2286.000 
G1 X1.671 Y-11.029 Z-0.725 F2286.000 
G1 X1.960 Y-10.862 Z-0.731 F2286.000 
G1 X1.671 Y-11.029 Z-0.737 F2286.000 
G1 X1.671 Y-10.695 Z-0.743 F2286.000 
G1 X1.960 Y-10.862 Z-0.748 F2286.000 
G1 X1.671 Y-10.695 Z-0.754 F2286.000 
G1 X1.671 Y-11.029 Z-0.760 F2286.000 
G1 X1.960 Y-10.862 Z-0.766 F2286.000 
G1 X1.671 Y-11.029 Z-0.772 F2286.000 
G1 X1.671 Y-10.695 Z-0.777 F2286.000 
G1 X1.960 Y-10.862 Z-0.783 F2286.000 
G1 X1.671 Y-10.695 Z-0.789 F2286.000 
G1 X1.671 Y-11.029 Z-0.795 F2286.000 
G1 X1.960 Y-10.862 Z-0.801 F2286.000 
G1 X1.671 Y-11.029 Z-0.807 F2286.000 
G1 X1.671 Y-10.695 Z-0.812 F2286.000 
G1 X1.960 Y-10.862 Z-0.818 F2286.000 
G1 X1.671 Y-10.695 Z-0.824 F2286.000 
G1 X1.671 Y-11.029 Z-0.830 F2286.000 
G1 X1.960 Y-10.862 Z-0.836 F2286.000 
G1 X1.671 Y-11.029 Z-0.842 F2286.000 
G1 X1.671 Y-10.695 Z-0.847 F2286.000 
G1 X1.960 Y-10.862 Z-0.853 F2286.000 
G1 X1.671 Y-10.695 Z-0.859 F2286.000 
G1 X1.671 Y-11.029 Z-0.865 F2286.000 
G1 X1.960 Y-10.862 Z-0.871 F2286.000 
G1 X1.671 Y-11.029 Z-0.876 F2286.000 
G1 X1.671 Y-10.695 Z-0.882 F2286.000 
G1 X1.960 Y-10.862 Z-0.888 F2286.000 
G1 X1.671 Y-10.695 Z-0.894 F2286.000 
G1 X1.671 Y-11.029 Z-0.900 F2286.000 
G1 X1.960 Y-10.862 Z-0.906 F2286.000 
G1 X1.671 Y-11.029 Z-0.911 F2286.000 
G1 X1.671 Y-10.695 Z-0.917 F2286.000 
G1 X1.960 Y-10.862 Z-0.923 F2286.000 
G1 X1.671 Y-10.695 Z-0.929 F2286.000 
G1 X1.671 Y-11.029 Z-0.935 F2286.000 
G1 X1.960 Y-10.862 Z-0.941 F2286.000 
G1 X1.671 Y-11.029 Z-0.946 F2286.000 
G1 X1.671 Y-10.695 Z-0.952 F2286.000 
G1 X1.960 Y-10.862 Z-0.958 F2286.000 
G1 X1.671 Y-10.695 Z-0.964 F2286.000 
G1 X1.671 Y-11.029 Z-0.970 F2286.000 
G1 X1.960 Y-10.862 Z-0.976 F2286.000 
G1 X1.671 Y-11.029 Z-0.981 F2286.000 
G1 X1.671 Y-10.695 Z-0.987 F2286.000 
G1 X1.960 Y-10.862 Z-0.993 F2286.000 
G1 X1.671 Y-10.695 Z-0.999 F2286.000 
G1 X1.671 Y-11.029 Z-1.005 F2286.000 
G1 X1.960 Y-10.862 Z-1.010 F2286.000 
G1 X1.671 Y-11.029 Z-1.016 F2286.000 
G1 X1.671 Y-10.695 Z-1.022 F2286.000 
G1 X1.960 Y-10.862 Z-1.028 F2286.000 
G1 X1.671 Y-10.695 Z-1.034 F2286.000 
G1 X1.671 Y-11.029 Z-1.040 F2286.000 
G1 X1.960 Y-10.862 Z-1.045 F2286.000 
G1 X1.671 Y-11.029 Z-1.051 F2286.000 
G1 X1.671 Y-10.695 Z-1.057 F2286.000 
G1 X1.960 Y-10.862 Z-1.063 F2286.000 
G1 X1.671 Y-10.695 Z-1.069 F2286.000 
G1 X1.671 Y-11.029 Z-1.075 F2286.000 
G1 X1.960 Y-10.862 Z-1.080 F2286.000 
G1 X1.671 Y-11.029 Z-1.086 F2286.000 
G1 X1.671 Y-10.695 Z-1.092 F2286.000 
G1 X1.960 Y-10.862 Z-1.098 F2286.000 
G1 X1.671 Y-10.695 Z-1.104 F2286.000 
G1 X1.671 Y-11.029 Z-1.109 F2286.000 
G1 X1.960 Y-10.862 Z-1.115 F2286.000 
G1 X1.671 Y-11.029 Z-1.121 F2286.000 
G1 X1.671 Y-10.695 Z-1.127 F2286.000 
G1 X1.960 Y-10.862 Z-1.133 F2286.000 
G1 X1.671 Y-10.695 Z-1.139 F2286.000 
G1 X1.671 Y-11.029 Z-1.144 F2286.000 
G1 X1.960 Y-10.862 Z-1.150 F2286.000 
G1 X1.671 Y-11.029 Z-1.156 F2286.000 
G1 X1.671 Y-10.695 Z-1.162 F2286.000 
G1 X1.960 Y-10.862 Z-1.168 F2286.000 
G1 X1.671 Y-10.695 Z-1.174 F2286.000 
G1 X1.671 Y-11.029 Z-1.179 F2286.000 
G1 X1.960 Y-10.862 Z-1.185 F2286.000 
G1 X1.671 Y-11.029 Z-1.191 F2286.000 
G1 X1.671 Y-10.695 Z-1.197 F2286.000 
G1 X1.960 Y-10.862 Z-1.203 F2286.000 
G1 X1.671 Y-10.695 Z-1.208 F2286.000 
G1 X1.671 Y-11.029 Z-1.214 F2286.000 
G1 X1.960 Y-10.862 Z-1.220 F2286.000 
G1 X1.671 Y-11.029 Z-1.226 F2286.000 
G1 X1.671 Y-10.695 Z-1.232 F2286.000 
G1 X1.960 Y-10.862 Z-1.238 F2286.000 
G1 X1.671 Y-10.695 Z-1.243 F2286.000 
G1 X1.671 Y-11.029 Z-1.249 F2286.000 
G1 X1.960 Y-10.862 Z-1.255 F2286.000 
G1 X1.671 Y-11.029 Z-1.261 F2286.000 
G1 X1.671 Y-10.695 Z-1.267 F2286.000 
G1 X1.960 Y-10.862 Z-1.273 F2286.000 
G1 X1.671 Y-10.695 Z-1.278 F2286.000 
G1 X1.671 Y-11.029 Z-1.284 F2286.000 
G1 X1.960 Y-10.862 Z-1.290 F2286.000 
G1 X1.671 Y-11.029 Z-1.296 F2286.000 
G1 X1.671 Y-10.695 Z-1.302 F2286.000 
G1 X1.960 Y-10.862 Z-1.307 F2286.000 
G1 X1.671 Y-10.695 Z-1.313 F2286.000 
G1 X1.671 Y-11.029 Z-1.319 F2286.000 
G1 X1.960 Y-10.862 Z-1.325 F2286.000 
G1 X1.671 Y-11.029 Z-1.331 F2286.000 
G1 X1.671 Y-10.695 Z-1.337 F2286.000 
G1 X1.960 Y-10.862 Z-1.342 F2286.000 
G1 X1.671 Y-10.695 Z-1.348 F2286.000 
G1 X1.671 Y-11.029 Z-1.354 F2286.000 
G1 X1.960 Y-10.862 Z-1.360 F2286.000 
G1 X1.671 Y-11.029 Z-1.366 F2286.000 
G1 X1.671 Y-10.695 Z-1.372 F2286.000 
G1 X1.960 Y-10.862 Z-1.377 F2286.000 
G1 X1.671 Y-10.695 Z-1.383 F2286.000 
G1 X1.671 Y-11.029 Z-1.389 F2286.000 
G1 X1.960 Y-10.862 Z-1.395 F2286.000 
G1 X1.671 Y-11.029 Z-1.401 F2286.000 
G1 X1.671 Y-10.695 Z-1.407 F2286.000 
G1 X1.960 Y-10.862 Z-1.412 F2286.000 
G1 X1.671 Y-10.695 Z-1.418 F2286.000 
G1 X1.671 Y-11.029 Z-1.424 F2286.000 
G1 X1.960 Y-10.862 Z-1.430 F2286.000 
G1 X1.671 Y-11.029 Z-1.436 F2286.000 
G1 X1.671 Y-10.695 Z-1.441 F2286.000 
G1 X1.960 Y-10.862 Z-1.447 F2286.000 
G1 X1.671 Y-10.695 Z-1.453 F2286.000 
G1 X1.671 Y-11.029 Z-1.459 F2286.000 
G1 X1.960 Y-10.862 Z-1.465 F2286.000 
G1 X1.671 Y-11.029 Z-1.471 F2286.000 
G1 X1.671 Y-10.695 Z-1.476 F2286.000 
G1 X1.960 Y-10.862 Z-1.482 F2286.000 
G1 X1.671 Y-10.695 Z-1.488 F2286.000 
G1 X1.671 Y-11.029 Z-1.494 F2286.000 
G1 X1.960 Y-10.862 Z-1.500 F2286.000 
G1 X1.671 Y-11.029 Z-1.506 F2286.000 
G1 X1.671 Y-10.695 Z-1.511 F2286.000 
G1 X1.960 Y-10.862 Z-1.517 F2286.000 
G1 X1.671 Y-10.695 Z-1.523 F2286.000 
G1 X1.671 Y-11.029 Z-1.529 F2286.000 
G1 X1.960 Y-10.862 Z-1.535 F2286.000 
G1 X1.671 Y-11.029 Z-1.540 F2286.000 
G1 X1.671 Y-10.695 Z-1.546 F2286.000 
G1 X1.960 Y-10.862 Z-1.552 F2286.000 
G1 X1.671 Y-10.695 Z-1.558 F2286.000 
G1 X1.671 Y-11.029 Z-1.564 F2286.000 
G1 X1.960 Y-10.862 Z-1.570 F2286.000 
G1 X1.671 Y-11.029 Z-1.575 F2286.000 
G1 X1.671 Y-10.695 Z-1.581 F2286.000 
G1 X1.960 Y-10.862 Z-1.587 F2286.000 
G1 X1.671 Y-10.695 Z-1.593 F2286.000 
G1 X1.671 Y-11.029 Z-1.599 F2286.000 
G1 X1.960 Y-10.862 Z-1.605 F2286.000 
G1 X1.671 Y-11.029 Z-1.610 F2286.000 
G1 X1.671 Y-10.695 Z-1.616 F2286.000 
G1 X1.960 Y-10.862 Z-1.622 F2286.000 
G1 X1.671 Y-10.695 Z-1.628 F2286.000 
G1 X1.671 Y-11.029 Z-1.634 F2286.000 
G1 X1.960 Y-10.862 Z-1.639 F2286.000 
G1 X1.671 Y-11.029 Z-1.645 F2286.000 
G1 X1.671 Y-10.695 Z-1.651 F2286.000 
G1 X1.960 Y-10.862 Z-1.657 F2286.000 
G1 X1.671 Y-10.695 Z-1.663 F2286.000 
G1 X1.671 Y-10.988 Z-1.668 F2286.000 
G1 X1.671 Y-10.695 Z-1.668 F2286.000 
G1 X1.960 Y-10.862 Z-1.668 F2286.000 
G1 X1.671 Y-10.695 Z-1.668 F2286.000 
G1 X1.671 Y-11.029 Z-1.668 F2286.000 
G1 X1.960 Y-10.862 Z-1.668 F2286.000 
G0 X1.960 Y-10.862 Z5.000 
G0 X-1.671 Y-10.695 Z5.000 
G0 X-1.671 Y-10.695 Z3.000 
G1 X-1.671 Y-10.695 Z0.300 F2286.000 
G1 X-1.960 Y-10.862 Z0.294 F2286.000 
G1 X-1.671 Y-11.029 Z0.288 F2286.000 
G1 X-1.671 Y-10.695 Z0.283 F2286.000 
G1 X-1.671 Y-11.029 Z0.277 F2286.000 
G1 X-1.960 Y-10.862 Z0.271 F2286.000 
G1 X-1.671 Y-10.695 Z0.265 F2286.000 
G1 X-1.960 Y-10.862 Z0.259 F2286.000 
G1 X-1.671 Y-11.029 Z0.253 F2286.000 
G1 X-1.671 Y-10.695 Z0.248 F2286.000 
G1 X-1.671 Y-11.029 Z0.242 F2286.000 
G1 X-1.960 Y-10.862 Z0.236 F2286.000 
G1 X-1.671 Y-10.695 Z0.230 F2286.000 
G1 X-1.960 Y-10.862 Z0.224 F2286.000 
G1 X-1.671 Y-11.029 Z0.218 F2286.000 
G1 X-1.671 Y-10.695 Z0.213 F2286.000 
G1 X-1.671 Y-11.029 Z0.207 F2286.000 
G1 X-1.960 Y-10.862 Z0.201 F2286.000 
G1 X-1.671 Y-10.695 Z0.195 F2286.000 
G1 X-1.960 Y-10.862 Z0.189 F2286.000 
G1 X-1.671 Y-11.029 Z0.184 F2286.000 
G1 X-1.671 Y-10.695 Z0.178 F2286.000 
G1 X-1.671 Y-11.029 Z0.172 F2286.000 
G1 X-1.960 Y-10.862 Z0.166 F2286.000 
G1 X-1.671 Y-10.695 Z0.160 F2286.000 
G1 X-1.960 Y-10.862 Z0.154 F2286.000 
G1 X-1.671 Y-11.029 Z0.149 F2286.000 
G1 X-1.671 Y-10.695 Z0.143 F2286.000 
G1 X-1.671 Y-11.029 Z0.137 F2286.000 
G1 X-1.960 Y-10.862 Z0.131 F2286.000 
G1 X-1.671 Y-10.695 Z0.125 F2286.000 
G1 X-1.960 Y-10.862 Z0.119 F2286.000 
G1 X-1.671 Y-11.029 Z0.114 F2286.000 
G1 X-1.671 Y-10.695 Z0.108 F2286.000 
G1 X-1.671 Y-11.029 Z0.102 F2286.000 
G1 X-1.960 Y-10.862 Z0.096 F2286.000 
G1 X-1.671 Y-10.695 Z0.090 F2286.000 
G1 X-1.960 Y-10.862 Z0.085 F2286.000 
G1 X-1.671 Y-11.029 Z0.079 F2286.000 
G1 X-1.671 Y-10.695 Z0.073 F2286.000 
G1 X-1.671 Y-11.029 Z0.067 F2286.000 
G1 X-1.960 Y-10.862 Z0.061 F2286.000 
G1 X-1.671 Y-10.695 Z0.055 F2286.000 
G1 X-1.960 Y-10.862 Z0.050 F2286.000 
G1 X-1.671 Y-11.029 Z0.044 F2286.000 
G1 X-1.671 Y-10.695 Z0.038 F2286.000 
G1 X-1.671 Y-11.029 Z0.032 F2286.000 
G1 X-1.960 Y-10.862 Z0.026 F2286.000 
G1 X-1.671 Y-10.695 Z0.020 F2286.000 
G1 X-1.960 Y-10.862 Z0.015 F2286.000 
G1 X-1.671 Y-11.029 Z0.009 F2286.000 
G1 X-1.671 Y-10.695 Z0.003 F2286.000 
G1 X-1.671 Y-11.029 Z-0.003 F2286.000 
G1 X-1.960 Y-10.862 Z-0.009 F2286.000 
G1 X-1.671 Y-10.695 Z-0.015 F2286.000 
G1 X-1.960 Y-10.862 Z-0.020 F2286.000 
G1 X-1.671 Y-11.029 Z-0.026 F2286.000 
G1 X-1.671 Y-10.695 Z-0.032 F2286.000 
G1 X-1.671 Y-11.029 Z-0.038 F2286.000 
G1 X-1.960 Y-10.862 Z-0.044 F2286.000 
G1 X-1.671 Y-10.695 Z-0.049 F2286.000 
G1 X-1.960 Y-10.862 Z-0.055 F2286.000 
G1 X-1.671 Y-11.029 Z-0.061 F2286.000 
G1 X-1.671 Y-10.695 Z-0.067 F2286.000 
G1 X-1.671 Y-11.029 Z-0.073 F2286.000 
G1 X-1.960 Y-10.862 Z-0.079 F2286.000 
G1 X-1.671 Y-10.695 Z-0.084 F2286.000 
G1 X-1.960 Y-10.862 Z-0.090 F2286.000 
G1 X-1.671 Y-11.029 Z-0.096 F2286.000 
G1 X-1.671 Y-10.695 Z-0.102 F2286.000 
G1 X-1.671 Y-11.029 Z-0.108 F2286.000 
G1 X-1.960 Y-10.862 Z-0.114 F2286.000 
G1 X-1.671 Y-10.695 Z-0.119 F2286.000 
G1 X-1.960 Y-10.862 Z-0.125 F2286.000 
G1 X-1.671 Y-11.029 Z-0.131 F2286.000 
G1 X-1.671 Y-10.695 Z-0.137 F2286.000 
G1 X-1.671 Y-11.029 Z-0.143 F2286.000 
G1 X-1.960 Y-10.862 Z-0.148 F2286.000 
G1 X-1.671 Y-10.695 Z-0.154 F2286.000 
G1 X-1.960 Y-10.862 Z-0.160 F2286.000 
G1 X-1.671 Y-11.029 Z-0.166 F2286.000 
G1 X-1.671 Y-10.695 Z-0.172 F2286.000 
G1 X-1.671 Y-11.029 Z-0.178 F2286.000 
G1 X-1.960 Y-10.862 Z-0.183 F2286.000 
G1 X-1.671 Y-10.695 Z-0.189 F2286.000 
G1 X-1.960 Y-10.862 Z-0.195 F2286.000 
G1 X-1.671 Y-11.029 Z-0.201 F2286.000 
G1 X-1.671 Y-10.695 Z-0.207 F2286.000 
G1 X-1.671 Y-11.029 Z-0.213 F2286.000 
G1 X-1.960 Y-10.862 Z-0.218 F2286.000 
G1 X-1.671 Y-10.695 Z-0.224 F2286.000 
G1 X-1.960 Y-10.862 Z-0.230 F2286.000 
G1 X-1.671 Y-11.029 Z-0.236 F2286.000 
G1 X-1.671 Y-10.695 Z-0.242 F2286.000 
G1 X-1.671 Y-11.029 Z-0.247 F2286.000 
G1 X-1.960 Y-10.862 Z-0.253 F2286.000 
G1 X-1.671 Y-10.695 Z-0.259 F2286.000 
G1 X-1.960 Y-10.862 Z-0.265 F2286.000 
G1 X-1.671 Y-11.029 Z-0.271 F2286.000 
G1 X-1.671 Y-10.695 Z-0.277 F2286.000 
G1 X-1.671 Y-11.029 Z-0.282 F2286.000 
G1 X-1.960 Y-10.862 Z-0.288 F2286.000 
G1 X-1.671 Y-10.695 Z-0.294 F2286.000 
G1 X-1.960 Y-10.862 Z-0.300 F2286.000 
G1 X-1.671 Y-11.029 Z-0.306 F2286.000 
G1 X-1.671 Y-10.695 Z-0.312 F2286.000 
G1 X-1.671 Y-11.029 Z-0.317 F2286.000 
G1 X-1.960 Y-10.862 Z-0.323 F2286.000 
G1 X-1.671 Y-10.695 Z-0.329 F2286.000 
G1 X-1.960 Y-10.862 Z-0.335 F2286.000 
G1 X-1.671 Y-11.029 Z-0.341 F2286.000 
G1 X-1.671 Y-10.695 Z-0.346 F2286.000 
G1 X-1.671 Y-11.029 Z-0.352 F2286.000 
G1 X-1.960 Y-10.862 Z-0.358 F2286.000 
G1 X-1.671 Y-10.695 Z-0.364 F2286.000 
G1 X-1.960 Y-10.862 Z-0.370 F2286.000 
G1 X-1.671 Y-11.029 Z-0.376 F2286.000 
G1 X-1.671 Y-10.695 Z-0.381 F2286.000 
G1 X-1.671 Y-11.029 Z-0.387 F2286.000 
G1 X-1.960 Y-10.862 Z-0.393 F2286.000 
G1 X-1.671 Y-10.695 Z-0.399 F2286.000 
G1 X-1.960 Y-10.862 Z-0.405 F2286.000 
G1 X-1.671 Y-11.029 Z-0.411 F2286.000 
G1 X-1.671 Y-10.695 Z-0.416 F2286.000 
G1 X-1.671 Y-11.029 Z-0.422 F2286.000 
G1 X-1.960 Y-10.862 Z-0.428 F2286.000 
G1 X-1.671 Y-10.695 Z-0.434 F2286.000 
G1 X-1.960 Y-10.862 Z-0.440 F2286.000 
G1 X-1.671 Y-11.029 Z-0.446 F2286.000 
G1 X-1.671 Y-10.695 Z-0.451 F2286.000 
G1 X-1.671 Y-11.029 Z-0.457 F2286.000 
G1 X-1.960 Y-10.862 Z-0.463 F2286.000 
G1 X-1.671 Y-10.695 Z-0.469 F2286.000 
G1 X-1.960 Y-10.862 Z-0.475 F2286.000 
G1 X-1.671 Y-11.029 Z-0.480 F2286.000 
G1 X-1.671 Y-10.695 Z-0.486 F2286.000 
G1 X-1.671 Y-11.029 Z-0.492 F2286.000 
G1 X-1.960 Y-10.862 Z-0.498 F2286.000 
G1 X-1.671 Y-10.695 Z-0.504 F2286.000 
G1 X-1.960 Y-10.862 Z-0.510 F2286.000 
G1 X-1.671 Y-11.029 Z-0.515 F2286.000 
G1 X-1.671 Y-10.695 Z-0.521 F2286.000 
G1 X-1.671 Y-11.029 Z-0.527 F2286.000 
G1 X-1.960 Y-10.862 Z-0.533 F2286.000 
G1 X-1.671 Y-10.695 Z-0.539 F2286.000 
G1 X-1.960 Y-10.862 Z-0.545 F2286.000 
G1 X-1.671 Y-11.029 Z-0.550 F2286.000 
G1 X-1.671 Y-10.695 Z-0.556 F2286.000 
G1 X-1.671 Y-11.029 Z-0.562 F2286.000 
G1 X-1.960 Y-10.862 Z-0.568 F2286.000 
G1 X-1.671 Y-10.695 Z-0.574 F2286.000 
G1 X-1.960 Y-10.862 Z-0.579 F2286.000 
G1 X-1.671 Y-11.029 Z-0.585 F2286.000 
G1 X-1.671 Y-10.695 Z-0.591 F2286.000 
G1 X-1.671 Y-11.029 Z-0.597 F2286.000 
G1 X-1.960 Y-10.862 Z-0.603 F2286.000 
G1 X-1.671 Y-10.695 Z-0.609 F2286.000 
G1 X-1.960 Y-10.862 Z-0.614 F2286.000 
G1 X-1.671 Y-11.029 Z-0.620 F2286.000 
G1 X-1.671 Y-10.695 Z-0.626 F2286.000 
G1 X-1.671 Y-11.029 Z-0.632 F2286.000 
G1 X-1.960 Y-10.862 Z-0.638 F2286.000 
G1 X-1.671 Y-10.695 Z-0.644 F2286.000 
G1 X-1.960 Y-10.862 Z-0.649 F2286.000 
G1 X-1.671 Y-11.029 Z-0.655 F2286.000 
G1 X-1.671 Y-10.695 Z-0.661 F2286.000 
G1 X-1.671 Y-11.029 Z-0.667 F2286.000 
G1 X-1.960 Y-10.862 Z-0.673 F2286.000 
G1 X-1.671 Y-10.695 Z-0.678 F2286.000 
G1 X-1.960 Y-10.862 Z-0.684 F2286.000 
G1 X-1.671 Y-11.029 Z-0.690 F2286.000 
G1 X-1.671 Y-10.695 Z-0.696 F2286.000 
G1 X-1.671 Y-11.029 Z-0.702 F2286.000 
G1 X-1.960 Y-10.862 Z-0.708 F2286.000 
G1 X-1.671 Y-10.695 Z-0.713 F2286.000 
G1 X-1.960 Y-10.862 Z-0.719 F2286.000 
G1 X-1.671 Y-11.029 Z-0.725 F2286.000 
G1 X-1.671 Y-10.695 Z-0.731 F2286.000 
G1 X-1.671 Y-11.029 Z-0.737 F2286.000 
G1 X-1.960 Y-10.862 Z-0.743 F2286.000 
G1 X-1.671 Y-10.695 Z-0.748 F2286.000 
G1 X-1.960 Y-10.862 Z-0.754 F2286.000 
G1 X-1.671 Y-11.029 Z-0.760 F2286.000 
G1 X-1.671 Y-10.695 Z-0.766 F2286.000 
G1 X-1.671 Y-11.029 Z-0.772 F2286.000 
G1 X-1.960 Y-10.862 Z-0.777 F2286.000 
G1 X-1.671 Y-10.695 Z-0.783 F2286.000 
G1 X-1.960 Y-10.862 Z-0.789 F2286.000 
G1 X-1.671 Y-11.029 Z-0.795 F2286.000 
G1 X-1.671 Y-10.695 Z-0.801 F2286.000 
G1 X-1.671 Y-11.029 Z-0.807 F2286.000 
G1 X-1.960 Y-10.862 Z-0.812 F2286.000 
G1 X-1.671 Y-10.695 Z-0.818 F2286.000 
G1 X-1.960 Y-10.862 Z-0.824 F2286.000 
G1 X-1.671 Y-11.029 Z-0.830 F2286.000 
G1 X-1.671 Y-10.695 Z-0.836 F2286.000 
G1 X-1.671 Y-11.029 Z-0.842 F2286.000 
G1 X-1.960 Y-10.862 Z-0.847 F2286.000 
G1 X-1.671 Y-10.695 Z-0.853 F2286.000 
G1 X-1.960 Y-10.862 Z-0.859 F2286.000 
G1 X-1.671 Y-11.029 Z-0.865 F2286.000 
G1 X-1.671 Y-10.695 Z-0.871 F2286.000 
G1 X-1.671 Y-11.029 Z-0.876 F2286.000 
G1 X-1.960 Y-10.862 Z-0.882 F2286.000 
G1 X-1.671 Y-10.695 Z-0.888 F2286.000 
G1 X-1.960 Y-10.862 Z-0.894 F2286.000 
G1 X-1.671 Y-11.029 Z-0.900 F2286.000 
G1 X-1.671 Y-10.695 Z-0.906 F2286.000 
G1 X-1.671 Y-11.029 Z-0.911 F2286.000 
G1 X-1.960 Y-10.862 Z-0.917 F2286.000 
G1 X-1.671 Y-10.695 Z-0.923 F2286.000 
G1 X-1.960 Y-10.862 Z-0.929 F2286.000 
G1 X-1.671 Y-11.029 Z-0.935 F2286.000 
G1 X-1.671 Y-10.695 Z-0.941 F2286.000 
G1 X-1.671 Y-11.029 Z-0.946 F2286.000 
G1 X-1.960 Y-10.862 Z-0.952 F2286.000 
G1 X-1.671 Y-10.695 Z-0.958 F2286.000 
G1 X-1.960 Y-10.862 Z-0.964 F2286.000 
G1 X-1.671 Y-11.029 Z-0.970 F2286.000 
G1 X-1.671 Y-10.695 Z-0.976 F2286.000 
G1 X-1.671 Y-11.029 Z-0.981 F2286.000 
G1 X-1.960 Y-10.862 Z-0.987 F2286.000 
G1 X-1.671 Y-10.695 Z-0.993 F2286.000 
G1 X-1.960 Y-10.862 Z-0.999 F2286.000 
G1 X-1.671 Y-11.029 Z-1.005 F2286.000 
G1 X-1.671 Y-10.695 Z-1.010 F2286.000 
G1 X-1.671 Y-11.029 Z-1.016 F2286.000 
G1 X-1.960 Y-10.862 Z-1.022 F2286.000 
G1 X-1.671 Y-10.695 Z-1.028 F2286.000 
G1 X-1.960 Y-10.862 Z-1.034 F2286.000 
G1 X-1.671 Y-11.029 Z-1.040 F2286.000 
G1 X-1.671 Y-10.695 Z-1.045 F2286.000 
G1 X-1.671 Y-11.029 Z-1.051 F2286.000 
G1 X-1.960 Y-10.862 Z-1.057 F2286.000 
G1 X-1.671 Y-10.695 Z-1.063 F2286.000 
G1 X-1.960 Y-10.862 Z-1.069 F2286.000 
G1 X-1.671 Y-11.029 Z-1.075 F2286.000 
G1 X-1.671 Y-10.695 Z-1.080 F2286.000 
G1 X-1.671 Y-11.029 Z-1.086 F2286.000 
G1 X-1.960 Y-10.862 Z-1.092 F2286.000 
G1 X-1.671 Y-10.695 Z-1.098 F2286.000 
G1 X-1.960 Y-10.862 Z-1.104 F2286.000 
G1 X-1.671 Y-11.029 Z-1.109 F2286.000 
G1 X-1.671 Y-10.695 Z-1.115 F2286.000 
G1 X-1.671 Y-11.029 Z-1.121 F2286.000 
G1 X-1.960 Y-10.862 Z-1.127 F2286.000 
G1 X-1.671 Y-10.695 Z-1.133 F2286.000 
G1 X-1.960 Y-10.862 Z-1.139 F2286.000 
G1 X-1.671 Y-11.029 Z-1.144 F2286.000 
G1 X-1.671 Y-10.695 Z-1.150 F2286.000 
G1 X-1.671 Y-11.029 Z-1.156 F2286.000 
G1 X-1.960 Y-10.862 Z-1.162 F2286.000 
G1 X-1.671 Y-10.695 Z-1.168 F2286.000 
G1 X-1.960 Y-10.862 Z-1.174 F2286.000 
G1 X-1.671 Y-11.029 Z-1.179 F2286.000 
G1 X-1.671 Y-10.695 Z-1.185 F2286.000 
G1 X-1.671 Y-11.029 Z-1.191 F2286.000 
G1 X-1.960 Y-10.862 Z-1.197 F2286.000 
G1 X-1.671 Y-10.695 Z-1.203 F2286.000 
G1 X-1.960 Y-10.862 Z-1.208 F2286.000 
G1 X-1.671 Y-11.029 Z-1.214 F2286.000 
G1 X-1.671 Y-10.695 Z-1.220 F2286.000 
G1 X-1.671 Y-11.029 Z-1.226 F2286.000 
G1 X-1.960 Y-10.862 Z-1.232 F2286.000 
G1 X-1.671 Y-10.695 Z-1.238 F2286.000 
G1 X-1.960 Y-10.862 Z-1.243 F2286.000 
G1 X-1.671 Y-11.029 Z-1.249 F2286.000 
G1 X-1.671 Y-10.695 Z-1.255 F2286.000 
G1 X-1.671 Y-11.029 Z-1.261 F2286.000 
G1 X-1.960 Y-10.862 Z-1.267 F2286.000 
G1 X-1.671 Y-10.695 Z-1.273 F2286.000 
G1 X-1.960 Y-10.862 Z-1.278 F2286.000 
G1 X-1.671 Y-11.029 Z-1.284 F2286.000 
G1 X-1.671 Y-10.695 Z-1.290 F2286.000 
G1 X-1.671 Y-11.029 Z-1.296 F2286.000 
G1 X-1.960 Y-10.862 Z-1.302 F2286.000 
G1 X-1.671 Y-10.695 Z-1.307 F2286.000 
G1 X-1.960 Y-10.862 Z-1.313 F2286.000 
G1 X-1.671 Y-11.029 Z-1.319 F2286.000 
G1 X-1.671 Y-10.695 Z-1.325 F2286.000 
G1 X-1.671 Y-11.029 Z-1.331 F2286.000 
G1 X-1.960 Y-10.862 Z-1.337 F2286.000 
G1 X-1.671 Y-10.695 Z-1.342 F2286.000 
G1 X-1.960 Y-10.862 Z-1.348 F2286.000 
G1 X-1.671 Y-11.029 Z-1.354 F2286.000 
G1 X-1.671 Y-10.695 Z-1.360 F2286.000 
G1 X-1.671 Y-11.029 Z-1.366 F2286.000 
G1 X-1.960 Y-10.862 Z-1.372 F2286.000 
G1 X-1.671 Y-10.695 Z-1.377 F2286.000 
G1 X-1.960 Y-10.862 Z-1.383 F2286.000 
G1 X-1.671 Y-11.029 Z-1.389 F2286.000 
G1 X-1.671 Y-10.695 Z-1.395 F2286.000 
G1 X-1.671 Y-11.029 Z-1.401 F2286.000 
G1 X-1.960 Y-10.862 Z-1.407 F2286.000 
G1 X-1.671 Y-10.695 Z-1.412 F2286.000 
G1 X-1.960 Y-10.862 Z-1.418 F2286.000 
G1 X-1.671 Y-11.029 Z-1.424 F2286.000 
G1 X-1.671 Y-10.695 Z-1.430 F2286.000 
G1 X-1.671 Y-11.029 Z-1.436 F2286.000 
G1 X-1.960 Y-10.862 Z-1.441 F2286.000 
G1 X-1.671 Y-10.695 Z-1.447 F2286.000 
G1 X-1.960 Y-10.862 Z-1.453 F2286.000 
G1 X-1.671 Y-11.029 Z-1.459 F2286.000 
G1 X-1.671 Y-10.695 Z-1.465 F2286.000 
G1 X-1.671 Y-11.029 Z-1.471 F2286.000 
G1 X-1.960 Y-10.862 Z-1.476 F2286.000 
G1 X-1.671 Y-10.695 Z-1.482 F2286.000 
G1 X-1.960 Y-10.862 Z-1.488 F2286.000 
G1 X-1.671 Y-11.029 Z-1.494 F2286.000 
G1 X-1.671 Y-10.695 Z-1.500 F2286.000 
G1 X-1.671 Y-11.029 Z-1.506 F2286.000 
G1 X-1.960 Y-10.862 Z-1.511 F2286.000 
G1 X-1.671 Y-10.695 Z-1.517 F2286.000 
G1 X-1.960 Y-10.862 Z-1.523 F2286.000 
G1 X-1.671 Y-11.029 Z-1.529 F2286.000 
G1 X-1.671 Y-10.695 Z-1.535 F2286.000 
G1 X-1.671 Y-11.029 Z-1.540 F2286.000 
G1 X-1.960 Y-10.862 Z-1.546 F2286.000 
G1 X-1.671 Y-10.695 Z-1.552 F2286.000 
G1 X-1.960 Y-10.862 Z-1.558 F2286.000 
G1 X-1.671 Y-11.029 Z-1.564 F2286.000 
G1 X-1.671 Y-10.695 Z-1.570 F2286.000 
G1 X-1.671 Y-11.029 Z-1.575 F2286.000 
G1 X-1.960 Y-10.862 Z-1.581 F2286.000 
G1 X-1.671 Y-10.695 Z-1.587 F2286.000 
G1 X-1.960 Y-10.862 Z-1.593 F2286.000 
G1 X-1.671 Y-11.029 Z-1.599 F2286.000 
G1 X-1.671 Y-10.695 Z-1.605 F2286.000 
G1 X-1.671 Y-11.029 Z-1.610 F2286.000 
G1 X-1.960 Y-10.862 Z-1.616 F2286.000 
G1 X-1.671 Y-10.695 Z-1.622 F2286.000 
G1 X-1.960 Y-10.862 Z-1.628 F2286.000 
G1 X-1.671 Y-11.029 Z-1.634 F2286.000 
G1 X-1.671 Y-10.695 Z-1.639 F2286.000 
G1 X-1.671 Y-11.029 Z-1.645 F2286.000 
G1 X-1.960 Y-10.862 Z-1.651 F2286.000 
G1 X-1.671 Y-10.695 Z-1.657 F2286.000 
G1 X-1.960 Y-10.862 Z-1.663 F2286.000 
G1 X-1.707 Y-11.009 Z-1.668 F2286.000 
G1 X-1.960 Y-10.862 Z-1.668 F2286.000 
G1 X-1.671 Y-10.695 Z-1.668 F2286.000 
G1 X-1.960 Y-10.862 Z-1.668 F2286.000 
G1 X-1.671 Y-11.029 Z-1.668 F2286.000 
G1 X-1.671 Y-10.695 Z-1.668 F2286.000 
G0 X-1.671 Y-10.695 Z5.000 
G0 X10.098 Y3.900 Z5.000 
G0 X10.098 Y3.900 Z3.000 
G1 X10.098 Y3.900 Z0.300 F2286.000 
G1 X10.387 Y3.733 Z0.294 F2286.000 
G1 X10.387 Y4.067 Z0.288 F2286.000 
G1 X10.098 Y3.900 Z0.283 F2286.000 
G1 X10.387 Y4.067 Z0.277 F2286.000 
G1 X10.387 Y3.733 Z0.271 F2286.000 
G1 X10.098 Y3.900 Z0.265 F2286.000 
G1 X10.387 Y3.733 Z0.259 F2286.000 
G1 X10.387 Y4.067 Z0.253 F2286.000 
G1 X10.098 Y3.900 Z0.248 F2286.000 
G1 X10.387 Y4.067 Z0.242 F2286.000 
G1 X10.387 Y3.733 Z0.236 F2286.000 
G1 X10.098 Y3.900 Z0.230 F2286.000 
G1 X10.387 Y3.733 Z0.224 F2286.000 
G1 X10.387 Y4.067 Z0.218 F2286.000 
G1 X10.098 Y3.900 Z0.213 F2286.000 
G1 X10.387 Y4.067 Z0.207 F2286.000 
G1 X10.387 Y3.733 Z0.201 F2286.000 
G1 X10.098 Y3.900 Z0.195 F2286.000 
G1 X10.387 Y3.733 Z0.189 F2286.000 
G1 X10.387 Y4.067 Z0.184 F2286.000 
G1 X10.098 Y3.900 Z0.178 F2286.000 
G1 X10.387 Y4.067 Z0.172 F2286.000 
G1 X10.387 Y3.733 Z0.166 F2286.000 
G1 X10.098 Y3.900 Z0.160 F2286.000 
G1 X10.387 Y3.733 Z0.154 F2286.000 
G1 X10.387 Y4.067 Z0.149 F2286.000 
G1 X10.098 Y3.900 Z0.143 F2286.000 
G1 X10.387 Y4.067 Z0.137 F2286.000 
G1 X10.387 Y3.733 Z0.131 F2286.000 
G1 X10.098 Y3.900 Z0.125 F2286.000 
G1 X10.387 Y3.733 Z0.119 F2286.000 
G1 X10.387 Y4.067 Z0.114 F2286.000 
G1 X10.098 Y3.900 Z0.108 F2286.000 
G1 X10.387 Y4.067 Z0.102 F2286.000 
G1 X10.387 Y3.733 Z0.096 F2286.000 
G1 X10.098 Y3.900 Z0.090 F2286.000 
G1 X10.387 Y3.733 Z0.085 F2286.000 
G1 X10.387 Y4.067 Z0.079 F2286.000 
G1 X10.098 Y3.900 Z0.073 F2286.000 
G1 X10.387 Y4.067 Z0.067 F2286.000 
G1 X10.387 Y3.733 Z0.061 F2286.000 
G1 X10.098 Y3.900 Z0.055 F2286.000 
G1 X10.387 Y3.733 Z0.050 F2286.000 
G1 X10.387 Y4.067 Z0.044 F2286.000 
G1 X10.098 Y3.900 Z0.038 F2286.000 
G1 X10.387 Y4.067 Z0.032 F2286.000 
G1 X10.387 Y3.733 Z0.026 F2286.000 
G1 X10.098 Y3.900 Z0.020 F2286.000 
G1 X10.387 Y3.733 Z0.015 F2286.000 
G1 X10.387 Y4.067 Z0.009 F2286.000 
G1 X10.098 Y3.900 Z0.003 F2286.000 
G1 X10.387 Y4.067 Z-0.003 F2286.000 
G1 X10.387 Y3.733 Z-0.009 F2286.000 
G1 X10.098 Y3.900 Z-0.015 F2286.000 
G1 X10.387 Y3.733 Z-0.020 F2286.000 
G1 X10.387 Y4.067 Z-0.026 F2286.000 
G1 X10.098 Y3.900 Z-0.032 F2286.000 
G1 X10.387 Y4.067 Z-0.038 F2286.000 
G1 X10.387 Y3.733 Z-0.044 F2286.000 
G1 X10.098 Y3.900 Z-0.049 F2286.000 
G1 X10.387 Y3.733 Z-0.055 F2286.000 
G1 X10.387 Y4.067 Z-0.061 F2286.000 
G1 X10.098 Y3.900 Z-0.067 F2286.000 
G1 X10.387 Y4.067 Z-0.073 F2286.000 
G1 X10.387 Y3.733 Z-0.079 F2286.000 
G1 X10.098 Y3.900 Z-0.084 F2286.000 
G1 X10.387 Y3.733 Z-0.090 F2286.000 
G1 X10.387 Y4.067 Z-0.096 F2286.000 
G1 X10.098 Y3.900 Z-0.102 F2286.000 
G1 X10.387 Y4.067 Z-0.108 F2286.000 
G1 X10.387 Y3.733 Z-0.114 F2286.000 
G1 X10.098 Y3.900 Z-0.119 F2286.000 
G1 X10.387 Y3.733 Z-0.125 F2286.000 
G1 X10.387 Y4.067 Z-0.131 F2286.000 
G1 X10.098 Y3.900 Z-0.137 F2286.000 
G1 X10.387 Y4.067 Z-0.143 F2286.000 
G1 X10.387 Y3.733 Z-0.148 F2286.000 
G1 X10.098 Y3.900 Z-0.154 F2286.000 
G1 X10.387 Y3.733 Z-0.160 F2286.000 
G1 X10.387 Y4.067 Z-0.166 F2286.000 
G1 X10.098 Y3.900 Z-0.172 F2286.000 
G1 X10.387 Y4.067 Z-0.178 F2286.000 
G1 X10.387 Y3.733 Z-0.183 F2286.000 
G1 X10.098 Y3.900 Z-0.189 F2286.000 
G1 X10.387 Y3.733 Z-0.195 F2286.000 
G1 X10.387 Y4.067 Z-0.201 F2286.000 
G1 X10.098 Y3.900 Z-0.207 F2286.000 
G1 X10.387 Y4.067 Z-0.213 F2286.000 
G1 X10.387 Y3.733 Z-0.218 F2286.000 
G1 X10.098 Y3.900 Z-0.224 F2286.000 
G1 X10.387 Y3.733 Z-0.230 F2286.000 
G1 X10.387 Y4.067 Z-0.236 F2286.000 
G1 X10.098 Y3.900 Z-0.242 F2286.000 
G1 X10.387 Y4.067 Z-0.247 F2286.000 
G1 X10.387 Y3.733 Z-0.253 F2286.000 
G1 X10.098 Y3.900 Z-0.259 F2286.000 
G1 X10.387 Y3.733 Z-0.265 F2286.000 
G1 X10.387 Y4.067 Z-0.271 F2286.000 
G1 X10.098 Y3.900 Z-0.277 F2286.000 
G1 X10.387 Y4.067 Z-0.282 F2286.000 
G1 X10.387 Y3.733 Z-0.288 F2286.000 
G1 X10.098 Y3.900 Z-0.294 F2286.000 
G1 X10.387 Y3.733 Z-0.300 F2286.000 
G1 X10.387 Y4.067 Z-0.306 F2286.000 
G1 X10.098 Y3.900 Z-0.312 F2286.000 
G1 X10.387 Y4.067 Z-0.317 F2286.000 
G1 X10.387 Y3.733 Z-0.323 F2286.000 
G1 X10.098 Y3.900 Z-0.329 F2286.000 
G1 X10.387 Y3.733 Z-0.335 F2286.000 
G1 X10.387 Y4.067 Z-0.341 F2286.000 
G1 X10.098 Y3.900 Z-0.346 F2286.000 
G1 X10.387 Y4.067 Z-0.352 F2286.000 
G1 X10.387 Y3.733 Z-0.358 F2286.000 
G1 X10.098 Y3.900 Z-0.364 F2286.000 
G1 X10.387 Y3.733 Z-0.370 F2286.000 
G1 X10.387 Y4.067 Z-0.376 F2286.000 
G1 X10.098 Y3.900 Z-0.381 F2286.000 
G1 X10.387 Y4.067 Z-0.387 F2286.000 
G1 X10.387 Y3.733 Z-0.393 F2286.000 
G1 X10.098 Y3.900 Z-0.399 F2286.000 
G1 X10.387 Y3.733 Z-0.405 F2286.000 
G1 X10.387 Y4.067 Z-0.411 F2286.000 
G1 X10.098 Y3.900 Z-0.416 F2286.000 
G1 X10.387 Y4.067 Z-0.422 F2286.000 
G1 X10.387 Y3.733 Z-0.428 F2286.000 
G1 X10.098 Y3.900 Z-0.434 F2286.000 
G1 X10.387 Y3.733 Z-0.440 F2286.000 
G1 X10.387 Y4.067 Z-0.446 F2286.000 
G1 X10.098 Y3.900 Z-0.451 F2286.000 
G1 X10.387 Y4.067 Z-0.457 F2286.000 
G1 X10.387 Y3.733 Z-0.463 F2286.000 
G1 X10.098 Y3.900 Z-0.469 F2286.000 
G1 X10.387 Y3.733 Z-0.475 F2286.000 
G1 X10.387 Y4.067 Z-0.480 F2286.000 
G1 X10.098 Y3.900 Z-0.486 F2286.000 
G1 X10.387 Y4.067 Z-0.492 F2286.000 
G1 X10.387 Y3.733 Z-0.498 F2286.000 
G1 X10.098 Y3.900 Z-0.504 F2286.000 
G1 X10.387 Y3.733 Z-0.510 F2286.000 
G1 X10.387 Y4.067 Z-0.515 F2286.000 
G1 X10.098 Y3.900 Z-0.521 F2286.000 
G1 X10.387 Y4.067 Z-0.527 F2286.000 
G1 X10.387 Y3.733 Z-0.533 F2286.000 
G1 X10.098 Y3.900 Z-0.539 F2286.000 
G1 X10.387 Y3.733 Z-0.545 F2286.000 
G1 X10.387 Y4.067 Z-0.550 F2286.000 
G1 X10.098 Y3.900 Z-0.556 F2286.000 
G1 X10.387 Y4.067 Z-0.562 F2286.000 
G1 X10.387 Y3.733 Z-0.568 F2286.000 
G1 X10.098 Y3.900 Z-0.574 F2286.000 
G1 X10.387 Y3.733 Z-0.579 F2286.000 
G1 X10.387 Y4.067 Z-0.585 F2286.000 
G1 X10.098 Y3.900 Z-0.591 F2286.000 
G1 X10.387 Y4.067 Z-0.597 F2286.000 
G1 X10.387 Y3.733 Z-0.603 F2286.000 
G1 X10.098 Y3.900 Z-0.609 F2286.000 
G1 X10.387 Y3.733 Z-0.614 F2286.000 
G1 X10.387 Y4.067 Z-0.620 F2286.000 
G1 X10.098 Y3.900 Z-0.626 F2286.000 
G1 X10.387 Y4.067 Z-0.632 F2286.000 
G1 X10.387 Y3.733 Z-0.638 F2286.000 
G1 X10.098 Y3.900 Z-0.644 F2286.000 
G1 X10.387 Y3.733 Z-0.649 F2286.000 
G1 X10.387 Y4.067 Z-0.655 F2286.000 
G1 X10.098 Y3.900 Z-0.661 F2286.000 
G1 X10.387 Y4.067 Z-0.667 F2286.000 
G1 X10.387 Y3.733 Z-0.673 F2286.000 
G1 X10.098 Y3.900 Z-0.678 F2286.000 
G1 X10.387 Y3.733 Z-0.684 F2286.000 
G1 X10.387 Y4.067 Z-0.690 F2286.000 
G1 X10.098 Y3.900 Z-0.696 F2286.000 
G1 X10.387 Y4.067 Z-0.702 F2286.000 
G1 X10.387 Y3.733 Z-0.708 F2286.000 
G1 X10.098 Y3.900 Z-0.713 F2286.000 
G1 X10.387 Y3.733 Z-0.719 F2286.000 
G1 X10.387 Y4.067 Z-0.725 F2286.000 
G1 X10.098 Y3.900 Z-0.731 F2286.000 
G1 X10.387 Y4.067 Z-0.737 F2286.000 
G1 X10.387 Y3.733 Z-0.743 F2286.000 
G1 X10.098 Y3.900 Z-0.748 F2286.000 
G1 X10.387 Y3.733 Z-0.754 F2286.000 
G1 X10.387 Y4.067 Z-0.760 F2286.000 
G1 X10.098 Y3.900 Z-0.766 F2286.000 
G1 X10.387 Y4.067 Z-0.772 F2286.000 
G1 X10.387 Y3.733 Z-0.777 F2286.000 
G1 X10.098 Y3.900 Z-0.783 F2286.000 
G1 X10.387 Y3.733 Z-0.789 F2286.000 
G1 X10.387 Y4.067 Z-0.795 F2286.000 
G1 X10.098 Y3.900 Z-0.801 F2286.000 
G1 X10.387 Y4.067 Z-0.807 F2286.000 
G1 X10.387 Y3.733 Z-0.812 F2286.000 
G1 X10.098 Y3.900 Z-0.818 F2286.000 
G1 X10.387 Y3.733 Z-0.824 F2286.000 
G1 X10.387 Y4.067 Z-0.830 F2286.000 
G1 X10.098 Y3.900 Z-0.836 F2286.000 
G1 X10.387 Y4.067 Z-0.842 F2286.000 
G1 X10.387 Y3.733 Z-0.847 F2286.000 
G1 X10.098 Y3.900 Z-0.853 F2286.000 
G1 X10.387 Y3.733 Z-0.859 F2286.000 
G1 X10.387 Y4.067 Z-0.865 F2286.000 
G1 X10.098 Y3.900 Z-0.871 F2286.000 
G1 X10.387 Y4.067 Z-0.876 F2286.000 
G1 X10.387 Y3.733 Z-0.882 F2286.000 
G1 X10.098 Y3.900 Z-0.888 F2286.000 
G1 X10.387 Y3.733 Z-0.894 F2286.000 
G1 X10.387 Y4.067 Z-0.900 F2286.000 
G1 X10.098 Y3.900 Z-0.906 F2286.000 
G1 X10.387 Y4.067 Z-0.911 F2286.000 
G1 X10.387 Y3.733 Z-0.917 F2286.000 
G1 X10.098 Y3.900 Z-0.923 F2286.000 
G1 X10.387 Y3.733 Z-0.929 F2286.000 
G1 X10.387 Y4.067 Z-0.935 F2286.000 
G1 X10.098 Y3.900 Z-0.941 F2286.000 
G1 X10.387 Y4.067 Z-0.946 F2286.000 
G1 X10.387 Y3.733 Z-0.952 F2286.000 
G1 X10.098 Y3.900 Z-0.958 F2286.000 
G1 X10.387 Y3.733 Z-0.964 F2286.000 
G1 X10.387 Y4.067 Z-0.970 F2286.000 
G1 X10.098 Y3.900 Z-0.976 F2286.000 
G1 X10.387 Y4.067 Z-0.981 F2286.000 
G1 X10.387 Y3.733 Z-0.987 F2286.000 
G1 X10.098 Y3.900 Z-0.993 F2286.000 
G1 X10.387 Y3.733 Z-0.999 F2286.000 
G1 X10.387 Y4.067 Z-1.005 F2286.000 
G1 X10.098 Y3.900 Z-1.010 F2286.000 
G1 X10.387 Y4.067 Z-1.016 F2286.000 
G1 X10.387 Y3.733 Z-1.022 F2286.000 
G1 X10.098 Y3.900 Z-1.028 F2286.000 
G1 X10.387 Y3.733 Z-1.034 F2286.000 
G1 X10.387 Y4.067 Z-1.040 F2286.000 
G1 X10.098 Y3.900 Z-1.045 F2286.000 
G1 X10.387 Y4.067 Z-1.051 F2286.000 
G1 X10.387 Y3.733 Z-1.057 F2286.000 
G1 X10.098 Y3.900 Z-1.063 F2286.000 
G1 X10.387 Y3.733 Z-1.069 F2286.000 
G1 X10.387 Y4.067 Z-1.075 F2286.000 
G1 X10.098 Y3.900 Z-1.080 F2286.000 
G1 X10.387 Y4.067 Z-1.086 F2286.000 
G1 X10.387 Y3.733 Z-1.092 F2286.000 
G1 X10.098 Y3.900 Z-1.098 F2286.000 
G1 X10.387 Y3.733 Z-1.104 F2286.000 
G1 X10.387 Y4.067 Z-1.109 F2286.000 
G1 X10.098 Y3.900 Z-1.115 F2286.000 
G1 X10.387 Y4.067 Z-1.121 F2286.000 
G1 X10.387 Y3.733 Z-1.127 F2286.000 
G1 X10.098 Y3.900 Z-1.133 F2286.000 
G1 X10.387 Y3.733 Z-1.139 F2286.000 
G1 X10.387 Y4.067 Z-1.144 F2286.000 
G1 X10.098 Y3.900 Z-1.150 F2286.000 
G1 X10.387 Y4.067 Z-1.156 F2286.000 
G1 X10.387 Y3.733 Z-1.162 F2286.000 
G1 X10.098 Y3.900 Z-1.168 F2286.000 
G1 X10.387 Y3.733 Z-1.174 F2286.000 
G1 X10.387 Y4.067 Z-1.179 F2286.000 
G1 X10.098 Y3.900 Z-1.185 F2286.000 
G1 X10.387 Y4.067 Z-1.191 F2286.000 
G1 X10.387 Y3.733 Z-1.197 F2286.000 
G1 X10.098 Y3.900 Z-1.203 F2286.000 
G1 X10.387 Y3.733 Z-1.208 F2286.000 
G1 X10.387 Y4.067 Z-1.214 F2286.000 
G1 X10.098 Y3.900 Z-1.220 F2286.000 
G1 X10.387 Y4.067 Z-1.226 F2286.000 
G1 X10.387 Y3.733 Z-1.232 F2286.000 
G1 X10.098 Y3.900 Z-1.238 F2286.000 
G1 X10.387 Y3.733 Z-1.243 F2286.000 
G1 X10.387 Y4.067 Z-1.249 F2286.000 
G1 X10.098 Y3.900 Z-1.255 F2286.000 
G1 X10.387 Y4.067 Z-1.261 F2286.000 
G1 X10.387 Y3.733 Z-1.267 F2286.000 
G1 X10.098 Y3.900 Z-1.273 F2286.000 
G1 X10.387 Y3.733 Z-1.278 F2286.000 
G1 X10.387 Y4.067 Z-1.284 F2286.000 
G1 X10.098 Y3.900 Z-1.290 F2286.000 
G1 X10.387 Y4.067 Z-1.296 F2286.000 
G1 X10.387 Y3.733 Z-1.302 F2286.000 
G1 X10.098 Y3.900 Z-1.307 F2286.000 
G1 X10.387 Y3.733 Z-1.313 F2286.000 
G1 X10.387 Y4.067 Z-1.319 F2286.000 
G1 X10.098 Y3.900 Z-1.325 F2286.000 
G1 X10.387 Y4.067 Z-1.331 F2286.000 
G1 X10.387 Y3.733 Z-1.337 F2286.000 
G1 X10.098 Y3.900 Z-1.342 F2286.000 
G1 X10.387 Y3.733 Z-1.348 F2286.000 
G1 X10.387 Y4.067 Z-1.354 F2286.000 
G1 X10.098 Y3.900 Z-1.360 F2286.000 
G1 X10.387 Y4.067 Z-1.366 F2286.000 
G1 X10.387 Y3.733 Z-1.372 F2286.000 
G1 X10.098 Y3.900 Z-1.377 F2286.000 
G1 X10.387 Y3.733 Z-1.383 F2286.000 
G1 X10.387 Y4.067 Z-1.389 F2286.000 
G1 X10.098 Y3.900 Z-1.395 F2286.000 
G1 X10.387 Y4.067 Z-1.401 F2286.000 
G1 X10.387 Y3.733 Z-1.407 F2286.000 
G1 X10.098 Y3.900 Z-1.412 F2286.000 
G1 X10.387 Y3.733 Z-1.418 F2286.000 
G1 X10.387 Y4.067 Z-1.424 F2286.000 
G1 X10.098 Y3.900 Z-1.430 F2286.000 
G1 X10.387 Y4.067 Z-1.436 F2286.000 
G1 X10.387 Y3.733 Z-1.441 F2286.000 
G1 X10.098 Y3.900 Z-1.447 F2286.000 
G1 X10.387 Y3.733 Z-1.453 F2286.000 
G1 X10.387 Y4.067 Z-1.459 F2286.000 
G1 X10.098 Y3.900 Z-1.465 F2286.000 
G1 X10.387 Y4.067 Z-1.471 F2286.000 
G1 X10.387 Y3.733 Z-1.476 F2286.000 
G1 X10.098 Y3.900 Z-1.482 F2286.000 
G1 X10.387 Y3.733 Z-1.488 F2286.000 
G1 X10.387 Y4.067 Z-1.494 F2286.000 
G1 X10.098 Y3.900 Z-1.500 F2286.000 
G1 X10.387 Y4.067 Z-1.506 F2286.000 
G1 X10.387 Y3.733 Z-1.511 F2286.000 
G1 X10.098 Y3.900 Z-1.517 F2286.000 
G1 X10.387 Y3.733 Z-1.523 F2286.000 
G1 X10.387 Y4.067 Z-1.529 F2286.000 
G1 X10.098 Y3.900 Z-1.535 F2286.000 
G1 X10.387 Y4.067 Z-1.540 F2286.000 
G1 X10.387 Y3.733 Z-1.546 F2286.000 
G1 X10.098 Y3.900 Z-1.552 F2286.000 
G1 X10.387 Y3.733 Z-1.558 F2286.000 
G1 X10.387 Y4.067 Z-1.564 F2286.000 
G1 X10.098 Y3.900 Z-1.570 F2286.000 
G1 X10.387 Y4.067 Z-1.575 F2286.000 
G1 X10.387 Y3.733 Z-1.581 F2286.000 
G1 X10.098 Y3.900 Z-1.587 F2286.000 
G1 X10.387 Y3.733 Z-1.593 F2286.000 
G1 X10.387 Y4.067 Z-1.599 F2286.000 
G1 X10.098 Y3.900 Z-1.605 F2286.000 
G1 X10.387 Y4.067 Z-1.610 F2286.000 
G1 X10.387 Y3.733 Z-1.616 F2286.000 
G1 X10.098 Y3.900 Z-1.622 F2286.000 
G1 X10.387 Y3.733 Z-1.628 F2286.000 
G1 X10.387 Y4.067 Z-1.634 F2286.000 
G1 X10.098 Y3.900 Z-1.639 F2286.000 
G1 X10.387 Y4.067 Z-1.645 F2286.000 
G1 X10.387 Y3.733 Z-1.651 F2286.000 
G1 X10.098 Y3.900 Z-1.657 F2286.000 
G1 X10.387 Y3.733 Z-1.663 F2286.000 
G1 X10.387 Y4.026 Z-1.668 F2286.000 
G1 X10.387 Y3.733 Z-1.668 F2286.000 
G1 X10.098 Y3.900 Z-1.668 F2286.000 
G1 X10.387 Y3.733 Z-1.668 F2286.000 
G1 X10.387 Y4.067 Z-1.668 F2286.000 
G1 X10.098 Y3.900 Z-1.668 F2286.000 
G0 X10.098 Y3.900 Z5.000 
G0 X8.427 Y7.129 Z5.000 
G0 X8.427 Y7.129 Z3.000 
G1 X8.427 Y7.129 Z0.300 F2286.000 
G1 X8.427 Y6.795 Z0.294 F2286.000 
G1 X8.716 Y6.962 Z0.288 F2286.000 
G1 X8.427 Y7.129 Z0.283 F2286.000 
G1 X8.716 Y6.962 Z0.277 F2286.000 
G1 X8.427 Y6.795 Z0.271 F2286.000 
G1 X8.427 Y7.129 Z0.265 F2286.000 
G1 X8.427 Y6.795 Z0.259 F2286.000 
G1 X8.716 Y6.962 Z0.253 F2286.000 
G1 X8.427 Y7.129 Z0.248 F2286.000 
G1 X8.716 Y6.962 Z0.242 F2286.000 
G1 X8.427 Y6.795 Z0.236 F2286.000 
G1 X8.427 Y7.129 Z0.230 F2286.000 
G1 X8.427 Y6.795 Z0.224 F2286.000 
G1 X8.716 Y6.962 Z0.218 F2286.000 
G1 X8.427 Y7.129 Z0.213 F2286.000 
G1 X8.716 Y6.962 Z0.207 F2286.000 
G1 X8.427 Y6.795 Z0.201 F2286.000 
G1 X8.427 Y7.129 Z0.195 F2286.000 
G1 X8.427 Y6.795 Z0.189 F2286.000 
G1 X8.716 Y6.962 Z0.184 F2286.000 
G1 X8.427 Y7.129 Z0.178 F2286.000 
G1 X8.716 Y6.962 Z0.172 F2286.000 
G1 X8.427 Y6.795 Z0.166 F2286.000 
G1 X8.427 Y7.129 Z0.160 F2286.000 
G1 X8.427 Y6.795 Z0.154 F2286.000 
G1 X8.716 Y6.962 Z0.149 F2286.000 
G1 X8.427 Y7.129 Z0.143 F2286.000 
G1 X8.716 Y6.962 Z0.137 F2286.000 
G1 X8.427 Y6.795 Z0.131 F2286.000 
G1 X8.427 Y7.129 Z0.125 F2286.000 
G1 X8.427 Y6.795 Z0.119 F2286.000 
G1 X8.716 Y6.962 Z0.114 F2286.000 
G1 X8.427 Y7.129 Z0.108 F2286.000 
G1 X8.716 Y6.962 Z0.102 F2286.000 
G1 X8.427 Y6.795 Z0.096 F2286.000 
G1 X8.427 Y7.129 Z0.090 F2286.000 
G1 X8.427 Y6.795 Z0.085 F2286.000 
G1 X8.716 Y6.962 Z0.079 F2286.000 
G1 X8.427 Y7.129 Z0.073 F2286.000 
G1 X8.716 Y6.962 Z0.067 F2286.000 
G1 X8.427 Y6.795 Z0.061 F2286.000 
G1 X8.427 Y7.129 Z0.055 F2286.000 
G1 X8.427 Y6.795 Z0.050 F2286.000 
G1 X8.716 Y6.962 Z0.044 F2286.000 
G1 X8.427 Y7.129 Z0.038 F2286.000 
G1 X8.716 Y6.962 Z0.032 F2286.000 
G1 X8.427 Y6.795 Z0.026 F2286.000 
G1 X8.427 Y7.129 Z0.020 F2286.000 
G1 X8.427 Y6.795 Z0.015 F2286.000 
G1 X8.716 Y6.962 Z0.009 F2286.000 
G1 X8.427 Y7.129 Z0.003 F2286.000 
G1 X8.716 Y6.962 Z-0.003 F2286.000 
G1 X8.427 Y6.795 Z-0.009 F2286.000 
G1 X8.427 Y7.129 Z-0.015 F2286.000 
G1 X8.427 Y6.795 Z-0.020 F2286.000 
G1 X8.716 Y6.962 Z-0.026 F2286.000 
G1 X8.427 Y7.129 Z-0.032 F2286.000 
G1 X8.716 Y6.962 Z-0.038 F2286.000 
G1 X8.427 Y6.795 Z-0.044 F2286.000 
G1 X8.427 Y7.129 Z-0.049 F2286.000 
G1 X8.427 Y6.795 Z-0.055 F2286.000 
G1 X8.716 Y6.962 Z-0.061 F2286.000 
G1 X8.427 Y7.129 Z-0.067 F2286.000 
G1 X8.716 Y6.962 Z-0.073 F2286.000 
G1 X8.427 Y6.795 Z-0.079 F2286.000 
G1 X8.427 Y7.129 Z-0.084 F2286.000 
G1 X8.427 Y6.795 Z-0.090 F2286.000 
G1 X8.716 Y6.962 Z-0.096 F2286.000 
G1 X8.427 Y7.129 Z-0.102 F2286.000 
G1 X8.716 Y6.962 Z-0.108 F2286.000 
G1 X8.427 Y6.795 Z-0.114 F2286.000 
G1 X8.427 Y7.129 Z-0.119 F2286.000 
G1 X8.427 Y6.795 Z-0.125 F2286.000 
G1 X8.716 Y6.962 Z-0.131 F2286.000 
G1 X8.427 Y7.129 Z-0.137 F2286.000 
G1 X8.716 Y6.962 Z-0.143 F2286.000 
G1 X8.427 Y6.795 Z-0.148 F2286.000 
G1 X8.427 Y7.129 Z-0.154 F2286.000 
G1 X8.427 Y6.795 Z-0.160 F2286.000 
G1 X8.716 Y6.962 Z-0.166 F2286.000 
G1 X8.427 Y7.129 Z-0.172 F2286.000 
G1 X8.716 Y6.962 Z-0.178 F2286.000 
G1 X8.427 Y6.795 Z-0.183 F2286.000 
G1 X8.427 Y7.129 Z-0.189 F2286.000 
G1 X8.427 Y6.795 Z-0.195 F2286.000 
G1 X8.716 Y6.962 Z-0.201 F2286.000 
G1 X8.427 Y7.129 Z-0.207 F2286.000 
G1 X8.716 Y6.962 Z-0.213 F2286.000 
G1 X8.427 Y6.795 Z-0.218 F2286.000 
G1 X8.427 Y7.129 Z-0.224 F2286.000 
G1 X8.427 Y6.795 Z-0.230 F2286.000 
G1 X8.716 Y6.962 Z-0.236 F2286.000 
G1 X8.427 Y7.129 Z-0.242 F2286.000 
G1 X8.716 Y6.962 Z-0.247 F2286.000 
G1 X8.427 Y6.795 Z-0.253 F2286.000 
G1 X8.427 Y7.129 Z-0.259 F2286.000 
G1 X8.427 Y6.795 Z-0.265 F2286.000 
G1 X8.716 Y6.962 Z-0.271 F2286.000 
G1 X8.427 Y7.129 Z-0.277 F2286.000 
G1 X8.716 Y6.962 Z-0.282 F2286.000 
G1 X8.427 Y6.795 Z-0.288 F2286.000 
G1 X8.427 Y7.129 Z-0.294 F2286.000 
G1 X8.427 Y6.795 Z-0.300 F2286.000 
G1 X8.716 Y6.962 Z-0.306 F2286.000 
G1 X8.427 Y7.129 Z-0.312 F2286.000 
G1 X8.716 Y6.962 Z-0.317 F2286.000 
G1 X8.427 Y6.795 Z-0.323 F2286.000 
G1 X8.427 Y7.129 Z-0.329 F2286.000 
G1 X8.427 Y6.795 Z-0.335 F2286.000 
G1 X8.716 Y6.962 Z-0.341 F2286.000 
G1 X8.427 Y7.129 Z-0.346 F2286.000 
G1 X8.716 Y6.962 Z-0.352 F2286.000 
G1 X8.427 Y6.795 Z-0.358 F2286.000 
G1 X8.427 Y7.129 Z-0.364 F2286.000 
G1 X8.427 Y6.795 Z-0.370 F2286.000 
G1 X8.716 Y6.962 Z-0.376 F2286.000 
G1 X8.427 Y7.129 Z-0.381 F2286.000 
G1 X8.716 Y6.962 Z-0.387 F2286.000 
G1 X8.427 Y6.795 Z-0.393 F2286.000 
G1 X8.427 Y7.129 Z-0.399 F2286.000 
G1 X8.427 Y6.795 Z-0.405 F2286.000 
G1 X8.716 Y6.962 Z-0.411 F2286.000 
G1 X8.427 Y7.129 Z-0.416 F2286.000 
G1 X8.716 Y6.962 Z-0.422 F2286.000 
G1 X8.427 Y6.795 Z-0.428 F2286.000 
G1 X8.427 Y7.129 Z-0.434 F2286.000 
G1 X8.427 Y6.795 Z-0.440 F2286.000 
G1 X8.716 Y6.962 Z-0.446 F2286.000 
G1 X8.427 Y7.129 Z-0.451 F2286.000 
G1 X8.716 Y6.962 Z-0.457 F2286.000 
G1 X8.427 Y6.795 Z-0.463 F2286.000 
G1 X8.427 Y7.129 Z-0.469 F2286.000 
G1 X8.427 Y6.795 Z-0.475 F2286.000 
G1 X8.716 Y6.962 Z-0.480 F2286.000 
G1 X8.427 Y7.129 Z-0.486 F2286.000 
G1 X8.716 Y6.962 Z-0.492 F2286.000 
G1 X8.427 Y6.795 Z-0.498 F2286.000 
G1 X8.427 Y7.129 Z-0.504 F2286.000 
G1 X8.427 Y6.795 Z-0.510 F2286.000 
G1 X8.716 Y6.962 Z-0.515 F2286.000 
G1 X8.427 Y7.129 Z-0.521 F2286.000 
G1 X8.716 Y6.962 Z-0.527 F2286.000 
G1 X8.427 Y6.795 Z-0.533 F2286.000 
G1 X8.427 Y7.129 Z-0.539 F2286.000 
G1 X8.427 Y6.795 Z-0.545 F2286.000 
G1 X8.716 Y6.962 Z-0.550 F2286.000 
G1 X8.427 Y7.129 Z-0.556 F2286.000 
G1 X8.716 Y6.962 Z-0.562 F2286.000 
G1 X8.427 Y6.795 Z-0.568 F2286.000 
G1 X8.427 Y7.129 Z-0.574 F2286.000 
G1 X8.427 Y6.795 Z-0.579 F2286.000 
G1 X8.716 Y6.962 Z-0.585 F2286.000 
G1 X8.427 Y7.129 Z-0.591 F2286.000 
G1 X8.716 Y6.962 Z-0.597 F2286.000 
G1 X8.427 Y6.795 Z-0.603 F2286.000 
G1 X8.427 Y7.129 Z-0.609 F2286.000 
G1 X8.427 Y6.795 Z-0.614 F2286.000 
G1 X8.716 Y6.962 Z-0.620 F2286.000 
G1 X8.427 Y7.129 Z-0.626 F2286.000 
G1 X8.716 Y6.962 Z-0.632 F2286.000 
G1 X8.427 Y6.795 Z-0.638 F2286.000 
G1 X8.427 Y7.129 Z-0.644 F2286.000 
G1 X8.427 Y6.795 Z-0.649 F2286.000 
G1 X8.716 Y6.962 Z-0.655 F2286.000 
G1 X8.427 Y7.129 Z-0.661 F2286.000 
G1 X8.716 Y6.962 Z-0.667 F2286.000 
G1 X8.427 Y6.795 Z-0.673 F2286.000 
G1 X8.427 Y7.129 Z-0.678 F2286.000 
G1 X8.427 Y6.795 Z-0.684 F2286.000 
G1 X8.716 Y6.962 Z-0.690 F2286.000 
G1 X8.427 Y7.129 Z-0.696 F2286.000 
G1 X8.716 Y6.962 Z-0.702 F2286.000 
G1 X8.427 Y6.795 Z-0.708 F2286.000 
G1 X8.427 Y7.129 Z-0.713 F2286.000 
G1 X8.427 Y6.795 Z-0.719 F2286.000 
G1 X8.716 Y6.962 Z-0.725 F2286.000 
G1 X8.427 Y7.129 Z-0.731 F2286.000 
G1 X8.716 Y6.962 Z-0.737 F2286.000 
G1 X8.427 Y6.795 Z-0.743 F2286.000 
G1 X8.427 Y7.129 Z-0.748 F2286.000 
G1 X8.427 Y6.795 Z-0.754 F2286.000 
G1 X8.716 Y6.962 Z-0.760 F2286.000 
G1 X8.427 Y7.129 Z-0.766 F2286.000 
G1 X8.716 Y6.962 Z-0.772 F2286.000 
G1 X8.427 Y6.795 Z-0.777 F2286.000 
G1 X8.427 Y7.129 Z-0.783 F2286.000 
G1 X8.427 Y6.795 Z-0.789 F2286.000 
G1 X8.716 Y6.962 Z-0.795 F2286.000 
G1 X8.427 Y7.129 Z-0.801 F2286.000 
G1 X8.716 Y6.962 Z-0.807 F2286.000 
G1 X8.427 Y6.795 Z-0.812 F2286.000 
G1 X8.427 Y7.129 Z-0.818 F2286.000 
G1 X8.427 Y6.795 Z-0.824 F2286.000 
G1 X8.716 Y6.962 Z-0.830 F2286.000 
G1 X8.427 Y7.129 Z-0.836 F2286.000 
G1 X8.716 Y6.962 Z-0.842 F2286.000 
G1 X8.427 Y6.795 Z-0.847 F2286.000 
G1 X8.427 Y7.129 Z-0.853 F2286.000 
G1 X8.427 Y6.795 Z-0.859 F2286.000 
G1 X8.716 Y6.962 Z-0.865 F2286.000 
G1 X8.427 Y7.129 Z-0.871 F2286.000 
G1 X8.716 Y6.962 Z-0.876 F2286.000 
G1 X8.427 Y6.795 Z-0.882 F2286.000 
G1 X8.427 Y7.129 Z-0.888 F2286.000 
G1 X8.427 Y6.795 Z-0.894 F2286.000 
G1 X8.716 Y6.962 Z-0.900 F2286.000 
G1 X8.427 Y7.129 Z-0.906 F2286.000 
G1 X8.716 Y6.962 Z-0.911 F2286.000 
G1 X8.427 Y6.795 Z-0.917 F2286.000 
G1 X8.427 Y7.129 Z-0.923 F2286.000 
G1 X8.427 Y6.795 Z-0.929 F2286.000 
G1 X8.716 Y6.962 Z-0.935 F2286.000 
G1 X8.427 Y7.129 Z-0.941 F2286.000 
G1 X8.716 Y6.962 Z-0.946 F2286.000 
G1 X8.427 Y6.795 Z-0.952 F2286.000 
G1 X8.427 Y7.129 Z-0.958 F2286.000 
G1 X8.427 Y6.795 Z-0.964 F2286.000 
G1 X8.716 Y6.962 Z-0.970 F2286.000 
G1 X8.427 Y7.129 Z-0.976 F2286.000 
G1 X8.716 Y6.962 Z-0.981 F2286.000 
G1 X8.427 Y6.795 Z-0.987 F2286.000 
G1 X8.427 Y7.129 Z-0.993 F2286.000 
G1 X8.427 Y6.795 Z-0.999 F2286.000 
G1 X8.716 Y6.962 Z-1.005 F2286.000 
G1 X8.427 Y7.129 Z-1.010 F2286.000 
G1 X8.716 Y6.962 Z-1.016 F2286.000 
G1 X8.427 Y6.795 Z-1.022 F2286.000 
G1 X8.427 Y7.129 Z-1.028 F2286.000 
G1 X8.427 Y6.795 Z-1.034 F2286.000 
G1 X8.716 Y6.962 Z-1.040 F2286.000 
G1 X8.427 Y7.129 Z-1.045 F2286.000 
G1 X8.716 Y6.962 Z-1.051 F2286.000 
G1 X8.427 Y6.795 Z-1.057 F2286.000 
G1 X8.427 Y7.129 Z-1.063 F2286.000 
G1 X8.427 Y6.795 Z-1.069 F2286.000 
G1 X8.716 Y6.962 Z-1.075 F2286.000 
G1 X8.427 Y7.129 Z-1.080 F2286.000 
G1 X8.716 Y6.962 Z-1.086 F2286.000 
G1 X8.427 Y6.795 Z-1.092 F2286.000 
G1 X8.427 Y7.129 Z-1.098 F2286.000 
G1 X8.427 Y6.795 Z-1.104 F2286.000 
G1 X8.716 Y6.962 Z-1.109 F2286.000 
G1 X8.427 Y7.129 Z-1.115 F2286.000 
G1 X8.716 Y6.962 Z-1.121 F2286.000 
G1 X8.427 Y6.795 Z-1.127 F2286.000 
G1 X8.427 Y7.129 Z-1.133 F2286.000 
G1 X8.427 Y6.795 Z-1.139 F2286.000 
G1 X8.716 Y6.962 Z-1.144 F2286.000 
G1 X8.427 Y7.129 Z-1.150 F2286.000 
G1 X8.716 Y6.962 Z-1.156 F2286.000 
G1 X8.427 Y6.795 Z-1.162 F2286.000 
G1 X8.427 Y7.129 Z-1.168 F2286.000 
G1 X8.427 Y6.795 Z-1.174 F2286.000 
G1 X8.716 Y6.962 Z-1.179 F2286.000 
G1 X8.427 Y7.129 Z-1.185 F2286.000 
G1 X8.716 Y6.962 Z-1.191 F2286.000 
G1 X8.427 Y6.795 Z-1.197 F2286.000 
G1 X8.427 Y7.129 Z-1.203 F2286.000 
G1 X8.427 Y6.795 Z-1.208 F2286.000 
G1 X8.716 Y6.962 Z-1.214 F2286.000 
G1 X8.427 Y7.129 Z-1.220 F2286.000 
G1 X8.716 Y6.962 Z-1.226 F2286.000 
G1 X8.427 Y6.795 Z-1.232 F2286.000 
G1 X8.427 Y7.129 Z-1.238 F2286.000 
G1 X8.427 Y6.795 Z-1.243 F2286.000 
G1 X8.716 Y6.962 Z-1.249 F2286.000 
G1 X8.427 Y7.129 Z-1.255 F2286.000 
G1 X8.716 Y6.962 Z-1.261 F2286.000 
G1 X8.427 Y6.795 Z-1.267 F2286.000 
G1 X8.427 Y7.129 Z-1.273 F2286.000 
G1 X8.427 Y6.795 Z-1.278 F2286.000 
G1 X8.716 Y6.962 Z-1.284 F2286.000 
G1 X8.427 Y7.129 Z-1.290 F2286.000 
G1 X8.716 Y6.962 Z-1.296 F2286.000 
G1 X8.427 Y6.795 Z-1.302 F2286.000 
G1 X8.427 Y7.129 Z-1.307 F2286.000 
G1 X8.427 Y6.795 Z-1.313 F2286.000 
G1 X8.716 Y6.962 Z-1.319 F2286.000 
G1 X8.427 Y7.129 Z-1.325 F2286.000 
G1 X8.716 Y6.962 Z-1.331 F2286.000 
G1 X8.427 Y6.795 Z-1.337 F2286.000 
G1 X8.427 Y7.129 Z-1.342 F2286.000 
G1 X8.427 Y6.795 Z-1.348 F2286.000 
G1 X8.716 Y6.962 Z-1.354 F2286.000 
G1 X8.427 Y7.129 Z-1.360 F2286.000 
G1 X8.716 Y6.962 Z-1.366 F2286.000 
G1 X8.427 Y6.795 Z-1.372 F2286.000 
G1 X8.427 Y7.129 Z-1.377 F2286.000 
G1 X8.427 Y6.795 Z-1.383 F2286.000 
G1 X8.716 Y6.962 Z-1.389 F2286.000 
G1 X8.427 Y7.129 Z-1.395 F2286.000 
G1 X8.716 Y6.962 Z-1.401 F2286.000 
G1 X8.427 Y6.795 Z-1.407 F2286.000 
G1 X8.427 Y7.129 Z-1.412 F2286.000 
G1 X8.427 Y6.795 Z-1.418 F2286.000 
G1 X8.716 Y6.962 Z-1.424 F2286.000 
G1 X8.427 Y7.129 Z-1.430 F2286.000 
G1 X8.716 Y6.962 Z-1.436 F2286.000 
G1 X8.427 Y6.795 Z-1.441 F2286.000 
G1 X8.427 Y7.129 Z-1.447 F2286.000 
G1 X8.427 Y6.795 Z-1.453 F2286.000 
G1 X8.716 Y6.962 Z-1.459 F2286.000 
G1 X8.427 Y7.129 Z-1.465 F2286.000 
G1 X8.716 Y6.962 Z-1.471 F2286.000 
G1 X8.427 Y6.795 Z-1.476 F2286.000 
G1 X8.427 Y7.129 Z-1.482 F2286.000 
G1 X8.427 Y6.795 Z-1.488 F2286.000 
G1 X8.716 Y6.962 Z-1.494 F2286.000 
G1 X8.427 Y7.129 Z-1.500 F2286.000 
G1 X8.716 Y6.962 Z-1.506 F2286.000 
G1 X8.427 Y6.795 Z-1.511 F2286.000 
G1 X8.427 Y7.129 Z-1.517 F2286.000 
G1 X8.427 Y6.795 Z-1.523 F2286.000 
G1 X8.716 Y6.962 Z-1.529 F2286.000 
G1 X8.427 Y7.129 Z-1.535 F2286.000 
G1 X8.716 Y6.962 Z-1.540 F2286.000 
G1 X8.427 Y6.795 Z-1.546 F2286.000 
G1 X8.427 Y7.129 Z-1.552 F2286.000 
G1 X8.427 Y6.795 Z-1.558 F2286.000 
G1 X8.716 Y6.962 Z-1.564 F2286.000 
G1 X8.427 Y7.129 Z-1.570 F2286.000 
G1 X8.716 Y6.962 Z-1.575 F2286.000 
G1 X8.427 Y6.795 Z-1.581 F2286.000 
G1 X8.427 Y7.129 Z-1.587 F2286.000 
G1 X8.427 Y6.795 Z-1.593 F2286.000 
G1 X8.716 Y6.962 Z-1.599 F2286.000 
G1 X8.427 Y7.129 Z-1.605 F2286.000 
G1 X8.716 Y6.962 Z-1.610 F2286.000 
G1 X8.427 Y6.795 Z-1.616 F2286.000 
G1 X8.427 Y7.129 Z-1.622 F2286.000 
G1 X8.427 Y6.795 Z-1.628 F2286.000 
G1 X8.716 Y6.962 Z-1.634 F2286.000 
G1 X8.427 Y7.129 Z-1.639 F2286.000 
G1 X8.716 Y6.962 Z-1.645 F2286.000 
G1 X8.427 Y6.795 Z-1.651 F2286.000 
G1 X8.427 Y7.129 Z-1.657 F2286.000 
G1 X8.427 Y6.795 Z-1.663 F2286.000 
G1 X8.681 Y6.942 Z-1.668 F2286.000 
G1 X8.427 Y6.795 Z-1.668 F2286.000 
G1 X8.427 Y7.129 Z-1.668 F2286.000 
G1 X8.427 Y6.795 Z-1.668 F2286.000 
G1 X8.716 Y6.962 Z-1.668 F2286.000 
G1 X8.427 Y7.129 Z-1.668 F2286.000 
G0 X8.427 Y7.129 Z5.000 
G0 X-8.427 Y6.795 Z5.000 
G0 X-8.427 Y6.795 Z3.000 
G1 X-8.427 Y6.795 Z0.300 F2286.000 
G1 X-8.427 Y7.129 Z0.294 F2286.000 
G1 X-8.716 Y6.962 Z0.288 F2286.000 
G1 X-8.427 Y6.795 Z0.283 F2286.000 
G1 X-8.716 Y6.962 Z0.277 F2286.000 
G1 X-8.427 Y7.129 Z0.271 F2286.000 
G1 X-8.427 Y6.795 Z0.265 F2286.000 
G1 X-8.427 Y7.129 Z0.259 F2286.000 
G1 X-8.716 Y6.962 Z0.253 F2286.000 
G1 X-8.427 Y6.795 Z0.248 F2286.000 
G1 X-8.716 Y6.962 Z0.242 F2286.000 
G1 X-8.427 Y7.129 Z0.236 F2286.000 
G1 X-8.427 Y6.795 Z0.230 F2286.000 
G1 X-8.427 Y7.129 Z0.224 F2286.000 
G1 X-8.716 Y6.962 Z0.218 F2286.000 
G1 X-8.427 Y6.795 Z0.213 F2286.000 
G1 X-8.716 Y6.962 Z0.207 F2286.000 
G1 X-8.427 Y7.129 Z0.201 F2286.000 
G1 X-8.427 Y6.795 Z0.195 F2286.000 
G1 X-8.427 Y7.129 Z0.189 F2286.000 
G1 X-8.716 Y6.962 Z0.184 F2286.000 
G1 X-8.427 Y6.795 Z0.178 F2286.000 
G1 X-8.716 Y6.962 Z0.172 F2286.000 
G1 X-8.427 Y7.129 Z0.166 F2286.000 
G1 X-8.427 Y6.795 Z0.160 F2286.000 
G1 X-8.427 Y7.129 Z0.154 F2286.000 
G1 X-8.716 Y6.962 Z0.149 F2286.000 
G1 X-8.427 Y6.795 Z0.143 F2286.000 
G1 X-8.716 Y6.962 Z0.137 F2286.000 
G1 X-8.427 Y7.129 Z0.131 F2286.000 
G1 X-8.427 Y6.795 Z0.125 F2286.000 
G1 X-8.427 Y7.129 Z0.119 F2286.000 
G1 X-8.716 Y6.962 Z0.114 F2286.000 
G1 X-8.427 Y6.795 Z0.108 F2286.000 
G1 X-8.716 Y6.962 Z0.102 F2286.000 
G1 X-8.427 Y7.129 Z0.096 F2286.000 
G1 X-8.427 Y6.795 Z0.090 F2286.000 
G1 X-8.427 Y7.129 Z0.085 F2286.000 
G1 X-8.716 Y6.962 Z0.079 F2286.000 
G1 X-8.427 Y6.795 Z0.073 F2286.000 
G1 X-8.716 Y6.962 Z0.067 F2286.000 
G1 X-8.427 Y7.129 Z0.061 F2286.000 
G1 X-8.427 Y6.795 Z0.055 F2286.000 
G1 X-8.427 Y7.129 Z0.050 F2286.000 
G1 X-8.716 Y6.962 Z0.044 F2286.000 
G1 X-8.427 Y6.795 Z0.038 F2286.000 
G1 X-8.716 Y6.962 Z0.032 F2286.000 
G1 X-8.427 Y7.129 Z0.026 F2286.000 
G1 X-8.427 Y6.795 Z0.020 F2286.000 
G1 X-8.427 Y7.129 Z0.015 F2286.000 
G1 X-8.716 Y6.962 Z0.009 F2286.000 
G1 X-8.427 Y6.795 Z0.003 F2286.000 
G1 X-8.716 Y6.962 Z-0.003 F2286.000 
G1 X-8.427 Y7.129 Z-0.009 F2286.000 
G1 X-8.427 Y6.795 Z-0.015 F2286.000 
G1 X-8.427 Y7.129 Z-0.020 F2286.000 
G1 X-8.716 Y6.962 Z-0.026 F2286.000 
G1 X-8.427 Y6.795 Z-0.032 F2286.000 
G1 X-8.716 Y6.962 Z-0.038 F2286.000 
G1 X-8.427 Y7.129 Z-0.044 F2286.000 
G1 X-8.427 Y6.795 Z-0.049 F2286.000 
G1 X-8.427 Y7.129 Z-0.055 F2286.000 
G1 X-8.716 Y6.962 Z-0.061 F2286.000 
G1 X-8.427 Y6.795 Z-0.067 F2286.000 
G1 X-8.716 Y6.962 Z-0.073 F2286.000 
G1 X-8.427 Y7.129 Z-0.079 F2286.000 
G1 X-8.427 Y6.795 Z-0.084 F2286.000 
G1 X-8.427 Y7.129 Z-0.090 F2286.000 
G1 X-8.716 Y6.962 Z-0.096 F2286.000 
G1 X-8.427 Y6.795 Z-0.102 F2286.000 
G1 X-8.716 Y6.962 Z-0.108 F2286.000 
G1 X-8.427 Y7.129 Z-0.114 F2286.000 
G1 X-8.427 Y6.795 Z-0.119 F2286.000 
G1 X-8.427 Y7.129 Z-0.125 F2286.000 
G1 X-8.716 Y6.962 Z-0.131 F2286.000 
G1 X-8.427 Y6.795 Z-0.137 F2286.000 
G1 X-8.716 Y6.962 Z-0.143 F2286.000 
G1 X-8.427 Y7.129 Z-0.148 F2286.000 
G1 X-8.427 Y6.795 Z-0.154 F2286.000 
G1 X-8.427 Y7.129 Z-0.160 F2286.000 
G1 X-8.716 Y6.962 Z-0.166 F2286.000 
G1 X-8.427 Y6.795 Z-0.172 F2286.000 
G1 X-8.716 Y6.962 Z-0.178 F2286.000 
G1 X-8.427 Y7.129 Z-0.183 F2286.000 
G1 X-8.427 Y6.795 Z-0.189 F2286.000 
G1 X-8.427 Y7.129 Z-0.195 F2286.000 
G1 X-8.716 Y6.962 Z-0.201 F2286.000 
G1 X-8.427 Y6.795 Z-0.207 F2286.000 
G1 X-8.716 Y6.962 Z-0.213 F2286.000 
G1 X-8.427 Y7.129 Z-0.218 F2286.000 
G1 X-8.427 Y6.795 Z-0.224 F2286.000 
G1 X-8.427 Y7.129 Z-0.230 F2286.000 
G1 X-8.716 Y6.962 Z-0.236 F2286.000 
G1 X-8.427 Y6.795 Z-0.242 F2286.000 
G1 X-8.716 Y6.962 Z-0.247 F2286.000 
G1 X-8.427 Y7.129 Z-0.253 F2286.000 
G1 X-8.427 Y6.795 Z-0.259 F2286.000 
G1 X-8.427 Y7.129 Z-0.265 F2286.000 
G1 X-8.716 Y6.962 Z-0.271 F2286.000 
G1 X-8.427 Y6.795 Z-0.277 F2286.000 
G1 X-8.716 Y6.962 Z-0.282 F2286.000 
G1 X-8.427 Y7.129 Z-0.288 F2286.000 
G1 X-8.427 Y6.795 Z-0.294 F2286.000 
G1 X-8.427 Y7.129 Z-0.300 F2286.000 
G1 X-8.716 Y6.962 Z-0.306 F2286.000 
G1 X-8.427 Y6.795 Z-0.312 F2286.000 
G1 X-8.716 Y6.962 Z-0.317 F2286.000 
G1 X-8.427 Y7.129 Z-0.323 F2286.000 
G1 X-8.427 Y6.795 Z-0.329 F2286.000 
G1 X-8.427 Y7.129 Z-0.335 F2286.000 
G1 X-8.716 Y6.962 Z-0.341 F2286.000 
G1 X-8.427 Y6.795 Z-0.346 F2286.000 
G1 X-8.716 Y6.962 Z-0.352 F2286.000 
G1 X-8.427 Y7.129 Z-0.358 F2286.000 
G1 X-8.427 Y6.795 Z-0.364 F2286.000 
G1 X-8.427 Y7.129 Z-0.370 F2286.000 
G1 X-8.716 Y6.962 Z-0.376 F2286.000 
G1 X-8.427 Y6.795 Z-0.381 F2286.000 
G1 X-8.716 Y6.962 Z-0.387 F2286.000 
G1 X-8.427 Y7.129 Z-0.393 F2286.000 
G1 X-8.427 Y6.795 Z-0.399 F2286.000 
G1 X-8.427 Y7.129 Z-0.405 F2286.000 
G1 X-8.716 Y6.962 Z-0.411 F2286.000 
G1 X-8.427 Y6.795 Z-0.416 F2286.000 
G1 X-8.716 Y6.962 Z-0.422 F2286.000 
G1 X-8.427 Y7.129 Z-0.428 F2286.000 
G1 X-8.427 Y6.795 Z-0.434 F2286.000 
G1 X-8.427 Y7.129 Z-0.440 F2286.000 
G1 X-8.716 Y6.962 Z-0.446 F2286.000 
G1 X-8.427 Y6.795 Z-0.451 F2286.000 
G1 X-8.716 Y6.962 Z-0.457 F2286.000 
G1 X-8.427 Y7.129 Z-0.463 F2286.000 
G1 X-8.427 Y6.795 Z-0.469 F2286.000 
G1 X-8.427 Y7.129 Z-0.475 F2286.000 
G1 X-8.716 Y6.962 Z-0.480 F2286.000 
G1 X-8.427 Y6.795 Z-0.486 F2286.000 
G1 X-8.716 Y6.962 Z-0.492 F2286.000 
G1 X-8.427 Y7.129 Z-0.498 F2286.000 
G1 X-8.427 Y6.795 Z-0.504 F2286.000 
G1 X-8.427 Y7.129 Z-0.510 F2286.000 
G1 X-8.716 Y6.962 Z-0.515 F2286.000 
G1 X-8.427 Y6.795 Z-0.521 F2286.000 
G1 X-8.716 Y6.962 Z-0.527 F2286.000 
G1 X-8.427 Y7.129 Z-0.533 F2286.000 
G1 X-8.427 Y6.795 Z-0.539 F2286.000 
G1 X-8.427 Y7.129 Z-0.545 F2286.000 
G1 X-8.716 Y6.962 Z-0.550 F2286.000 
G1 X-8.427 Y6.795 Z-0.556 F2286.000 
G1 X-8.716 Y6.962 Z-0.562 F2286.000 
G1 X-8.427 Y7.129 Z-0.568 F2286.000 
G1 X-8.427 Y6.795 Z-0.574 F2286.000 
G1 X-8.427 Y7.129 Z-0.579 F2286.000 
G1 X-8.716 Y6.962 Z-0.585 F2286.000 
G1 X-8.427 Y6.795 Z-0.591 F2286.000 
G1 X-8.716 Y6.962 Z-0.597 F2286.000 
G1 X-8.427 Y7.129 Z-0.603 F2286.000 
G1 X-8.427 Y6.795 Z-0.609 F2286.000 
G1 X-8.427 Y7.129 Z-0.614 F2286.000 
G1 X-8.716 Y6.962 Z-0.620 F2286.000 
G1 X-8.427 Y6.795 Z-0.626 F2286.000 
G1 X-8.716 Y6.962 Z-0.632 F2286.000 
G1 X-8.427 Y7.129 Z-0.638 F2286.000 
G1 X-8.427 Y6.795 Z-0.644 F2286.000 
G1 X-8.427 Y7.129 Z-0.649 F2286.000 
G1 X-8.716 Y6.962 Z-0.655 F2286.000 
G1 X-8.427 Y6.795 Z-0.661 F2286.000 
G1 X-8.716 Y6.962 Z-0.667 F2286.000 
G1 X-8.427 Y7.129 Z-0.673 F2286.000 
