(Exported by FreeCAD)
(Post Processor: linuxcnc_post)
(Output Time:2024-04-22 11:44:25.355709)
(begin preamble)
G17 G54 G40 G49 G80 G90
G21
(begin operation: Fixture)
(machine units: mm/min)
G54 
(finish operation: Fixture)
(begin operation: TC: 6mm_roughing_cut18mm)
(machine units: mm/min)
(TC: 6mm_roughing_cut18mm) 
M5
M6 T1 
G43 H1 
M3 S10000 
(finish operation: TC: 6mm_roughing_cut18mm)
(begin operation: Adaptive)
(machine units: mm/min)
(Adaptive) 
(Helix to depth: -0.000000) 
G0 Z5.000 
G0 X0.940 Y2.838 Z5.000 
G0 X0.940 Y2.838 Z3.000 
G1 X0.940 Y2.838 Z0.500 F381.000 
G1 X0.940 Y2.838 Z0.500 F381.000 
G1 X0.368 Y2.967 Z0.490 F381.000 
G1 X-0.217 Y2.982 Z0.479 F381.000 
G1 X-0.795 Y2.882 Z0.469 F381.000 
G1 X-1.342 Y2.672 Z0.459 F381.000 
G1 X-1.838 Y2.359 Z0.449 F381.000 
G1 X-2.262 Y1.955 Z0.438 F381.000 
G1 X-2.600 Y1.476 Z0.428 F381.000 
G1 X-2.838 Y0.940 Z0.418 F381.000 
G1 X-2.967 Y0.368 Z0.407 F381.000 
G1 X-2.982 Y-0.217 Z0.397 F381.000 
G1 X-2.882 Y-0.795 Z0.387 F381.000 
G1 X-2.672 Y-1.342 Z0.377 F381.000 
G1 X-2.359 Y-1.838 Z0.366 F381.000 
G1 X-1.955 Y-2.262 Z0.356 F381.000 
G1 X-1.476 Y-2.600 Z0.346 F381.000 
G1 X-0.940 Y-2.838 Z0.335 F381.000 
G1 X-0.368 Y-2.967 Z0.325 F381.000 
G1 X0.217 Y-2.982 Z0.315 F381.000 
G1 X0.795 Y-2.882 Z0.305 F381.000 
G1 X1.342 Y-2.672 Z0.294 F381.000 
G1 X1.838 Y-2.359 Z0.284 F381.000 
G1 X2.262 Y-1.955 Z0.274 F381.000 
G1 X2.600 Y-1.476 Z0.264 F381.000 
G1 X2.838 Y-0.940 Z0.253 F381.000 
G1 X2.967 Y-0.368 Z0.243 F381.000 
G1 X2.982 Y0.217 Z0.233 F381.000 
G1 X2.882 Y0.795 Z0.222 F381.000 
G1 X2.672 Y1.342 Z0.212 F381.000 
G1 X2.359 Y1.838 Z0.202 F381.000 
G1 X1.955 Y2.262 Z0.192 F381.000 
G1 X1.476 Y2.600 Z0.181 F381.000 
G1 X0.940 Y2.838 Z0.171 F381.000 
G1 X0.368 Y2.967 Z0.161 F381.000 
G1 X-0.217 Y2.982 Z0.150 F381.000 
G1 X-0.795 Y2.882 Z0.140 F381.000 
G1 X-1.342 Y2.672 Z0.130 F381.000 
G1 X-1.838 Y2.359 Z0.120 F381.000 
G1 X-2.262 Y1.955 Z0.109 F381.000 
G1 X-2.600 Y1.476 Z0.099 F381.000 
G1 X-2.838 Y0.940 Z0.089 F381.000 
G1 X-2.967 Y0.368 Z0.078 F381.000 
G1 X-2.982 Y-0.217 Z0.068 F381.000 
G1 X-2.882 Y-0.795 Z0.058 F381.000 
G1 X-2.672 Y-1.342 Z0.048 F381.000 
G1 X-2.359 Y-1.838 Z0.037 F381.000 
G1 X-1.955 Y-2.262 Z0.027 F381.000 
G1 X-1.476 Y-2.600 Z0.017 F381.000 
G1 X-0.940 Y-2.838 Z0.006 F381.000 
G1 X-0.368 Y-2.967 Z-0.000 F1524.000 
G1 X0.217 Y-2.982 Z-0.000 F1524.000 
G1 X0.795 Y-2.882 Z-0.000 F1524.000 
G1 X1.342 Y-2.672 Z-0.000 F1524.000 
G1 X1.838 Y-2.359 Z-0.000 F1524.000 
G1 X2.262 Y-1.955 Z-0.000 F1524.000 
G1 X2.600 Y-1.476 Z-0.000 F1524.000 
G1 X2.838 Y-0.940 Z-0.000 F1524.000 
G1 X2.967 Y-0.368 Z-0.000 F1524.000 
G1 X2.982 Y0.217 Z-0.000 F1524.000 
G1 X2.882 Y0.795 Z-0.000 F1524.000 
G1 X2.672 Y1.342 Z-0.000 F1524.000 
G1 X2.359 Y1.838 Z-0.000 F1524.000 
G1 X1.955 Y2.262 Z-0.000 F1524.000 
G1 X1.476 Y2.600 Z-0.000 F1524.000 
G1 X0.940 Y2.838 Z-0.000 F1524.000 
G1 X0.368 Y2.967 Z-0.000 F1524.000 
G1 X-0.217 Y2.982 Z-0.000 F1524.000 
G1 X-0.795 Y2.882 Z-0.000 F1524.000 
G1 X-1.342 Y2.672 Z-0.000 F1524.000 
G1 X-1.838 Y2.359 Z-0.000 F1524.000 
G1 X-2.262 Y1.955 Z-0.000 F1524.000 
G1 X-2.600 Y1.476 Z-0.000 F1524.000 
G1 X-2.838 Y0.940 Z-0.000 F1524.000 
G1 X-2.967 Y0.368 Z-0.000 F1524.000 
G1 X-2.982 Y-0.217 Z-0.000 F1524.000 
G1 X-2.882 Y-0.795 Z-0.000 F1524.000 
G1 X-2.672 Y-1.342 Z-0.000 F1524.000 
G1 X-2.359 Y-1.838 Z-0.000 F1524.000 
G1 X-1.955 Y-2.262 Z-0.000 F1524.000 
G1 X-1.476 Y-2.600 Z-0.000 F1524.000 
G1 X-0.940 Y-2.838 Z-0.000 F1524.000 
(Adaptive - depth: -0.000000) 
G1 X0.000 Y-3.000 F1524.000 
G1 X0.062 Y-3.062 F1524.000 
G1 X0.311 Y-3.147 F1524.000 
G1 X0.565 Y-3.181 F1524.000 
G1 X0.734 Y-3.175 F1524.000 
G1 X1.441 Y-3.040 F1524.000 
G1 X1.802 Y-2.876 F1524.000 
G1 X2.011 Y-2.746 F1524.000 
G1 X2.226 Y-2.588 F1524.000 
G1 X2.508 Y-2.333 F1524.000 
G1 X2.808 Y-1.977 F1524.000 
G1 X3.017 Y-1.655 F1524.000 
G1 X3.175 Y-1.345 F1524.000 
G1 X3.311 Y-0.977 F1524.000 
G1 X3.401 Y-0.588 F1524.000 
G1 X3.446 Y-0.209 F1524.000 
G1 X3.452 Y0.175 F1524.000 
G1 X3.418 Y0.559 F1524.000 
G1 X3.328 Y0.966 F1524.000 
G1 X3.203 Y1.339 F1524.000 
G1 X3.034 Y1.701 F1524.000 
G1 X2.808 Y2.040 F1524.000 
G1 X2.593 Y2.299 F1524.000 
G1 X2.328 Y2.565 F1524.000 
G1 X2.000 Y2.831 F1524.000 
G1 X1.633 Y3.062 F1524.000 
G1 X1.254 Y3.237 F1524.000 
G1 X0.904 Y3.356 F1524.000 
G1 X0.508 Y3.441 F1524.000 
G1 X0.119 Y3.469 F1524.000 
G1 X-0.215 Y3.463 F1524.000 
G1 X-0.616 Y3.412 F1524.000 
G1 X-1.034 Y3.316 F1524.000 
G1 X-1.441 Y3.158 F1524.000 
G1 X-1.768 Y2.994 F1524.000 
G1 X-2.107 Y2.774 F1524.000 
G1 X-2.412 Y2.514 F1524.000 
G1 X-2.672 Y2.220 F1524.000 
G1 X-2.870 Y1.955 F1524.000 
G1 X-3.079 Y1.605 F1524.000 
G1 X-3.243 Y1.215 F1524.000 
G1 X-3.356 Y0.853 F1524.000 
G1 X-3.429 Y0.458 F1524.000 
G1 X-3.458 Y0.056 F1524.000 
G1 X-3.441 Y-0.333 F1524.000 
G1 X-3.379 Y-0.723 F1524.000 
G1 X-3.282 Y-1.102 F1524.000 
G1 X-3.130 Y-1.503 F1524.000 
G1 X-2.932 Y-1.859 F1524.000 
G1 X-2.729 Y-2.153 F1524.000 
G1 X-2.463 Y-2.446 F1524.000 
G1 X-2.175 Y-2.701 F1524.000 
G1 X-1.864 Y-2.915 F1524.000 
G1 X-1.531 Y-3.107 F1524.000 
G1 X-1.136 Y-3.294 F1524.000 
G1 X-0.650 Y-3.492 F1524.000 
G1 X-0.028 Y-3.638 F1524.000 
G1 X0.395 Y-3.655 F1524.000 
G1 X1.113 Y-3.616 F1524.000 
G1 X1.768 Y-3.407 F1524.000 
G1 X2.011 Y-3.282 F1524.000 
G1 X2.497 Y-2.955 F1524.000 
G1 X2.893 Y-2.599 F1524.000 
G1 X3.203 Y-2.249 F1524.000 
G1 X3.441 Y-1.887 F1524.000 
G1 X3.593 Y-1.576 F1524.000 
G1 X3.723 Y-1.249 F1524.000 
G1 X3.842 Y-0.836 F1524.000 
G1 X3.921 Y-0.373 F1524.000 
G1 X3.955 Y0.062 F1524.000 
G1 X3.927 Y0.503 F1524.000 
G1 X3.870 Y0.870 F1524.000 
G1 X3.763 Y1.271 F1524.000 
G1 X3.610 Y1.644 F1524.000 
G1 X3.424 Y1.994 F1524.000 
G1 X3.203 Y2.333 F1524.000 
G1 X2.915 Y2.689 F1524.000 
G1 X2.593 Y3.006 F1524.000 
G1 X2.249 Y3.271 F1524.000 
G1 X1.910 Y3.486 F1524.000 
G1 X1.525 Y3.678 F1524.000 
G1 X1.124 Y3.825 F1524.000 
G1 X0.712 Y3.910 F1524.000 
G1 X0.350 Y3.949 F1524.000 
G1 X-0.040 Y3.972 F1524.000 
G1 X-0.554 Y3.932 F1524.000 
G1 X-0.994 Y3.859 F1524.000 
G1 X-1.424 Y3.729 F1524.000 
G1 X-1.774 Y3.571 F1524.000 
G1 X-2.085 Y3.390 F1524.000 
G1 X-2.412 Y3.164 F1524.000 
G1 X-2.785 Y2.842 F1524.000 
G1 X-3.102 Y2.486 F1524.000 
G1 X-3.328 Y2.169 F1524.000 
G1 X-3.520 Y1.836 F1524.000 
G1 X-3.689 Y1.458 F1524.000 
G1 X-3.825 Y1.028 F1524.000 
G1 X-3.910 Y0.621 F1524.000 
G1 X-3.949 Y0.198 F1524.000 
G1 X-3.955 Y-0.226 F1524.000 
G1 X-3.910 Y-0.684 F1524.000 
G1 X-3.808 Y-1.102 F1524.000 
G1 X-3.689 Y-1.452 F1524.000 
G1 X-3.520 Y-1.831 F1524.000 
G1 X-3.294 Y-2.215 F1524.000 
G1 X-3.023 Y-2.571 F1524.000 
G1 X-2.746 Y-2.870 F1524.000 
G1 X-2.418 Y-3.158 F1524.000 
G1 X-2.068 Y-3.407 F1524.000 
G1 X-1.701 Y-3.627 F1524.000 
G1 X-1.254 Y-3.842 F1524.000 
G1 X-0.768 Y-4.017 F1524.000 
G1 X-0.305 Y-4.119 F1524.000 
G1 X0.085 Y-4.175 F1524.000 
G1 X0.537 Y-4.186 F1524.000 
G1 X0.972 Y-4.153 F1524.000 
G1 X1.390 Y-4.062 F1524.000 
G1 X1.746 Y-3.949 F1524.000 
G1 X2.119 Y-3.780 F1524.000 
G1 X2.469 Y-3.582 F1524.000 
G1 X2.853 Y-3.322 F1524.000 
G1 X3.215 Y-3.006 F1524.000 
G1 X3.514 Y-2.672 F1524.000 
G1 X3.740 Y-2.350 F1524.000 
G1 X3.932 Y-2.028 F1524.000 
G1 X4.130 Y-1.616 F1524.000 
G1 X4.288 Y-1.153 F1524.000 
G1 X4.390 Y-0.729 F1524.000 
G1 X4.452 Y-0.271 F1524.000 
G1 X4.469 Y0.181 F1524.000 
G1 X4.441 Y0.627 F1524.000 
G1 X4.356 Y1.073 F1524.000 
G1 X4.249 Y1.446 F1524.000 
G1 X4.090 Y1.842 F1524.000 
G1 X3.881 Y2.249 F1524.000 
G1 X3.621 Y2.644 F1524.000 
G1 X3.339 Y3.000 F1524.000 
G1 X3.017 Y3.333 F1524.000 
G1 X2.667 Y3.633 F1524.000 
G1 X2.288 Y3.893 F1524.000 
G1 X1.876 Y4.107 F1524.000 
G1 X1.503 Y4.249 F1524.000 
G1 X1.119 Y4.356 F1524.000 
G1 X0.712 Y4.435 F1524.000 
G1 X0.220 Y4.486 F1524.000 
G1 X-0.305 Y4.486 F1524.000 
G1 X-0.774 Y4.446 F1524.000 
G1 X-1.254 Y4.339 F1524.000 
G1 X-1.627 Y4.220 F1524.000 
G1 X-2.034 Y4.045 F1524.000 
G1 X-2.412 Y3.825 F1524.000 
G1 X-2.757 Y3.582 F1524.000 
G1 X-3.085 Y3.294 F1524.000 
G1 X-3.384 Y2.977 F1524.000 
G1 X-3.672 Y2.599 F1524.000 
G1 X-3.910 Y2.220 F1524.000 
G1 X-4.113 Y1.814 F1524.000 
G1 X-4.271 Y1.384 F1524.000 
G1 X-4.390 Y0.944 F1524.000 
G1 X-4.463 Y0.497 F1524.000 
G1 X-4.492 Y0.045 F1524.000 
G1 X-4.475 Y-0.401 F1524.000 
G1 X-4.412 Y-0.847 F1524.000 
G1 X-4.305 Y-1.282 F1524.000 
G1 X-4.158 Y-1.706 F1524.000 
G1 X-3.966 Y-2.113 F1524.000 
G1 X-3.734 Y-2.503 F1524.000 
G1 X-3.469 Y-2.864 F1524.000 
G1 X-3.169 Y-3.198 F1524.000 
G1 X-2.836 Y-3.503 F1524.000 
G1 X-2.480 Y-3.780 F1524.000 
G1 X-2.045 Y-4.062 F1524.000 
G1 X-1.576 Y-4.305 F1524.000 
G1 X-1.107 Y-4.480 F1524.000 
G1 X-0.706 Y-4.599 F1524.000 
G1 X-0.237 Y-4.684 F1524.000 
G1 X0.215 Y-4.718 F1524.000 
G1 X0.655 Y-4.712 F1524.000 
G1 X1.107 Y-4.655 F1524.000 
G1 X1.554 Y-4.554 F1524.000 
G1 X1.983 Y-4.412 F1524.000 
G1 X2.401 Y-4.226 F1524.000 
G1 X2.797 Y-4.000 F1524.000 
G1 X3.169 Y-3.734 F1524.000 
G1 X3.514 Y-3.435 F1524.000 
G1 X3.831 Y-3.102 F1524.000 
G1 X4.113 Y-2.740 F1524.000 
G1 X4.356 Y-2.350 F1524.000 
G1 X4.571 Y-1.944 F1524.000 
G1 X4.751 Y-1.486 F1524.000 
G1 X4.881 Y-1.034 F1524.000 
G1 X4.972 Y-0.565 F1524.000 
G1 X5.017 Y-0.090 F1524.000 
G1 X5.017 Y0.379 F1524.000 
G1 X4.972 Y0.847 F1524.000 
G1 X4.864 Y1.305 F1524.000 
G1 X4.746 Y1.672 F1524.000 
G1 X4.582 Y2.079 F1524.000 
G1 X4.339 Y2.554 F1524.000 
G1 X4.051 Y3.011 F1524.000 
G1 X3.734 Y3.401 F1524.000 
G1 X3.429 Y3.723 F1524.000 
G1 X3.056 Y4.045 F1524.000 
G1 X2.661 Y4.311 F1524.000 
G1 X2.299 Y4.514 F1524.000 
G1 X1.876 Y4.695 F1524.000 
G1 X1.452 Y4.842 F1524.000 
G1 X0.944 Y4.960 F1524.000 
G1 X0.469 Y5.023 F1524.000 
G1 X-0.006 Y5.051 F1524.000 
G1 X-0.537 Y5.028 F1524.000 
G1 X-1.028 Y4.966 F1524.000 
G1 X-1.514 Y4.842 F1524.000 
G1 X-1.898 Y4.706 F1524.000 
G1 X-2.316 Y4.508 F1524.000 
G1 X-2.712 Y4.277 F1524.000 
G1 X-3.107 Y3.989 F1524.000 
G1 X-3.458 Y3.678 F1524.000 
G1 X-3.780 Y3.339 F1524.000 
G1 X-4.073 Y2.966 F1524.000 
G1 X-4.333 Y2.571 F1524.000 
G1 X-4.571 Y2.113 F1524.000 
G1 X-4.757 Y1.661 F1524.000 
G1 X-4.904 Y1.192 F1524.000 
G1 X-5.000 Y0.701 F1524.000 
G1 X-5.045 Y0.266 F1524.000 
G1 X-5.051 Y-0.203 F1524.000 
G1 X-5.006 Y-0.667 F1524.000 
G1 X-4.921 Y-1.113 F1524.000 
G1 X-4.797 Y-1.565 F1524.000 
G1 X-4.616 Y-2.040 F1524.000 
G1 X-4.401 Y-2.469 F1524.000 
G1 X-4.147 Y-2.881 F1524.000 
G1 X-3.853 Y-3.271 F1524.000 
G1 X-3.525 Y-3.633 F1524.000 
G1 X-3.169 Y-3.960 F1524.000 
G1 X-2.785 Y-4.260 F1524.000 
G1 X-2.333 Y-4.548 F1524.000 
G1 X-1.887 Y-4.780 F1524.000 
G1 X-1.418 Y-4.977 F1524.000 
G1 X-0.927 Y-5.136 F1524.000 
G1 X-0.424 Y-5.232 F1524.000 
G1 X0.011 Y-5.282 F1524.000 
G1 X0.492 Y-5.294 F1524.000 
G1 X0.966 Y-5.254 F1524.000 
G1 X1.424 Y-5.175 F1524.000 
G1 X1.887 Y-5.045 F1524.000 
G1 X2.328 Y-4.876 F1524.000 
G1 X2.751 Y-4.667 F1524.000 
G1 X3.158 Y-4.424 F1524.000 
G1 X3.582 Y-4.113 F1524.000 
G1 X3.949 Y-3.785 F1524.000 
G1 X4.294 Y-3.424 F1524.000 
G1 X4.605 Y-3.028 F1524.000 
G1 X4.876 Y-2.610 F1524.000 
G1 X5.107 Y-2.169 F1524.000 
G1 X5.294 Y-1.701 F1524.000 
G1 X5.424 Y-1.277 F1524.000 
G1 X5.520 Y-0.802 F1524.000 
G1 X5.576 Y-0.333 F1524.000 
G1 X5.588 Y0.186 F1524.000 
G1 X5.554 Y0.672 F1524.000 
G1 X5.475 Y1.153 F1524.000 
G1 X5.350 Y1.638 F1524.000 
G1 X5.186 Y2.107 F1524.000 
G1 X4.983 Y2.559 F1524.000 
G1 X4.718 Y3.028 F1524.000 
G1 X4.429 Y3.446 F1524.000 
G1 X4.107 Y3.847 F1524.000 
G1 X3.740 Y4.226 F1524.000 
G1 X3.333 Y4.554 F1524.000 
G1 X2.972 Y4.791 F1524.000 
G1 X2.593 Y5.006 F1524.000 
G1 X2.130 Y5.215 F1524.000 
G1 X1.627 Y5.384 F1524.000 
G1 X1.153 Y5.503 F1524.000 
G1 X0.650 Y5.582 F1524.000 
G1 X0.141 Y5.627 F1524.000 
G1 X-0.435 Y5.621 F1524.000 
G1 X-0.960 Y5.571 F1524.000 
G1 X-1.480 Y5.458 F1524.000 
G1 X-1.881 Y5.333 F1524.000 
G1 X-2.333 Y5.147 F1524.000 
G1 X-2.757 Y4.921 F1524.000 
G1 X-3.147 Y4.672 F1524.000 
G1 X-3.565 Y4.345 F1524.000 
G1 X-3.932 Y4.017 F1524.000 
G1 X-4.322 Y3.599 F1524.000 
G1 X-4.644 Y3.175 F1524.000 
G1 X-4.893 Y2.757 F1524.000 
G1 X-5.085 Y2.384 F1524.000 
G1 X-5.294 Y1.881 F1524.000 
G1 X-5.458 Y1.339 F1524.000 
G1 X-5.565 Y0.847 F1524.000 
G1 X-5.621 Y0.311 F1524.000 
G1 X-5.633 Y-0.130 F1524.000 
G1 X-5.599 Y-0.616 F1524.000 
G1 X-5.525 Y-1.102 F1524.000 
G1 X-5.395 Y-1.610 F1524.000 
G1 X-5.232 Y-2.085 F1524.000 
G1 X-5.028 Y-2.542 F1524.000 
G1 X-4.780 Y-2.983 F1524.000 
G1 X-4.497 Y-3.395 F1524.000 
G1 X-4.175 Y-3.785 F1524.000 
G1 X-3.825 Y-4.153 F1524.000 
G1 X-3.401 Y-4.537 F1524.000 
G1 X-2.938 Y-4.881 F1524.000 
G1 X-2.469 Y-5.164 F1524.000 
G1 X-2.056 Y-5.373 F1524.000 
G1 X-1.565 Y-5.565 F1524.000 
G1 X-1.068 Y-5.706 F1524.000 
G1 X-0.576 Y-5.802 F1524.000 
G1 X-0.062 Y-5.859 F1524.000 
G1 X0.441 Y-5.870 F1524.000 
G1 X0.944 Y-5.836 F1524.000 
G1 X1.441 Y-5.757 F1524.000 
G1 X1.932 Y-5.633 F1524.000 
G1 X2.412 Y-5.469 F1524.000 
G1 X2.876 Y-5.260 F1524.000 
G1 X3.316 Y-5.011 F1524.000 
G1 X3.740 Y-4.729 F1524.000 
G1 X4.175 Y-4.379 F1524.000 
G1 X4.554 Y-4.017 F1524.000 
G1 X4.904 Y-3.616 F1524.000 
G1 X5.198 Y-3.215 F1524.000 
G1 X5.463 Y-2.774 F1524.000 
G1 X5.689 Y-2.311 F1524.000 
G1 X5.870 Y-1.836 F1524.000 
G1 X6.011 Y-1.339 F1524.000 
G1 X6.107 Y-0.836 F1524.000 
G1 X6.158 Y-0.328 F1524.000 
G1 X6.164 Y0.175 F1524.000 
G1 X6.130 Y0.678 F1524.000 
G1 X6.056 Y1.181 F1524.000 
G1 X5.932 Y1.740 F1524.000 
G1 X5.757 Y2.299 F1524.000 
G1 X5.531 Y2.808 F1524.000 
G1 X5.316 Y3.209 F1524.000 
G1 X5.028 Y3.650 F1524.000 
G1 X4.718 Y4.051 F1524.000 
G1 X4.350 Y4.446 F1524.000 
G1 X3.960 Y4.797 F1524.000 
G1 X3.542 Y5.119 F1524.000 
G1 X3.096 Y5.407 F1524.000 
G1 X2.627 Y5.650 F1524.000 
G1 X2.141 Y5.853 F1524.000 
G1 X1.633 Y6.017 F1524.000 
G1 X1.119 Y6.136 F1524.000 
G1 X0.599 Y6.209 F1524.000 
G1 X0.073 Y6.237 F1524.000 
G1 X-0.446 Y6.226 F1524.000 
G1 X-0.966 Y6.169 F1524.000 
G1 X-1.480 Y6.068 F1524.000 
G1 X-1.983 Y5.921 F1524.000 
G1 X-2.469 Y5.734 F1524.000 
G1 X-2.938 Y5.503 F1524.000 
G1 X-3.390 Y5.232 F1524.000 
G1 X-3.814 Y4.927 F1524.000 
G1 X-4.209 Y4.582 F1524.000 
G1 X-4.576 Y4.209 F1524.000 
G1 X-4.910 Y3.802 F1524.000 
G1 X-5.209 Y3.367 F1524.000 
G1 X-5.480 Y2.915 F1524.000 
G1 X-5.734 Y2.384 F1524.000 
G1 X-5.932 Y1.870 F1524.000 
G1 X-6.073 Y1.333 F1524.000 
G1 X-6.158 Y0.870 F1524.000 
G1 X-6.209 Y0.350 F1524.000 
G1 X-6.220 Y-0.153 F1524.000 
G1 X-6.181 Y-0.712 F1524.000 
G1 X-6.102 Y-1.232 F1524.000 
G1 X-5.977 Y-1.751 F1524.000 
G1 X-5.808 Y-2.266 F1524.000 
G1 X-5.599 Y-2.757 F1524.000 
G1 X-5.339 Y-3.226 F1524.000 
G1 X-5.068 Y-3.638 F1524.000 
G1 X-4.751 Y-4.051 F1524.000 
G1 X-4.373 Y-4.469 F1524.000 
G1 X-3.938 Y-4.876 F1524.000 
G1 X-3.503 Y-5.226 F1524.000 
G1 X-3.028 Y-5.554 F1524.000 
G1 X-2.520 Y-5.831 F1524.000 
G1 X-2.056 Y-6.023 F1524.000 
G1 X-1.633 Y-6.169 F1524.000 
G1 X-1.102 Y-6.311 F1524.000 
G1 X-0.497 Y-6.418 F1524.000 
G1 X0.096 Y-6.463 F1524.000 
G1 X0.576 Y-6.469 F1524.000 
G1 X1.130 Y-6.424 F1524.000 
G1 X1.661 Y-6.333 F1524.000 
G1 X2.169 Y-6.203 F1524.000 
G1 X2.678 Y-6.028 F1524.000 
G1 X3.169 Y-5.808 F1524.000 
G1 X3.638 Y-5.548 F1524.000 
G1 X4.085 Y-5.254 F1524.000 
G1 X4.503 Y-4.921 F1524.000 
G1 X4.893 Y-4.554 F1524.000 
G1 X5.254 Y-4.153 F1524.000 
G1 X5.576 Y-3.723 F1524.000 
G1 X5.864 Y-3.271 F1524.000 
G1 X6.119 Y-2.797 F1524.000 
G1 X6.356 Y-2.249 F1524.000 
G1 X6.537 Y-1.723 F1524.000 
G1 X6.667 Y-1.175 F1524.000 
G1 X6.746 Y-0.678 F1524.000 
G1 X6.785 Y-0.141 F1524.000 
G1 X6.774 Y0.384 F1524.000 
G1 X6.723 Y0.904 F1524.000 
G1 X6.638 Y1.424 F1524.000 
G1 X6.492 Y2.023 F1524.000 
G1 X6.299 Y2.605 F1524.000 
G1 X6.062 Y3.136 F1524.000 
G1 X5.825 Y3.576 F1524.000 
G1 X5.520 Y4.051 F1524.000 
G1 X5.181 Y4.480 F1524.000 
G1 X4.819 Y4.876 F1524.000 
G1 X4.418 Y5.249 F1524.000 
G1 X3.989 Y5.582 F1524.000 
G1 X3.537 Y5.881 F1524.000 
G1 X3.062 Y6.141 F1524.000 
G1 X2.565 Y6.362 F1524.000 
G1 X2.051 Y6.542 F1524.000 
G1 X1.525 Y6.678 F1524.000 
G1 X0.989 Y6.780 F1524.000 
G1 X0.367 Y6.842 F1524.000 
G1 X-0.192 Y6.859 F1524.000 
G1 X-0.763 Y6.831 F1524.000 
G1 X-1.339 Y6.740 F1524.000 
G1 X-1.808 Y6.633 F1524.000 
G1 X-2.328 Y6.463 F1524.000 
G1 X-2.819 Y6.254 F1524.000 
G1 X-3.282 Y6.023 F1524.000 
G1 X-3.791 Y5.706 F1524.000 
G1 X-4.237 Y5.379 F1524.000 
G1 X-4.655 Y5.017 F1524.000 
G1 X-5.056 Y4.610 F1524.000 
G1 X-5.418 Y4.181 F1524.000 
G1 X-5.740 Y3.723 F1524.000 
G1 X-6.028 Y3.237 F1524.000 
G1 X-6.277 Y2.734 F1524.000 
G1 X-6.469 Y2.209 F1524.000 
G1 X-6.599 Y1.757 F1524.000 
G1 X-6.718 Y1.243 F1524.000 
G1 X-6.808 Y0.599 F1524.000 
G1 X-6.847 Y-0.034 F1524.000 
G1 X-6.819 Y-0.627 F1524.000 
G1 X-6.768 Y-1.096 F1524.000 
G1 X-6.661 Y-1.644 F1524.000 
G1 X-6.508 Y-2.158 F1524.000 
G1 X-6.322 Y-2.644 F1524.000 
G1 X-6.096 Y-3.136 F1524.000 
G1 X-5.791 Y-3.661 F1524.000 
G1 X-5.480 Y-4.119 F1524.000 
G1 X-5.124 Y-4.559 F1524.000 
G1 X-4.734 Y-4.983 F1524.000 
G1 X-4.266 Y-5.418 F1524.000 
G1 X-3.802 Y-5.791 F1524.000 
G1 X-3.294 Y-6.107 F1524.000 
G1 X-2.893 Y-6.322 F1524.000 
G1 X-2.395 Y-6.548 F1524.000 
G1 X-1.819 Y-6.757 F1524.000 
G1 X-1.198 Y-6.932 F1524.000 
G1 X-0.610 Y-7.028 F1524.000 
G1 X-0.130 Y-7.079 F1524.000 
G1 X0.429 Y-7.096 F1524.000 
G1 X1.023 Y-7.068 F1524.000 
G1 X1.621 Y-6.989 F1524.000 
G1 X2.192 Y-6.859 F1524.000 
G1 X2.672 Y-6.695 F1524.000 
G1 X3.102 Y-6.520 F1524.000 
G1 X3.621 Y-6.266 F1524.000 
G1 X4.169 Y-5.944 F1524.000 
G1 X4.684 Y-5.588 F1524.000 
G1 X5.147 Y-5.181 F1524.000 
G1 X5.492 Y-4.842 F1524.000 
G1 X5.859 Y-4.412 F1524.000 
G1 X6.175 Y-3.966 F1524.000 
G1 X6.458 Y-3.514 F1524.000 
G1 X6.734 Y-2.966 F1524.000 
G1 X6.944 Y-2.446 F1524.000 
G1 X7.119 Y-1.910 F1524.000 
G1 X7.260 Y-1.350 F1524.000 
G1 X7.367 Y-0.712 F1524.000 
G1 X7.407 Y-0.119 F1524.000 
G1 X7.407 Y0.384 F1524.000 
G1 X7.362 Y0.955 F1524.000 
G1 X7.271 Y1.497 F1524.000 
G1 X7.153 Y2.023 F1524.000 
G1 X6.966 Y2.633 F1524.000 
G1 X6.729 Y3.232 F1524.000 
G1 X6.458 Y3.768 F1524.000 
G1 X6.169 Y4.215 F1524.000 
G1 X5.898 Y4.593 F1524.000 
G1 X5.503 Y5.062 F1524.000 
G1 X5.068 Y5.503 F1524.000 
G1 X4.605 Y5.915 F1524.000 
G1 X4.102 Y6.271 F1524.000 
G1 X3.667 Y6.542 F1524.000 
G1 X3.153 Y6.808 F1524.000 
G1 X2.627 Y7.023 F1524.000 
G1 X2.102 Y7.192 F1524.000 
G1 X1.548 Y7.322 F1524.000 
G1 X0.994 Y7.418 F1524.000 
G1 X0.350 Y7.475 F1524.000 
G1 X-0.232 Y7.492 F1524.000 
G1 X-0.887 Y7.441 F1524.000 
G1 X-1.390 Y7.367 F1524.000 
G1 X-1.955 Y7.237 F1524.000 
G1 X-2.503 Y7.062 F1524.000 
G1 X-3.017 Y6.853 F1524.000 
G1 X-3.525 Y6.599 F1524.000 
G1 X-4.011 Y6.316 F1524.000 
G1 X-4.531 Y5.955 F1524.000 
G1 X-4.983 Y5.582 F1524.000 
G1 X-5.412 Y5.175 F1524.000 
G1 X-5.808 Y4.718 F1524.000 
G1 X-6.130 Y4.288 F1524.000 
G1 X-6.441 Y3.802 F1524.000 
G1 X-6.706 Y3.294 F1524.000 
G1 X-6.927 Y2.780 F1524.000 
G1 X-7.113 Y2.237 F1524.000 
G1 X-7.260 Y1.689 F1524.000 
G1 X-7.390 Y1.056 F1524.000 
G1 X-7.469 Y0.395 F1524.000 
G1 X-7.486 Y-0.220 F1524.000 
G1 X-7.458 Y-0.734 F1524.000 
G1 X-7.390 Y-1.243 F1524.000 
G1 X-7.277 Y-1.780 F1524.000 
G1 X-7.113 Y-2.350 F1524.000 
G1 X-6.893 Y-2.927 F1524.000 
G1 X-6.644 Y-3.458 F1524.000 
G1 X-6.350 Y-3.977 F1524.000 
G1 X-6.017 Y-4.475 F1524.000 
G1 X-5.655 Y-4.944 F1524.000 
G1 X-5.254 Y-5.390 F1524.000 
G1 X-4.819 Y-5.802 F1524.000 
G1 X-4.356 Y-6.181 F1524.000 
G1 X-3.864 Y-6.525 F1524.000 
G1 X-3.350 Y-6.831 F1524.000 
G1 X-2.814 Y-7.096 F1524.000 
G1 X-2.254 Y-7.311 F1524.000 
G1 X-1.757 Y-7.463 F1524.000 
G1 X-1.198 Y-7.593 F1524.000 
G1 X-0.565 Y-7.684 F1524.000 
G1 X0.000 Y-7.723 F1524.000 
G1 X0.588 Y-7.729 F1524.000 
G1 X1.249 Y-7.678 F1524.000 
G1 X1.847 Y-7.593 F1524.000 
G1 X2.446 Y-7.446 F1524.000 
G1 X2.938 Y-7.288 F1524.000 
G1 X3.469 Y-7.068 F1524.000 
G1 X3.977 Y-6.808 F1524.000 
G1 X4.452 Y-6.525 F1524.000 
G1 X4.972 Y-6.153 F1524.000 
G1 X5.424 Y-5.774 F1524.000 
G1 X5.847 Y-5.367 F1524.000 
G1 X6.249 Y-4.915 F1524.000 
G1 X6.610 Y-4.441 F1524.000 
G1 X6.932 Y-3.944 F1524.000 
G1 X7.220 Y-3.418 F1524.000 
G1 X7.463 Y-2.876 F1524.000 
G1 X7.667 Y-2.316 F1524.000 
G1 X7.825 Y-1.746 F1524.000 
G1 X7.944 Y-1.164 F1524.000 
G1 X8.017 Y-0.571 F1524.000 
G1 X8.045 Y0.017 F1524.000 
G1 X8.028 Y0.605 F1524.000 
G1 X7.966 Y1.192 F1524.000 
G1 X7.870 Y1.774 F1524.000 
G1 X7.706 Y2.435 F1524.000 
G1 X7.514 Y3.023 F1524.000 
G1 X7.266 Y3.605 F1524.000 
G1 X7.023 Y4.073 F1524.000 
G1 X6.712 Y4.576 F1524.000 
G1 X6.367 Y5.045 F1524.000 
G1 X6.000 Y5.475 F1524.000 
G1 X5.593 Y5.893 F1524.000 
G1 X5.119 Y6.322 F1524.000 
G1 X4.582 Y6.734 F1524.000 
G1 X4.051 Y7.068 F1524.000 
G1 X3.571 Y7.311 F1524.000 
G1 X3.119 Y7.508 F1524.000 
G1 X2.542 Y7.718 F1524.000 
G1 X1.893 Y7.904 F1524.000 
G1 X1.203 Y8.051 F1524.000 
G1 X0.542 Y8.124 F1524.000 
G1 X0.011 Y8.136 F1524.000 
G1 X-0.486 Y8.119 F1524.000 
G1 X-1.102 Y8.062 F1524.000 
G1 X-1.797 Y7.932 F1524.000 
G1 X-2.373 Y7.780 F1524.000 
G1 X-2.915 Y7.599 F1524.000 
G1 X-3.486 Y7.356 F1524.000 
G1 X-4.017 Y7.079 F1524.000 
G1 X-4.525 Y6.763 F1524.000 
G1 X-5.011 Y6.407 F1524.000 
G1 X-5.469 Y6.017 F1524.000 
G1 X-5.898 Y5.593 F1524.000 
G1 X-6.294 Y5.136 F1524.000 
G1 X-6.655 Y4.650 F1524.000 
G1 X-6.983 Y4.141 F1524.000 
G1 X-7.271 Y3.610 F1524.000 
G1 X-7.520 Y3.056 F1524.000 
G1 X-7.723 Y2.486 F1524.000 
G1 X-7.887 Y1.904 F1524.000 
G1 X-8.017 Y1.311 F1524.000 
G1 X-8.107 Y0.650 F1524.000 
G1 X-8.147 Y0.028 F1524.000 
G1 X-8.119 Y-0.593 F1524.000 
G1 X-8.068 Y-1.085 F1524.000 
G1 X-7.966 Y-1.650 F1524.000 
G1 X-7.814 Y-2.249 F1524.000 
G1 X-7.610 Y-2.864 F1524.000 
G1 X-7.373 Y-3.429 F1524.000 
G1 X-7.090 Y-3.989 F1524.000 
G1 X-6.768 Y-4.531 F1524.000 
G1 X-6.412 Y-5.045 F1524.000 
G1 X-6.017 Y-5.531 F1524.000 
G1 X-5.588 Y-5.989 F1524.000 
G1 X-5.130 Y-6.418 F1524.000 
G1 X-4.638 Y-6.814 F1524.000 
G1 X-4.107 Y-7.153 F1524.000 
G1 X-3.661 Y-7.401 F1524.000 
G1 X-3.136 Y-7.655 F1524.000 
G1 X-2.514 Y-7.904 F1524.000 
G1 X-1.847 Y-8.113 F1524.000 
G1 X-1.215 Y-8.254 F1524.000 
G1 X-0.667 Y-8.333 F1524.000 
G1 X-0.107 Y-8.373 F1524.000 
G1 X0.469 Y-8.384 F1524.000 
G1 X1.186 Y-8.350 F1524.000 
G1 X1.893 Y-8.249 F1524.000 
G1 X2.463 Y-8.119 F1524.000 
G1 X2.977 Y-7.966 F1524.000 
G1 X3.537 Y-7.746 F1524.000 
G1 X4.056 Y-7.492 F1524.000 
G1 X4.554 Y-7.215 F1524.000 
G1 X5.130 Y-6.842 F1524.000 
G1 X5.678 Y-6.424 F1524.000 
G1 X6.158 Y-5.994 F1524.000 
G1 X6.548 Y-5.582 F1524.000 
G1 X6.904 Y-5.147 F1524.000 
G1 X7.249 Y-4.667 F1524.000 
G1 X7.588 Y-4.102 F1524.000 
G1 X7.859 Y-3.565 F1524.000 
G1 X8.102 Y-2.994 F1524.000 
G1 X8.311 Y-2.407 F1524.000 
G1 X8.492 Y-1.734 F1524.000 
G1 X8.616 Y-1.102 F1524.000 
G1 X8.672 Y-0.452 F1524.000 
G1 X8.689 Y0.045 F1524.000 
G1 X8.678 Y0.633 F1524.000 
G1 X8.616 Y1.322 F1524.000 
G1 X8.497 Y2.028 F1524.000 
G1 X8.333 Y2.667 F1524.000 
G1 X8.158 Y3.220 F1524.000 
G1 X7.915 Y3.819 F1524.000 
G1 X7.616 Y4.367 F1524.000 
G1 X7.362 Y4.780 F1524.000 
G1 X7.028 Y5.249 F1524.000 
G1 X6.605 Y5.774 F1524.000 
G1 X6.113 Y6.299 F1524.000 
G1 X5.638 Y6.751 F1524.000 
G1 X5.102 Y7.175 F1524.000 
G1 X4.627 Y7.486 F1524.000 
G1 X4.164 Y7.746 F1524.000 
G1 X3.633 Y8.000 F1524.000 
G1 X3.011 Y8.249 F1524.000 
G1 X2.345 Y8.463 F1524.000 
G1 X1.712 Y8.621 F1524.000 
G1 X1.045 Y8.723 F1524.000 
G1 X0.508 Y8.768 F1524.000 
G1 X-0.096 Y8.785 F1524.000 
G1 X-0.785 Y8.757 F1524.000 
G1 X-1.458 Y8.684 F1524.000 
G1 X-2.102 Y8.548 F1524.000 
G1 X-2.633 Y8.401 F1524.000 
G1 X-3.215 Y8.192 F1524.000 
G1 X-3.768 Y7.944 F1524.000 
G1 X-4.294 Y7.672 F1524.000 
G1 X-4.881 Y7.305 F1524.000 
G1 X-5.390 Y6.938 F1524.000 
G1 X-5.881 Y6.531 F1524.000 
G1 X-6.350 Y6.079 F1524.000 
G1 X-6.780 Y5.605 F1524.000 
G1 X-7.169 Y5.090 F1524.000 
G1 X-7.480 Y4.621 F1524.000 
G1 X-7.780 Y4.085 F1524.000 
G1 X-8.040 Y3.537 F1524.000 
G1 X-8.282 Y2.910 F1524.000 
G1 X-8.469 Y2.311 F1524.000 
G1 X-8.616 Y1.695 F1524.000 
G1 X-8.718 Y1.056 F1524.000 
G1 X-8.774 Y0.424 F1524.000 
G1 X-8.785 Y-0.209 F1524.000 
G1 X-8.751 Y-0.842 F1524.000 
G1 X-8.672 Y-1.475 F1524.000 
G1 X-8.548 Y-2.102 F1524.000 
G1 X-8.384 Y-2.718 F1524.000 
G1 X-8.175 Y-3.316 F1524.000 
G1 X-7.904 Y-3.893 F1524.000 
G1 X-7.655 Y-4.350 F1524.000 
G1 X-7.350 Y-4.859 F1524.000 
G1 X-6.938 Y-5.452 F1524.000 
G1 X-6.486 Y-6.011 F1524.000 
G1 X-6.006 Y-6.514 F1524.000 
G1 X-5.582 Y-6.904 F1524.000 
G1 X-5.062 Y-7.322 F1524.000 
G1 X-4.531 Y-7.684 F1524.000 
G1 X-3.989 Y-8.006 F1524.000 
G1 X-3.412 Y-8.294 F1524.000 
G1 X-2.819 Y-8.537 F1524.000 
G1 X-2.203 Y-8.718 F1524.000 
G1 X-1.706 Y-8.831 F1524.000 
G1 X-1.124 Y-8.938 F1524.000 
G1 X-0.401 Y-9.023 F1524.000 
G1 X0.316 Y-9.056 F1524.000 
G1 X1.000 Y-9.028 F1524.000 
G1 X1.565 Y-8.972 F1524.000 
G1 X2.215 Y-8.859 F1524.000 
G1 X2.831 Y-8.701 F1524.000 
G1 X3.418 Y-8.508 F1524.000 
G1 X4.006 Y-8.266 F1524.000 
G1 X4.571 Y-7.983 F1524.000 
G1 X5.107 Y-7.667 F1524.000 
G1 X5.390 Y-7.441 F1524.000 
G1 X5.977 Y-7.017 F1524.000 
G1 X6.701 Y-6.345 F1524.000 
G1 X7.723 Y-5.073 F1524.000 
G1 X8.395 Y-3.763 F1524.000 
G1 X8.740 Y-3.023 F1524.000 
G1 X9.153 Y-1.311 F1524.000 
G1 X9.243 Y0.633 F1524.000 
G1 X9.040 Y2.243 F1524.000 
G1 X8.469 Y3.915 F1524.000 
G1 X8.000 Y4.785 F1524.000 
G1 X6.955 Y6.226 F1524.000 
G1 X5.780 Y7.345 F1524.000 
G1 X4.395 Y8.237 F1524.000 
G1 X2.621 Y8.955 F1524.000 
G1 X0.904 Y9.288 F1524.000 
G1 X-0.593 Y9.373 F1524.000 
G1 X-1.610 Y9.277 F1524.000 
G1 X-2.627 Y9.045 F1524.000 
G1 X-3.791 Y8.599 F1524.000 
G1 X-4.955 Y7.955 F1524.000 
G1 X-6.441 Y6.774 F1524.000 
G1 X-7.452 Y5.616 F1524.000 
G1 X-8.277 Y4.311 F1524.000 
G1 X-8.960 Y2.621 F1524.000 
G1 X-9.288 Y0.904 F1524.000 
G1 X-9.305 Y-1.017 F1524.000 
G1 X-9.102 Y-2.288 F1524.000 
G1 X-8.497 Y-3.955 F1524.000 
G1 X-7.768 Y-5.266 F1524.000 
G1 X-6.695 Y-6.610 F1524.000 
G1 X-5.847 Y-7.407 F1524.000 
G1 X-4.893 Y-8.102 F1524.000 
G1 X-3.593 Y-8.797 F1524.000 
G1 X-2.480 Y-9.203 F1524.000 
G1 X-0.401 Y-9.599 F1524.000 
G1 X0.723 Y-9.644 F1524.000 
G1 X1.740 Y-9.554 F1524.000 
G1 X2.927 Y-9.288 F1524.000 
G1 X4.260 Y-8.785 F1524.000 
G1 X5.791 Y-7.870 F1524.000 
G1 X7.130 Y-6.678 F1524.000 
G1 X7.989 Y-5.616 F1524.000 
G1 X8.706 Y-4.435 F1524.000 
G1 X9.333 Y-2.921 F1524.000 
G1 X9.667 Y-1.565 F1524.000 
G1 X9.808 Y-0.209 F1524.000 
G1 X9.785 Y1.158 F1524.000 
G1 X9.638 Y2.175 F1524.000 
G1 X9.294 Y3.362 F1524.000 
G1 X8.497 Y5.045 F1524.000 
G1 X7.333 Y6.616 F1524.000 
G1 X6.418 Y7.503 F1524.000 
G1 X5.249 Y8.362 F1524.000 
G1 X4.028 Y9.000 F1524.000 
G1 X2.915 Y9.424 F1524.000 
G1 X1.379 Y9.780 F1524.000 
G1 X-0.401 Y9.915 F1524.000 
G1 X-1.842 Y9.780 F1524.000 
G1 X-3.113 Y9.441 F1524.000 
G1 X-4.661 Y8.757 F1524.000 
G1 X-6.079 Y7.797 F1524.000 
G1 X-7.311 Y6.638 F1524.000 
G1 X-8.390 Y5.186 F1524.000 
G1 X-9.062 Y3.887 F1524.000 
G1 X-9.497 Y2.667 F1524.000 
G1 X-9.831 Y0.949 F1524.000 
G1 X-9.881 Y-0.548 F1524.000 
G1 X-9.621 Y-2.412 F1524.000 
G1 X-9.429 Y-3.090 F1524.000 
G1 X-8.723 Y-4.706 F1524.000 
G1 X-7.678 Y-6.277 F1524.000 
G1 X-6.429 Y-7.576 F1524.000 
G1 X-5.277 Y-8.441 F1524.000 
G1 X-4.153 Y-9.040 F1524.000 
G1 X-2.791 Y-9.559 F1524.000 
G1 X-1.887 Y-9.768 F1524.000 
G1 X-1.164 Y-9.893 F1524.000 
G1 X0.006 Y-9.955 F1524.000 
G1 X1.362 Y-9.859 F1524.000 
G1 X2.718 Y-9.576 F1524.000 
G1 X4.073 Y-9.085 F1524.000 
G1 X4.859 Y-8.689 F1524.000 
G1 X5.977 Y-7.955 F1524.000 
G1 X6.989 Y-7.079 F1524.000 
G1 X7.870 Y-6.085 F1524.000 
G1 X8.299 Y-5.497 F1524.000 
G1 X9.164 Y-3.893 F1524.000 
G1 X9.475 Y-3.040 F1524.000 
G1 X9.808 Y-1.701 F1524.000 
G1 X9.938 Y-0.616 F1524.000 
G1 X9.927 Y0.689 F1524.000 
G1 X9.763 Y1.960 F1524.000 
G1 X9.288 Y3.571 F1524.000 
G1 X8.689 Y4.859 F1524.000 
G1 X8.051 Y5.836 F1524.000 
G1 X7.136 Y6.944 F1524.000 
G1 X6.056 Y7.893 F1524.000 
G1 X5.469 Y8.316 F1524.000 
G1 X4.847 Y8.689 F1524.000 
G1 X3.689 Y9.243 F1524.000 
G1 X2.390 Y9.672 F1524.000 
G1 X1.034 Y9.904 F1524.000 
G1 X-0.045 Y9.960 F1524.000 
G1 X-0.299 Y9.949 F1524.000 
G1 X-0.299 Y9.944 F1524.000 
G1 X-0.475 Y9.893 F1524.000 
G1 X-0.588 Y9.819 F1524.000 
G0 X-0.621 Y9.791 
G0 X-1.028 Y9.407 
G0 X-3.011 Y8.932 
G0 X-4.373 Y8.356 
G0 X-4.746 Y8.379 
G1 X-4.791 Y8.390 F1524.000 
G1 X-5.164 Y8.429 F1524.000 
G1 X-5.395 Y8.356 F1524.000 
G1 X-5.395 Y8.356 F1524.000 
G1 X-6.672 Y7.384 F1524.000 
G1 X-7.311 Y6.757 F1524.000 
G1 X-8.040 Y5.864 F1524.000 
G1 X-8.718 Y4.797 F1524.000 
G1 X-9.367 Y3.390 F1524.000 
G1 X-9.684 Y2.328 F1524.000 
G1 X-9.910 Y0.972 F1524.000 
G1 X-9.955 Y-0.441 F1524.000 
G1 X-9.802 Y-1.712 F1524.000 
G1 X-9.746 Y-1.966 F1524.000 
G1 X-9.746 Y-1.966 F1524.000 
G1 X-9.734 Y-1.977 F1524.000 
G0 X-9.723 Y-1.977 
G0 X-9.706 Y-1.881 
G1 X-9.718 Y-1.836 F1524.000 
G1 X-9.785 Y-1.740 F1524.000 
G1 X-9.819 Y-1.751 F1524.000 
G1 X-9.831 Y-1.774 F1524.000 
G1 X-9.831 Y-1.774 F1524.000 
G1 X-9.650 Y-2.576 F1524.000 
G1 X-9.463 Y-3.209 F1524.000 
G1 X-9.345 Y-3.537 F1524.000 
G1 X-9.102 Y-4.113 F1524.000 
G1 X-8.780 Y-4.774 F1524.000 
G1 X-8.175 Y-5.751 F1524.000 
G1 X-7.684 Y-6.395 F1524.000 
G1 X-7.379 Y-6.740 F1524.000 
G1 X-6.921 Y-7.203 F1524.000 
G1 X-6.412 Y-7.661 F1524.000 
G1 X-5.740 Y-8.175 F1524.000 
G1 X-5.209 Y-8.537 F1524.000 
G1 X-4.650 Y-8.853 F1524.000 
G1 X-3.638 Y-9.305 F1524.000 
G1 X-2.734 Y-9.621 F1524.000 
G1 X-2.017 Y-9.791 F1524.000 
G1 X-1.311 Y-9.910 F1524.000 
G1 X-0.429 Y-9.989 F1524.000 
G1 X-0.254 Y-9.994 F1524.000 
G1 X0.605 Y-9.972 F1524.000 
G1 X1.441 Y-9.887 F1524.000 
G1 X2.073 Y-9.774 F1524.000 
G1 X2.808 Y-9.588 F1524.000 
G1 X3.588 Y-9.322 F1524.000 
G1 X4.141 Y-9.090 F1524.000 
G1 X4.859 Y-8.740 F1524.000 
G1 X5.356 Y-8.435 F1524.000 
G1 X5.960 Y-8.017 F1524.000 
G1 X6.667 Y-7.446 F1524.000 
G1 X7.056 Y-7.073 F1524.000 
G1 X7.362 Y-6.757 F1524.000 
G1 X7.927 Y-6.073 F1524.000 
G1 X8.373 Y-5.458 F1524.000 
G1 X8.655 Y-4.994 F1524.000 
G1 X8.808 Y-4.718 F1524.000 
G1 X9.266 Y-3.763 F1524.000 
G1 X9.356 Y-3.537 F1524.000 
G1 X9.486 Y-3.147 F1524.000 
G1 X9.746 Y-2.232 F1524.000 
G1 X9.836 Y-1.808 F1524.000 
G1 X9.944 Y-0.994 F1524.000 
G1 X9.977 Y-0.610 F1524.000 
G1 X10.000 Y0.056 F1524.000 
G1 X9.972 Y0.633 F1524.000 
G1 X9.887 Y1.412 F1524.000 
G1 X9.768 Y2.102 F1524.000 
G1 X9.605 Y2.751 F1524.000 
G1 X9.401 Y3.390 F1524.000 
G1 X9.277 Y3.706 F1524.000 
G1 X9.006 Y4.322 F1524.000 
G1 X8.689 Y4.938 F1524.000 
G1 X8.305 Y5.548 F1524.000 
G1 X7.768 Y6.271 F1524.000 
G1 X7.316 Y6.802 F1524.000 
G1 X7.085 Y7.051 F1524.000 
G1 X6.610 Y7.492 F1524.000 
G1 X6.028 Y7.966 F1524.000 
G1 X5.650 Y8.243 F1524.000 
G1 X4.864 Y8.729 F1524.000 
G1 X4.243 Y9.045 F1524.000 
G1 X3.644 Y9.299 F1524.000 
G1 X2.966 Y9.542 F1524.000 
G1 X2.458 Y9.695 F1524.000 
G1 X1.684 Y9.859 F1524.000 
G1 X1.017 Y9.949 F1524.000 
G1 X0.605 Y9.983 F1524.000 
G1 X0.068 Y10.006 F1524.000 
G1 X-0.751 Y9.966 F1524.000 
G1 X-1.701 Y9.847 F1524.000 
G1 X-2.469 Y9.678 F1524.000 
G1 X-3.141 Y9.469 F1524.000 
G1 X-3.819 Y9.226 F1524.000 
G1 X-4.333 Y8.994 F1524.000 
G1 X-5.136 Y8.571 F1524.000 
G1 X-5.610 Y8.266 F1524.000 
G1 X-6.192 Y7.836 F1524.000 
G1 X-6.729 Y7.390 F1524.000 
G1 X-7.249 Y6.881 F1524.000 
G1 X-7.379 Y6.740 F1524.000 
G1 X-8.056 Y5.915 F1524.000 
G1 X-8.441 Y5.339 F1524.000 
G1 X-8.791 Y4.751 F1524.000 
G1 X-9.045 Y4.237 F1524.000 
G1 X-9.390 Y3.441 F1524.000 
G1 X-9.525 Y3.023 F1524.000 
G1 X-9.729 Y2.322 F1524.000 
G1 X-9.876 Y1.525 F1524.000 
G1 X-9.955 Y0.915 F1524.000 
G1 X-9.994 Y0.198 F1524.000 
G1 X-9.983 Y-0.605 F1524.000 
G1 X-9.932 Y-1.090 F1524.000 
G1 X-9.831 Y-1.774 F1524.000 
G1 X-9.831 Y-1.774 F1524.000 
G0 Z5.000 
G0 Z5.000 
(finish operation: Adaptive)
(begin operation: TC: 1mm_cut3mm)
(machine units: mm/min)
(TC: 1mm_cut3mm) 
M5
M6 T4 
G43 H4 
M3 S15000 
(finish operation: TC: 1mm_cut3mm)
(begin operation: Adaptive001)
(machine units: mm/min)
(Adaptive001) 
(Helix to depth: -0.500000) 
G0 Z5.000 
G0 X1.372 Y-11.151 Z5.000 
G0 X1.372 Y-11.151 Z3.000 
G1 X1.372 Y-11.151 Z0.000 F571.000 
G1 X1.372 Y-11.151 Z0.000 F571.000 
G1 X1.436 Y-11.222 Z-0.002 F571.000 
G1 X1.513 Y-11.280 Z-0.003 F571.000 
G1 X1.600 Y-11.322 Z-0.005 F571.000 
G1 X1.693 Y-11.345 Z-0.007 F571.000 
G1 X1.789 Y-11.351 Z-0.009 F571.000 
G1 X1.884 Y-11.337 Z-0.010 F571.000 
G1 X1.974 Y-11.305 Z-0.012 F571.000 
G1 X2.057 Y-11.256 Z-0.014 F571.000 
G1 X2.128 Y-11.192 Z-0.015 F571.000 
G1 X2.186 Y-11.115 Z-0.017 F571.000 
G1 X2.228 Y-11.028 Z-0.019 F571.000 
G1 X2.251 Y-10.935 Z-0.021 F571.000 
G1 X2.257 Y-10.839 Z-0.022 F571.000 
G1 X2.243 Y-10.744 Z-0.024 F571.000 
G1 X2.211 Y-10.654 Z-0.026 F571.000 
G1 X2.162 Y-10.571 Z-0.027 F571.000 
G1 X2.098 Y-10.500 Z-0.029 F571.000 
G1 X2.021 Y-10.442 Z-0.031 F571.000 
G1 X1.934 Y-10.400 Z-0.033 F571.000 
G1 X1.841 Y-10.377 Z-0.034 F571.000 
G1 X1.745 Y-10.371 Z-0.036 F571.000 
G1 X1.650 Y-10.385 Z-0.038 F571.000 
G1 X1.560 Y-10.417 Z-0.039 F571.000 
G1 X1.477 Y-10.466 Z-0.041 F571.000 
G1 X1.406 Y-10.530 Z-0.043 F571.000 
G1 X1.348 Y-10.607 Z-0.045 F571.000 
G1 X1.306 Y-10.694 Z-0.046 F571.000 
G1 X1.283 Y-10.787 Z-0.048 F571.000 
G1 X1.277 Y-10.883 Z-0.050 F571.000 
G1 X1.291 Y-10.978 Z-0.051 F571.000 
G1 X1.323 Y-11.068 Z-0.053 F571.000 
G1 X1.372 Y-11.151 Z-0.055 F571.000 
G1 X1.436 Y-11.222 Z-0.057 F571.000 
G1 X1.513 Y-11.280 Z-0.058 F571.000 
G1 X1.600 Y-11.322 Z-0.060 F571.000 
G1 X1.693 Y-11.345 Z-0.062 F571.000 
G1 X1.789 Y-11.351 Z-0.063 F571.000 
G1 X1.884 Y-11.337 Z-0.065 F571.000 
G1 X1.974 Y-11.305 Z-0.067 F571.000 
G1 X2.057 Y-11.256 Z-0.069 F571.000 
G1 X2.128 Y-11.192 Z-0.070 F571.000 
G1 X2.186 Y-11.115 Z-0.072 F571.000 
G1 X2.228 Y-11.028 Z-0.074 F571.000 
G1 X2.251 Y-10.935 Z-0.075 F571.000 
G1 X2.257 Y-10.839 Z-0.077 F571.000 
G1 X2.243 Y-10.744 Z-0.079 F571.000 
G1 X2.211 Y-10.654 Z-0.081 F571.000 
G1 X2.162 Y-10.571 Z-0.082 F571.000 
G1 X2.098 Y-10.500 Z-0.084 F571.000 
G1 X2.021 Y-10.442 Z-0.086 F571.000 
G1 X1.934 Y-10.400 Z-0.087 F571.000 
G1 X1.841 Y-10.377 Z-0.089 F571.000 
G1 X1.745 Y-10.371 Z-0.091 F571.000 
G1 X1.650 Y-10.385 Z-0.093 F571.000 
G1 X1.560 Y-10.417 Z-0.094 F571.000 
G1 X1.477 Y-10.466 Z-0.096 F571.000 
G1 X1.406 Y-10.530 Z-0.098 F571.000 
G1 X1.348 Y-10.607 Z-0.099 F571.000 
G1 X1.306 Y-10.694 Z-0.101 F571.000 
G1 X1.283 Y-10.787 Z-0.103 F571.000 
G1 X1.277 Y-10.883 Z-0.105 F571.000 
G1 X1.291 Y-10.978 Z-0.106 F571.000 
G1 X1.323 Y-11.068 Z-0.108 F571.000 
G1 X1.372 Y-11.151 Z-0.110 F571.000 
G1 X1.436 Y-11.222 Z-0.111 F571.000 
G1 X1.513 Y-11.280 Z-0.113 F571.000 
G1 X1.600 Y-11.322 Z-0.115 F571.000 
G1 X1.693 Y-11.345 Z-0.117 F571.000 
G1 X1.789 Y-11.351 Z-0.118 F571.000 
G1 X1.884 Y-11.337 Z-0.120 F571.000 
G1 X1.974 Y-11.305 Z-0.122 F571.000 
G1 X2.057 Y-11.256 Z-0.123 F571.000 
G1 X2.128 Y-11.192 Z-0.125 F571.000 
G1 X2.186 Y-11.115 Z-0.127 F571.000 
G1 X2.228 Y-11.028 Z-0.129 F571.000 
G1 X2.251 Y-10.935 Z-0.130 F571.000 
G1 X2.257 Y-10.839 Z-0.132 F571.000 
G1 X2.243 Y-10.744 Z-0.134 F571.000 
G1 X2.211 Y-10.654 Z-0.135 F571.000 
G1 X2.162 Y-10.571 Z-0.137 F571.000 
G1 X2.098 Y-10.500 Z-0.139 F571.000 
G1 X2.021 Y-10.442 Z-0.141 F571.000 
G1 X1.934 Y-10.400 Z-0.142 F571.000 
G1 X1.841 Y-10.377 Z-0.144 F571.000 
G1 X1.745 Y-10.371 Z-0.146 F571.000 
G1 X1.650 Y-10.385 Z-0.147 F571.000 
G1 X1.560 Y-10.417 Z-0.149 F571.000 
G1 X1.477 Y-10.466 Z-0.151 F571.000 
G1 X1.406 Y-10.530 Z-0.153 F571.000 
G1 X1.348 Y-10.607 Z-0.154 F571.000 
G1 X1.306 Y-10.694 Z-0.156 F571.000 
G1 X1.283 Y-10.787 Z-0.158 F571.000 
G1 X1.277 Y-10.883 Z-0.159 F571.000 
G1 X1.291 Y-10.978 Z-0.161 F571.000 
G1 X1.323 Y-11.068 Z-0.163 F571.000 
G1 X1.372 Y-11.151 Z-0.165 F571.000 
G1 X1.436 Y-11.222 Z-0.166 F571.000 
G1 X1.513 Y-11.280 Z-0.168 F571.000 
G1 X1.600 Y-11.322 Z-0.170 F571.000 
G1 X1.693 Y-11.345 Z-0.171 F571.000 
G1 X1.789 Y-11.351 Z-0.173 F571.000 
G1 X1.884 Y-11.337 Z-0.175 F571.000 
G1 X1.974 Y-11.305 Z-0.177 F571.000 
G1 X2.057 Y-11.256 Z-0.178 F571.000 
G1 X2.128 Y-11.192 Z-0.180 F571.000 
G1 X2.186 Y-11.115 Z-0.182 F571.000 
G1 X2.228 Y-11.028 Z-0.183 F571.000 
G1 X2.251 Y-10.935 Z-0.185 F571.000 
G1 X2.257 Y-10.839 Z-0.187 F571.000 
G1 X2.243 Y-10.744 Z-0.189 F571.000 
G1 X2.211 Y-10.654 Z-0.190 F571.000 
G1 X2.162 Y-10.571 Z-0.192 F571.000 
G1 X2.098 Y-10.500 Z-0.194 F571.000 
G1 X2.021 Y-10.442 Z-0.195 F571.000 
G1 X1.934 Y-10.400 Z-0.197 F571.000 
G1 X1.841 Y-10.377 Z-0.199 F571.000 
G1 X1.745 Y-10.371 Z-0.200 F571.000 
G1 X1.650 Y-10.385 Z-0.202 F571.000 
G1 X1.560 Y-10.417 Z-0.204 F571.000 
G1 X1.477 Y-10.466 Z-0.206 F571.000 
G1 X1.406 Y-10.530 Z-0.207 F571.000 
G1 X1.348 Y-10.607 Z-0.209 F571.000 
G1 X1.306 Y-10.694 Z-0.211 F571.000 
G1 X1.283 Y-10.787 Z-0.212 F571.000 
G1 X1.277 Y-10.883 Z-0.214 F571.000 
G1 X1.291 Y-10.978 Z-0.216 F571.000 
G1 X1.323 Y-11.068 Z-0.218 F571.000 
G1 X1.372 Y-11.151 Z-0.219 F571.000 
G1 X1.436 Y-11.222 Z-0.221 F571.000 
G1 X1.513 Y-11.280 Z-0.223 F571.000 
G1 X1.600 Y-11.322 Z-0.224 F571.000 
G1 X1.693 Y-11.345 Z-0.226 F571.000 
G1 X1.789 Y-11.351 Z-0.228 F571.000 
G1 X1.884 Y-11.337 Z-0.230 F571.000 
G1 X1.974 Y-11.305 Z-0.231 F571.000 
G1 X2.057 Y-11.256 Z-0.233 F571.000 
G1 X2.128 Y-11.192 Z-0.235 F571.000 
G1 X2.186 Y-11.115 Z-0.236 F571.000 
G1 X2.228 Y-11.028 Z-0.238 F571.000 
G1 X2.251 Y-10.935 Z-0.240 F571.000 
G1 X2.257 Y-10.839 Z-0.242 F571.000 
G1 X2.243 Y-10.744 Z-0.243 F571.000 
G1 X2.211 Y-10.654 Z-0.245 F571.000 
G1 X2.162 Y-10.571 Z-0.247 F571.000 
G1 X2.098 Y-10.500 Z-0.248 F571.000 
G1 X2.021 Y-10.442 Z-0.250 F571.000 
G1 X1.934 Y-10.400 Z-0.252 F571.000 
G1 X1.841 Y-10.377 Z-0.254 F571.000 
G1 X1.745 Y-10.371 Z-0.255 F571.000 
G1 X1.650 Y-10.385 Z-0.257 F571.000 
G1 X1.560 Y-10.417 Z-0.259 F571.000 
G1 X1.477 Y-10.466 Z-0.260 F571.000 
G1 X1.406 Y-10.530 Z-0.262 F571.000 
G1 X1.348 Y-10.607 Z-0.264 F571.000 
G1 X1.306 Y-10.694 Z-0.266 F571.000 
G1 X1.283 Y-10.787 Z-0.267 F571.000 
G1 X1.277 Y-10.883 Z-0.269 F571.000 
G1 X1.291 Y-10.978 Z-0.271 F571.000 
G1 X1.323 Y-11.068 Z-0.272 F571.000 
G1 X1.372 Y-11.151 Z-0.274 F571.000 
G1 X1.436 Y-11.222 Z-0.276 F571.000 
G1 X1.513 Y-11.280 Z-0.278 F571.000 
G1 X1.600 Y-11.322 Z-0.279 F571.000 
G1 X1.693 Y-11.345 Z-0.281 F571.000 
G1 X1.789 Y-11.351 Z-0.283 F571.000 
G1 X1.884 Y-11.337 Z-0.284 F571.000 
G1 X1.974 Y-11.305 Z-0.286 F571.000 
G1 X2.057 Y-11.256 Z-0.288 F571.000 
G1 X2.128 Y-11.192 Z-0.290 F571.000 
G1 X2.186 Y-11.115 Z-0.291 F571.000 
G1 X2.228 Y-11.028 Z-0.293 F571.000 
G1 X2.251 Y-10.935 Z-0.295 F571.000 
G1 X2.257 Y-10.839 Z-0.296 F571.000 
G1 X2.243 Y-10.744 Z-0.298 F571.000 
G1 X2.211 Y-10.654 Z-0.300 F571.000 
G1 X2.162 Y-10.571 Z-0.302 F571.000 
G1 X2.098 Y-10.500 Z-0.303 F571.000 
G1 X2.021 Y-10.442 Z-0.305 F571.000 
G1 X1.934 Y-10.400 Z-0.307 F571.000 
G1 X1.841 Y-10.377 Z-0.308 F571.000 
G1 X1.745 Y-10.371 Z-0.310 F571.000 
G1 X1.650 Y-10.385 Z-0.312 F571.000 
G1 X1.560 Y-10.417 Z-0.314 F571.000 
G1 X1.477 Y-10.466 Z-0.315 F571.000 
G1 X1.406 Y-10.530 Z-0.317 F571.000 
G1 X1.348 Y-10.607 Z-0.319 F571.000 
G1 X1.306 Y-10.694 Z-0.320 F571.000 
G1 X1.283 Y-10.787 Z-0.322 F571.000 
G1 X1.277 Y-10.883 Z-0.324 F571.000 
G1 X1.291 Y-10.978 Z-0.326 F571.000 
G1 X1.323 Y-11.068 Z-0.327 F571.000 
G1 X1.372 Y-11.151 Z-0.329 F571.000 
G1 X1.436 Y-11.222 Z-0.331 F571.000 
G1 X1.513 Y-11.280 Z-0.332 F571.000 
G1 X1.600 Y-11.322 Z-0.334 F571.000 
G1 X1.693 Y-11.345 Z-0.336 F571.000 
G1 X1.789 Y-11.351 Z-0.338 F571.000 
G1 X1.884 Y-11.337 Z-0.339 F571.000 
G1 X1.974 Y-11.305 Z-0.341 F571.000 
G1 X2.057 Y-11.256 Z-0.343 F571.000 
G1 X2.128 Y-11.192 Z-0.344 F571.000 
G1 X2.186 Y-11.115 Z-0.346 F571.000 
G1 X2.228 Y-11.028 Z-0.348 F571.000 
G1 X2.251 Y-10.935 Z-0.350 F571.000 
G1 X2.257 Y-10.839 Z-0.351 F571.000 
G1 X2.243 Y-10.744 Z-0.353 F571.000 
G1 X2.211 Y-10.654 Z-0.355 F571.000 
G1 X2.162 Y-10.571 Z-0.356 F571.000 
G1 X2.098 Y-10.500 Z-0.358 F571.000 
G1 X2.021 Y-10.442 Z-0.360 F571.000 
G1 X1.934 Y-10.400 Z-0.362 F571.000 
G1 X1.841 Y-10.377 Z-0.363 F571.000 
G1 X1.745 Y-10.371 Z-0.365 F571.000 
G1 X1.650 Y-10.385 Z-0.367 F571.000 
G1 X1.560 Y-10.417 Z-0.368 F571.000 
G1 X1.477 Y-10.466 Z-0.370 F571.000 
G1 X1.406 Y-10.530 Z-0.372 F571.000 
G1 X1.348 Y-10.607 Z-0.374 F571.000 
G1 X1.306 Y-10.694 Z-0.375 F571.000 
G1 X1.283 Y-10.787 Z-0.377 F571.000 
G1 X1.277 Y-10.883 Z-0.379 F571.000 
G1 X1.291 Y-10.978 Z-0.380 F571.000 
G1 X1.323 Y-11.068 Z-0.382 F571.000 
G1 X1.372 Y-11.151 Z-0.384 F571.000 
G1 X1.436 Y-11.222 Z-0.386 F571.000 
G1 X1.513 Y-11.280 Z-0.387 F571.000 
G1 X1.600 Y-11.322 Z-0.389 F571.000 
G1 X1.693 Y-11.345 Z-0.391 F571.000 
G1 X1.789 Y-11.351 Z-0.392 F571.000 
G1 X1.884 Y-11.337 Z-0.394 F571.000 
G1 X1.974 Y-11.305 Z-0.396 F571.000 
G1 X2.057 Y-11.256 Z-0.398 F571.000 
G1 X2.128 Y-11.192 Z-0.399 F571.000 
G1 X2.186 Y-11.115 Z-0.401 F571.000 
G1 X2.228 Y-11.028 Z-0.403 F571.000 
G1 X2.251 Y-10.935 Z-0.404 F571.000 
G1 X2.257 Y-10.839 Z-0.406 F571.000 
G1 X2.243 Y-10.744 Z-0.408 F571.000 
G1 X2.211 Y-10.654 Z-0.410 F571.000 
G1 X2.162 Y-10.571 Z-0.411 F571.000 
G1 X2.098 Y-10.500 Z-0.413 F571.000 
G1 X2.021 Y-10.442 Z-0.415 F571.000 
G1 X1.934 Y-10.400 Z-0.416 F571.000 
G1 X1.841 Y-10.377 Z-0.418 F571.000 
G1 X1.745 Y-10.371 Z-0.420 F571.000 
G1 X1.650 Y-10.385 Z-0.422 F571.000 
G1 X1.560 Y-10.417 Z-0.423 F571.000 
G1 X1.477 Y-10.466 Z-0.425 F571.000 
G1 X1.406 Y-10.530 Z-0.427 F571.000 
G1 X1.348 Y-10.607 Z-0.428 F571.000 
G1 X1.306 Y-10.694 Z-0.430 F571.000 
G1 X1.283 Y-10.787 Z-0.432 F571.000 
G1 X1.277 Y-10.883 Z-0.434 F571.000 
G1 X1.291 Y-10.978 Z-0.435 F571.000 
G1 X1.323 Y-11.068 Z-0.437 F571.000 
G1 X1.372 Y-11.151 Z-0.439 F571.000 
G1 X1.436 Y-11.222 Z-0.440 F571.000 
G1 X1.513 Y-11.280 Z-0.442 F571.000 
G1 X1.600 Y-11.322 Z-0.444 F571.000 
G1 X1.693 Y-11.345 Z-0.446 F571.000 
G1 X1.789 Y-11.351 Z-0.447 F571.000 
G1 X1.884 Y-11.337 Z-0.449 F571.000 
G1 X1.974 Y-11.305 Z-0.451 F571.000 
G1 X2.057 Y-11.256 Z-0.452 F571.000 
G1 X2.128 Y-11.192 Z-0.454 F571.000 
G1 X2.186 Y-11.115 Z-0.456 F571.000 
G1 X2.228 Y-11.028 Z-0.458 F571.000 
G1 X2.251 Y-10.935 Z-0.459 F571.000 
G1 X2.257 Y-10.839 Z-0.461 F571.000 
G1 X2.243 Y-10.744 Z-0.463 F571.000 
G1 X2.211 Y-10.654 Z-0.464 F571.000 
G1 X2.162 Y-10.571 Z-0.466 F571.000 
G1 X2.098 Y-10.500 Z-0.468 F571.000 
G1 X2.021 Y-10.442 Z-0.470 F571.000 
G1 X1.934 Y-10.400 Z-0.471 F571.000 
G1 X1.841 Y-10.377 Z-0.473 F571.000 
G1 X1.745 Y-10.371 Z-0.475 F571.000 
G1 X1.650 Y-10.385 Z-0.476 F571.000 
G1 X1.560 Y-10.417 Z-0.478 F571.000 
G1 X1.477 Y-10.466 Z-0.480 F571.000 
G1 X1.406 Y-10.530 Z-0.482 F571.000 
G1 X1.348 Y-10.607 Z-0.483 F571.000 
G1 X1.306 Y-10.694 Z-0.485 F571.000 
G1 X1.283 Y-10.787 Z-0.487 F571.000 
G1 X1.277 Y-10.883 Z-0.488 F571.000 
G1 X1.291 Y-10.978 Z-0.490 F571.000 
G1 X1.323 Y-11.068 Z-0.492 F571.000 
G1 X1.372 Y-11.151 Z-0.494 F571.000 
G1 X1.436 Y-11.222 Z-0.495 F571.000 
G1 X1.513 Y-11.280 Z-0.497 F571.000 
G1 X1.600 Y-11.322 Z-0.499 F571.000 
G1 X1.693 Y-11.345 Z-0.500 F571.000 
G1 X1.789 Y-11.351 Z-0.500 F571.000 
G1 X1.884 Y-11.337 Z-0.500 F571.000 
G1 X1.974 Y-11.305 Z-0.500 F571.000 
G1 X2.057 Y-11.256 Z-0.500 F571.000 
G1 X2.128 Y-11.192 Z-0.500 F571.000 
G1 X2.186 Y-11.115 Z-0.500 F571.000 
G1 X2.228 Y-11.028 Z-0.500 F571.000 
G1 X2.251 Y-10.935 Z-0.500 F571.000 
G1 X2.257 Y-10.839 Z-0.500 F571.000 
G1 X2.243 Y-10.744 Z-0.500 F571.000 
G1 X2.211 Y-10.654 Z-0.500 F571.000 
G1 X2.162 Y-10.571 Z-0.500 F571.000 
G1 X2.098 Y-10.500 Z-0.500 F571.000 
G1 X2.021 Y-10.442 Z-0.500 F571.000 
G1 X1.934 Y-10.400 Z-0.500 F571.000 
G1 X1.841 Y-10.377 Z-0.500 F571.000 
G1 X1.745 Y-10.371 Z-0.500 F571.000 
G1 X1.650 Y-10.385 Z-0.500 F571.000 
G1 X1.560 Y-10.417 Z-0.500 F571.000 
G1 X1.477 Y-10.466 Z-0.500 F571.000 
G1 X1.406 Y-10.530 Z-0.500 F571.000 
G1 X1.348 Y-10.607 Z-0.500 F571.000 
G1 X1.306 Y-10.694 Z-0.500 F571.000 
G1 X1.283 Y-10.787 Z-0.500 F571.000 
G1 X1.277 Y-10.883 Z-0.500 F571.000 
G1 X1.291 Y-10.978 Z-0.500 F571.000 
G1 X1.323 Y-11.068 Z-0.500 F571.000 
G1 X1.372 Y-11.151 Z-0.500 F571.000 
G1 X1.436 Y-11.222 Z-0.500 F571.000 
G1 X1.513 Y-11.280 Z-0.500 F571.000 
G1 X1.600 Y-11.322 Z-0.500 F571.000 
(Adaptive - depth: -0.500000) 
G1 X1.767 Y-11.361 F571.000 
G1 X1.827 Y-11.366 F571.000 
G1 X1.902 Y-11.353 F571.000 
G1 X2.020 Y-11.314 F571.000 
G1 X2.077 Y-11.275 F571.000 
G1 X2.135 Y-11.226 F571.000 
G1 X2.186 Y-11.167 F571.000 
G1 X2.221 Y-11.110 F571.000 
G1 X2.244 Y-11.061 F571.000 
G1 X2.264 Y-11.004 F571.000 
G1 X2.279 Y-10.935 F571.000 
G1 X2.285 Y-10.866 F571.000 
G1 X2.282 Y-10.803 F571.000 
G1 X2.272 Y-10.743 F571.000 
G1 X2.254 Y-10.684 F571.000 
G1 X2.230 Y-10.627 F571.000 
G1 X2.194 Y-10.566 F571.000 
G1 X2.155 Y-10.515 F571.000 
G1 X2.109 Y-10.468 F571.000 
G1 X2.059 Y-10.430 F571.000 
G1 X2.008 Y-10.399 F571.000 
G1 X1.948 Y-10.372 F571.000 
G1 X1.885 Y-10.353 F571.000 
G1 X1.820 Y-10.342 F571.000 
G1 X1.755 Y-10.339 F571.000 
G1 X1.693 Y-10.344 F571.000 
G1 X1.629 Y-10.357 F571.000 
G1 X1.567 Y-10.378 F571.000 
G1 X1.508 Y-10.407 F571.000 
G1 X1.457 Y-10.440 F571.000 
G1 X1.409 Y-10.480 F571.000 
G1 X1.365 Y-10.527 F571.000 
G1 X1.327 Y-10.579 F571.000 
G1 X1.295 Y-10.636 F571.000 
G1 X1.271 Y-10.696 F571.000 
G1 X1.255 Y-10.759 F571.000 
G1 X1.247 Y-10.820 F571.000 
G1 X1.246 Y-10.883 F571.000 
G1 X1.252 Y-10.946 F571.000 
G1 X1.268 Y-11.013 F571.000 
G1 X1.291 Y-11.074 F571.000 
G1 X1.320 Y-11.129 F571.000 
G1 X1.354 Y-11.179 F571.000 
G1 X1.397 Y-11.228 F571.000 
G1 X1.446 Y-11.271 F571.000 
G1 X1.498 Y-11.307 F571.000 
G1 X1.557 Y-11.337 F571.000 
G1 X1.618 Y-11.359 F571.000 
G1 X1.697 Y-11.376 F571.000 
G1 X1.787 Y-11.382 F571.000 
G1 X1.862 Y-11.376 F571.000 
G1 X1.945 Y-11.359 F571.000 
G1 X1.973 Y-11.351 F571.000 
G1 X2.029 Y-11.326 F571.000 
G1 X2.110 Y-11.274 F571.000 
G1 X2.164 Y-11.223 F571.000 
G1 X2.197 Y-11.182 F571.000 
G1 X2.226 Y-11.136 F571.000 
G1 X2.255 Y-11.081 F571.000 
G1 X2.283 Y-11.008 F571.000 
G1 X2.299 Y-10.938 F571.000 
G1 X2.304 Y-10.874 F571.000 
G1 X2.302 Y-10.816 F571.000 
G1 X2.293 Y-10.752 F571.000 
G1 X2.275 Y-10.686 F571.000 
G1 X2.249 Y-10.622 F571.000 
G1 X2.217 Y-10.565 F571.000 
G1 X2.180 Y-10.513 F571.000 
G1 X2.135 Y-10.465 F571.000 
G1 X2.085 Y-10.423 F571.000 
G1 X2.031 Y-10.388 F571.000 
G1 X1.972 Y-10.359 F571.000 
G1 X1.910 Y-10.338 F571.000 
G1 X1.847 Y-10.324 F571.000 
G1 X1.782 Y-10.318 F571.000 
G1 X1.717 Y-10.320 F571.000 
G1 X1.650 Y-10.330 F571.000 
G1 X1.585 Y-10.348 F571.000 
G1 X1.525 Y-10.373 F571.000 
G1 X1.468 Y-10.405 F571.000 
G1 X1.416 Y-10.444 F571.000 
G1 X1.368 Y-10.489 F571.000 
G1 X1.326 Y-10.540 F571.000 
G1 X1.291 Y-10.595 F571.000 
G1 X1.263 Y-10.652 F571.000 
G1 X1.242 Y-10.712 F571.000 
G1 X1.229 Y-10.777 F571.000 
G1 X1.223 Y-10.838 F571.000 
G1 X1.225 Y-10.906 F571.000 
G1 X1.235 Y-10.973 F571.000 
G1 X1.253 Y-11.040 F571.000 
G1 X1.279 Y-11.101 F571.000 
G1 X1.310 Y-11.156 F571.000 
G1 X1.349 Y-11.209 F571.000 
G1 X1.394 Y-11.256 F571.000 
G1 X1.444 Y-11.297 F571.000 
G1 X1.498 Y-11.331 F571.000 
G1 X1.556 Y-11.359 F571.000 
G1 X1.619 Y-11.380 F571.000 
G1 X1.684 Y-11.395 F571.000 
G1 X1.849 Y-11.394 F571.000 
G1 X1.894 Y-11.387 F571.000 
G1 X2.014 Y-11.355 F571.000 
G1 X2.083 Y-11.316 F571.000 
G1 X2.142 Y-11.271 F571.000 
G1 X2.190 Y-11.221 F571.000 
G1 X2.228 Y-11.170 F571.000 
G1 X2.257 Y-11.120 F571.000 
G1 X2.283 Y-11.062 F571.000 
G1 X2.305 Y-10.993 F571.000 
G1 X2.319 Y-10.921 F571.000 
G1 X2.323 Y-10.854 F571.000 
G1 X2.319 Y-10.791 F571.000 
G1 X2.307 Y-10.727 F571.000 
G1 X2.287 Y-10.663 F571.000 
G1 X2.261 Y-10.602 F571.000 
G1 X2.226 Y-10.541 F571.000 
G1 X2.184 Y-10.487 F571.000 
G1 X2.139 Y-10.441 F571.000 
G1 X2.089 Y-10.400 F571.000 
G1 X2.033 Y-10.365 F571.000 
G1 X1.971 Y-10.336 F571.000 
G1 X1.908 Y-10.315 F571.000 
G1 X1.843 Y-10.301 F571.000 
G1 X1.776 Y-10.295 F571.000 
G1 X1.710 Y-10.297 F571.000 
G1 X1.643 Y-10.307 F571.000 
G1 X1.578 Y-10.325 F571.000 
G1 X1.517 Y-10.350 F571.000 
G1 X1.458 Y-10.383 F571.000 
G1 X1.404 Y-10.422 F571.000 
G1 X1.356 Y-10.467 F571.000 
G1 X1.315 Y-10.515 F571.000 
G1 X1.278 Y-10.568 F571.000 
G1 X1.245 Y-10.633 F571.000 
G1 X1.222 Y-10.696 F571.000 
G1 X1.207 Y-10.759 F571.000 
G1 X1.200 Y-10.826 F571.000 
G1 X1.200 Y-10.892 F571.000 
G1 X1.208 Y-10.960 F571.000 
G1 X1.224 Y-11.025 F571.000 
G1 X1.247 Y-11.088 F571.000 
G1 X1.278 Y-11.148 F571.000 
G1 X1.316 Y-11.204 F571.000 
G1 X1.360 Y-11.255 F571.000 
G1 X1.408 Y-11.298 F571.000 
G1 X1.459 Y-11.334 F571.000 
G1 X1.517 Y-11.365 F571.000 
G1 X1.579 Y-11.390 F571.000 
G1 X1.648 Y-11.408 F571.000 
G1 X1.783 Y-11.415 F571.000 
G1 X1.888 Y-11.405 F571.000 
G1 X2.010 Y-11.378 F571.000 
G1 X2.076 Y-11.342 F571.000 
G1 X2.134 Y-11.301 F571.000 
G1 X2.188 Y-11.251 F571.000 
G1 X2.234 Y-11.195 F571.000 
G1 X2.266 Y-11.144 F571.000 
G1 X2.293 Y-11.088 F571.000 
G1 X2.316 Y-11.026 F571.000 
G1 X2.333 Y-10.954 F571.000 
G1 X2.342 Y-10.882 F571.000 
G1 X2.341 Y-10.812 F571.000 
G1 X2.332 Y-10.748 F571.000 
G1 X2.317 Y-10.688 F571.000 
G1 X2.294 Y-10.626 F571.000 
G1 X2.261 Y-10.560 F571.000 
G1 X2.220 Y-10.499 F571.000 
G1 X2.177 Y-10.448 F571.000 
G1 X2.126 Y-10.402 F571.000 
G1 X2.073 Y-10.364 F571.000 
G1 X2.015 Y-10.332 F571.000 
G1 X1.953 Y-10.307 F571.000 
G1 X1.887 Y-10.287 F571.000 
G1 X1.813 Y-10.275 F571.000 
G1 X1.745 Y-10.272 F571.000 
G1 X1.680 Y-10.277 F571.000 
G1 X1.615 Y-10.289 F571.000 
G1 X1.550 Y-10.310 F571.000 
G1 X1.490 Y-10.337 F571.000 
G1 X1.432 Y-10.372 F571.000 
G1 X1.379 Y-10.413 F571.000 
G1 X1.331 Y-10.460 F571.000 
G1 X1.287 Y-10.513 F571.000 
G1 X1.248 Y-10.573 F571.000 
G1 X1.217 Y-10.637 F571.000 
G1 X1.195 Y-10.701 F571.000 
G1 X1.182 Y-10.763 F571.000 
G1 X1.176 Y-10.826 F571.000 
G1 X1.177 Y-10.892 F571.000 
G1 X1.186 Y-10.964 F571.000 
G1 X1.203 Y-11.035 F571.000 
G1 X1.227 Y-11.100 F571.000 
G1 X1.258 Y-11.160 F571.000 
G1 X1.295 Y-11.215 F571.000 
G1 X1.340 Y-11.267 F571.000 
G1 X1.390 Y-11.312 F571.000 
G1 X1.445 Y-11.351 F571.000 
G1 X1.504 Y-11.383 F571.000 
G1 X1.564 Y-11.408 F571.000 
G1 X1.630 Y-11.425 F571.000 
G1 X1.692 Y-11.434 F571.000 
G1 X1.887 Y-11.422 F571.000 
G1 X2.009 Y-11.398 F571.000 
G1 X2.073 Y-11.366 F571.000 
G1 X2.134 Y-11.326 F571.000 
G1 X2.192 Y-11.274 F571.000 
G1 X2.239 Y-11.221 F571.000 
G1 X2.273 Y-11.170 F571.000 
G1 X2.302 Y-11.116 F571.000 
G1 X2.328 Y-11.051 F571.000 
G1 X2.348 Y-10.983 F571.000 
G1 X2.361 Y-10.906 F571.000 
G1 X2.363 Y-10.835 F571.000 
G1 X2.357 Y-10.772 F571.000 
G1 X2.345 Y-10.712 F571.000 
G1 X2.324 Y-10.647 F571.000 
G1 X2.294 Y-10.578 F571.000 
G1 X2.256 Y-10.514 F571.000 
G1 X2.214 Y-10.457 F571.000 
G1 X2.165 Y-10.406 F571.000 
G1 X2.115 Y-10.365 F571.000 
G1 X2.059 Y-10.329 F571.000 
G1 X1.996 Y-10.298 F571.000 
G1 X1.931 Y-10.275 F571.000 
G1 X1.865 Y-10.259 F571.000 
G1 X1.793 Y-10.250 F571.000 
G1 X1.722 Y-10.249 F571.000 
G1 X1.650 Y-10.257 F571.000 
G1 X1.585 Y-10.272 F571.000 
G1 X1.522 Y-10.295 F571.000 
G1 X1.461 Y-10.325 F571.000 
G1 X1.403 Y-10.363 F571.000 
G1 X1.350 Y-10.406 F571.000 
G1 X1.301 Y-10.456 F571.000 
G1 X1.259 Y-10.510 F571.000 
G1 X1.221 Y-10.571 F571.000 
G1 X1.191 Y-10.636 F571.000 
G1 X1.169 Y-10.703 F571.000 
G1 X1.157 Y-10.769 F571.000 
G1 X1.152 Y-10.831 F571.000 
G1 X1.154 Y-10.901 F571.000 
G1 X1.164 Y-10.974 F571.000 
G1 X1.182 Y-11.047 F571.000 
G1 X1.208 Y-11.116 F571.000 
G1 X1.240 Y-11.176 F571.000 
G1 X1.277 Y-11.229 F571.000 
G1 X1.321 Y-11.279 F571.000 
G1 X1.372 Y-11.326 F571.000 
G1 X1.429 Y-11.367 F571.000 
G1 X1.489 Y-11.400 F571.000 
G1 X1.553 Y-11.426 F571.000 
G1 X1.617 Y-11.444 F571.000 
G1 X1.685 Y-11.453 F571.000 
G1 X1.865 Y-11.445 F571.000 
G1 X1.988 Y-11.426 F571.000 
G1 X2.061 Y-11.394 F571.000 
G1 X2.124 Y-11.357 F571.000 
G1 X2.185 Y-11.308 F571.000 
G1 X2.233 Y-11.258 F571.000 
G1 X2.270 Y-11.211 F571.000 
G1 X2.306 Y-11.153 F571.000 
G1 X2.337 Y-11.089 F571.000 
G1 X2.360 Y-11.020 F571.000 
G1 X2.375 Y-10.954 F571.000 
G1 X2.383 Y-10.882 F571.000 
G1 X2.382 Y-10.808 F571.000 
G1 X2.372 Y-10.740 F571.000 
G1 X2.356 Y-10.677 F571.000 
G1 X2.333 Y-10.612 F571.000 
G1 X2.299 Y-10.542 F571.000 
G1 X2.259 Y-10.479 F571.000 
G1 X2.212 Y-10.422 F571.000 
G1 X2.165 Y-10.376 F571.000 
G1 X2.109 Y-10.333 F571.000 
G1 X2.049 Y-10.297 F571.000 
G1 X1.986 Y-10.269 F571.000 
G1 X1.925 Y-10.248 F571.000 
G1 X1.854 Y-10.233 F571.000 
G1 X1.782 Y-10.225 F571.000 
G1 X1.705 Y-10.226 F571.000 
G1 X1.635 Y-10.235 F571.000 
G1 X1.569 Y-10.251 F571.000 
G1 X1.504 Y-10.276 F571.000 
G1 X1.446 Y-10.306 F571.000 
G1 X1.390 Y-10.342 F571.000 
G1 X1.332 Y-10.389 F571.000 
G1 X1.278 Y-10.444 F571.000 
G1 X1.234 Y-10.502 F571.000 
G1 X1.199 Y-10.559 F571.000 
G1 X1.169 Y-10.624 F571.000 
G1 X1.147 Y-10.690 F571.000 
G1 X1.133 Y-10.758 F571.000 
G1 X1.127 Y-10.828 F571.000 
G1 X1.128 Y-10.897 F571.000 
G1 X1.137 Y-10.969 F571.000 
G1 X1.154 Y-11.040 F571.000 
G1 X1.178 Y-11.107 F571.000 
G1 X1.210 Y-11.172 F571.000 
G1 X1.248 Y-11.230 F571.000 
G1 X1.290 Y-11.281 F571.000 
G1 X1.341 Y-11.330 F571.000 
G1 X1.399 Y-11.374 F571.000 
G1 X1.458 Y-11.410 F571.000 
G1 X1.522 Y-11.439 F571.000 
G1 X1.590 Y-11.459 F571.000 
G1 X1.654 Y-11.469 F571.000 
G1 X1.714 Y-11.474 F571.000 
G1 X1.914 Y-11.462 F571.000 
G1 X1.977 Y-11.448 F571.000 
G1 X2.041 Y-11.425 F571.000 
G1 X2.105 Y-11.393 F571.000 
G1 X2.138 Y-11.371 F571.000 
G1 X2.224 Y-11.299 F571.000 
G1 X2.275 Y-11.240 F571.000 
G1 X2.307 Y-11.192 F571.000 
G1 X2.335 Y-11.140 F571.000 
G1 X2.363 Y-11.076 F571.000 
G1 X2.388 Y-10.994 F571.000 
G1 X2.401 Y-10.918 F571.000 
G1 X2.404 Y-10.849 F571.000 
G1 X2.400 Y-10.784 F571.000 
G1 X2.388 Y-10.714 F571.000 
G1 X2.369 Y-10.645 F571.000 
G1 X2.340 Y-10.574 F571.000 
G1 X2.306 Y-10.510 F571.000 
G1 X2.264 Y-10.449 F571.000 
G1 X2.218 Y-10.396 F571.000 
G1 X2.165 Y-10.347 F571.000 
G1 X2.106 Y-10.304 F571.000 
G1 X2.044 Y-10.268 F571.000 
G1 X1.978 Y-10.240 F571.000 
G1 X1.915 Y-10.221 F571.000 
G1 X1.847 Y-10.207 F571.000 
G1 X1.772 Y-10.200 F571.000 
G1 X1.693 Y-10.202 F571.000 
G1 X1.619 Y-10.213 F571.000 
G1 X1.555 Y-10.230 F571.000 
G1 X1.492 Y-10.255 F571.000 
G1 X1.432 Y-10.285 F571.000 
G1 X1.369 Y-10.326 F571.000 
G1 X1.312 Y-10.373 F571.000 
G1 X1.260 Y-10.426 F571.000 
G1 X1.214 Y-10.485 F571.000 
G1 X1.176 Y-10.548 F571.000 
G1 X1.147 Y-10.610 F571.000 
G1 X1.125 Y-10.676 F571.000 
G1 X1.110 Y-10.745 F571.000 
G1 X1.103 Y-10.816 F571.000 
G1 X1.103 Y-10.886 F571.000 
G1 X1.111 Y-10.959 F571.000 
G1 X1.127 Y-11.034 F571.000 
G1 X1.151 Y-11.106 F571.000 
G1 X1.183 Y-11.172 F571.000 
G1 X1.218 Y-11.228 F571.000 
G1 X1.262 Y-11.284 F571.000 
G1 X1.312 Y-11.334 F571.000 
G1 X1.365 Y-11.378 F571.000 
G1 X1.427 Y-11.419 F571.000 
G1 X1.494 Y-11.451 F571.000 
G1 X1.558 Y-11.472 F571.000 
G1 X1.620 Y-11.486 F571.000 
G1 X1.688 Y-11.493 F571.000 
G1 X1.756 Y-11.495 F571.000 
G1 X1.840 Y-11.493 F571.000 
G1 X1.957 Y-11.477 F571.000 
G1 X2.044 Y-11.448 F571.000 
G1 X2.095 Y-11.422 F571.000 
G1 X2.138 Y-11.395 F571.000 
G1 X2.189 Y-11.358 F571.000 
G1 X2.252 Y-11.298 F571.000 
G1 X2.301 Y-11.238 F571.000 
G1 X2.337 Y-11.180 F571.000 
G1 X2.365 Y-11.124 F571.000 
G1 X2.392 Y-11.056 F571.000 
G1 X2.413 Y-10.979 F571.000 
G1 X2.423 Y-10.901 F571.000 
G1 X2.425 Y-10.834 F571.000 
G1 X2.419 Y-10.766 F571.000 
G1 X2.406 Y-10.696 F571.000 
G1 X2.385 Y-10.623 F571.000 
G1 X2.355 Y-10.551 F571.000 
G1 X2.319 Y-10.486 F571.000 
G1 X2.276 Y-10.426 F571.000 
G1 X2.230 Y-10.374 F571.000 
G1 X2.176 Y-10.325 F571.000 
G1 X2.117 Y-10.283 F571.000 
G1 X2.055 Y-10.247 F571.000 
G1 X1.987 Y-10.217 F571.000 
G1 X1.916 Y-10.195 F571.000 
G1 X1.844 Y-10.181 F571.000 
G1 X1.771 Y-10.175 F571.000 
G1 X1.698 Y-10.177 F571.000 
G1 X1.625 Y-10.186 F571.000 
G1 X1.554 Y-10.204 F571.000 
G1 X1.489 Y-10.228 F571.000 
G1 X1.424 Y-10.260 F571.000 
G1 X1.364 Y-10.298 F571.000 
G1 X1.305 Y-10.344 F571.000 
G1 X1.249 Y-10.399 F571.000 
G1 X1.202 Y-10.457 F571.000 
G1 X1.163 Y-10.518 F571.000 
G1 X1.132 Y-10.582 F571.000 
G1 X1.107 Y-10.647 F571.000 
G1 X1.088 Y-10.722 F571.000 
G1 X1.078 Y-10.794 F571.000 
G1 X1.076 Y-10.866 F571.000 
G1 X1.082 Y-10.940 F571.000 
G1 X1.095 Y-11.011 F571.000 
G1 X1.116 Y-11.083 F571.000 
G1 X1.145 Y-11.153 F571.000 
G1 X1.181 Y-11.218 F571.000 
G1 X1.226 Y-11.279 F571.000 
G1 X1.270 Y-11.327 F571.000 
G1 X1.321 Y-11.373 F571.000 
G1 X1.381 Y-11.417 F571.000 
G1 X1.450 Y-11.456 F571.000 
G1 X1.518 Y-11.483 F571.000 
G1 X1.582 Y-11.500 F571.000 
G1 X1.645 Y-11.512 F571.000 
G1 X1.723 Y-11.519 F571.000 
G1 X1.805 Y-11.519 F571.000 
G1 X1.895 Y-11.512 F571.000 
G1 X1.985 Y-11.492 F571.000 
G1 X2.052 Y-11.467 F571.000 
G1 X2.106 Y-11.440 F571.000 
G1 X2.161 Y-11.405 F571.000 
G1 X2.218 Y-11.360 F571.000 
G1 X2.274 Y-11.304 F571.000 
G1 X2.319 Y-11.246 F571.000 
G1 X2.356 Y-11.189 F571.000 
G1 X2.390 Y-11.122 F571.000 
G1 X2.416 Y-11.051 F571.000 
G1 X2.434 Y-10.979 F571.000 
G1 X2.445 Y-10.904 F571.000 
G1 X2.446 Y-10.829 F571.000 
G1 X2.440 Y-10.762 F571.000 
G1 X2.427 Y-10.691 F571.000 
G1 X2.405 Y-10.614 F571.000 
G1 X2.375 Y-10.540 F571.000 
G1 X2.339 Y-10.475 F571.000 
G1 X2.298 Y-10.416 F571.000 
G1 X2.249 Y-10.360 F571.000 
G1 X2.195 Y-10.310 F571.000 
G1 X2.136 Y-10.266 F571.000 
G1 X2.073 Y-10.229 F571.000 
G1 X2.006 Y-10.198 F571.000 
G1 X1.934 Y-10.174 F571.000 
G1 X1.861 Y-10.158 F571.000 
G1 X1.787 Y-10.150 F571.000 
G1 X1.716 Y-10.150 F571.000 
G1 X1.641 Y-10.158 F571.000 
G1 X1.568 Y-10.174 F571.000 
G1 X1.497 Y-10.197 F571.000 
G1 X1.429 Y-10.228 F571.000 
G1 X1.365 Y-10.266 F571.000 
G1 X1.305 Y-10.310 F571.000 
G1 X1.249 Y-10.361 F571.000 
G1 X1.199 Y-10.417 F571.000 
G1 X1.156 Y-10.478 F571.000 
G1 X1.121 Y-10.541 F571.000 
G1 X1.092 Y-10.609 F571.000 
G1 X1.070 Y-10.682 F571.000 
G1 X1.056 Y-10.754 F571.000 
G1 X1.050 Y-10.828 F571.000 
G1 X1.052 Y-10.902 F571.000 
G1 X1.061 Y-10.975 F571.000 
G1 X1.079 Y-11.050 F571.000 
G1 X1.104 Y-11.123 F571.000 
G1 X1.138 Y-11.193 F571.000 
G1 X1.176 Y-11.254 F571.000 
G1 X1.220 Y-11.310 F571.000 
G1 X1.271 Y-11.362 F571.000 
G1 X1.327 Y-11.408 F571.000 
G1 X1.387 Y-11.448 F571.000 
G1 X1.456 Y-11.483 F571.000 
G1 X1.526 Y-11.509 F571.000 
G1 X1.594 Y-11.527 F571.000 
G1 X1.668 Y-11.538 F571.000 
G1 X1.744 Y-11.543 F571.000 
G1 X1.827 Y-11.543 F571.000 
G1 X1.925 Y-11.530 F571.000 
G1 X1.998 Y-11.510 F571.000 
G1 X2.061 Y-11.486 F571.000 
G1 X2.123 Y-11.454 F571.000 
G1 X2.184 Y-11.414 F571.000 
G1 X2.241 Y-11.367 F571.000 
G1 X2.293 Y-11.314 F571.000 
G1 X2.338 Y-11.257 F571.000 
G1 X2.379 Y-11.193 F571.000 
G1 X2.412 Y-11.126 F571.000 
G1 X2.437 Y-11.056 F571.000 
G1 X2.455 Y-10.983 F571.000 
G1 X2.466 Y-10.907 F571.000 
G1 X2.468 Y-10.830 F571.000 
G1 X2.462 Y-10.759 F571.000 
G1 X2.450 Y-10.687 F571.000 
G1 X2.427 Y-10.609 F571.000 
G1 X2.398 Y-10.538 F571.000 
G1 X2.362 Y-10.470 F571.000 
G1 X2.320 Y-10.408 F571.000 
G1 X2.271 Y-10.349 F571.000 
G1 X2.215 Y-10.295 F571.000 
G1 X2.154 Y-10.249 F571.000 
G1 X2.094 Y-10.212 F571.000 
G1 X2.026 Y-10.180 F571.000 
G1 X1.957 Y-10.155 F571.000 
G1 X1.882 Y-10.136 F571.000 
G1 X1.805 Y-10.126 F571.000 
G1 X1.729 Y-10.124 F571.000 
G1 X1.657 Y-10.130 F571.000 
G1 X1.583 Y-10.144 F571.000 
G1 X1.509 Y-10.166 F571.000 
G1 X1.440 Y-10.194 F571.000 
G1 X1.372 Y-10.231 F571.000 
G1 X1.310 Y-10.273 F571.000 
G1 X1.250 Y-10.323 F571.000 
G1 X1.197 Y-10.378 F571.000 
G1 X1.149 Y-10.440 F571.000 
G1 X1.110 Y-10.505 F571.000 
G1 X1.079 Y-10.570 F571.000 
G1 X1.054 Y-10.640 F571.000 
G1 X1.036 Y-10.716 F571.000 
G1 X1.026 Y-10.790 F571.000 
G1 X1.024 Y-10.865 F571.000 
G1 X1.030 Y-10.940 F571.000 
G1 X1.043 Y-11.014 F571.000 
G1 X1.065 Y-11.090 F571.000 
G1 X1.094 Y-11.161 F571.000 
G1 X1.130 Y-11.229 F571.000 
G1 X1.174 Y-11.293 F571.000 
G1 X1.223 Y-11.349 F571.000 
G1 X1.273 Y-11.396 F571.000 
G1 X1.332 Y-11.441 F571.000 
G1 X1.397 Y-11.480 F571.000 
G1 X1.465 Y-11.512 F571.000 
G1 X1.536 Y-11.537 F571.000 
G1 X1.609 Y-11.554 F571.000 
G1 X1.684 Y-11.565 F571.000 
G1 X1.767 Y-11.569 F571.000 
G1 X1.852 Y-11.564 F571.000 
G1 X1.933 Y-11.551 F571.000 
G1 X2.009 Y-11.530 F571.000 
G1 X2.078 Y-11.502 F571.000 
G1 X2.141 Y-11.469 F571.000 
G1 X2.203 Y-11.427 F571.000 
G1 X2.259 Y-11.380 F571.000 
G1 X2.313 Y-11.325 F571.000 
G1 X2.360 Y-11.265 F571.000 
G1 X2.400 Y-11.201 F571.000 
G1 X2.433 Y-11.133 F571.000 
G1 X2.459 Y-11.061 F571.000 
G1 X2.477 Y-10.988 F571.000 
G1 X2.488 Y-10.913 F571.000 
G1 X2.491 Y-10.835 F571.000 
G1 X2.486 Y-10.759 F571.000 
G1 X2.473 Y-10.684 F571.000 
G1 X2.452 Y-10.609 F571.000 
G1 X2.424 Y-10.538 F571.000 
G1 X2.388 Y-10.469 F571.000 
G1 X2.346 Y-10.404 F571.000 
G1 X2.296 Y-10.341 F571.000 
G1 X2.239 Y-10.284 F571.000 
G1 X2.181 Y-10.237 F571.000 
G1 X2.120 Y-10.198 F571.000 
G1 X2.056 Y-10.166 F571.000 
G1 X1.986 Y-10.138 F571.000 
G1 X1.905 Y-10.116 F571.000 
G1 X1.825 Y-10.102 F571.000 
G1 X1.746 Y-10.098 F571.000 
G1 X1.676 Y-10.102 F571.000 
G1 X1.605 Y-10.113 F571.000 
G1 X1.529 Y-10.132 F571.000 
G1 X1.453 Y-10.160 F571.000 
G1 X1.381 Y-10.195 F571.000 
G1 X1.313 Y-10.237 F571.000 
G1 X1.250 Y-10.287 F571.000 
G1 X1.199 Y-10.336 F571.000 
G1 X1.149 Y-10.395 F571.000 
G1 X1.107 Y-10.458 F571.000 
G1 X1.071 Y-10.524 F571.000 
G1 X1.040 Y-10.598 F571.000 
G1 X1.018 Y-10.674 F571.000 
G1 X1.004 Y-10.747 F571.000 
G1 X0.998 Y-10.824 F571.000 
G1 X1.000 Y-10.898 F571.000 
G1 X1.009 Y-10.973 F571.000 
G1 X1.027 Y-11.051 F571.000 
G1 X1.052 Y-11.126 F571.000 
G1 X1.085 Y-11.199 F571.000 
G1 X1.125 Y-11.266 F571.000 
G1 X1.169 Y-11.325 F571.000 
G1 X1.219 Y-11.379 F571.000 
G1 X1.275 Y-11.429 F571.000 
G1 X1.338 Y-11.474 F571.000 
G1 X1.404 Y-11.511 F571.000 
G1 X1.473 Y-11.541 F571.000 
G1 X1.546 Y-11.564 F571.000 
G1 X1.620 Y-11.580 F571.000 
G1 X1.700 Y-11.590 F571.000 
G1 X1.789 Y-11.592 F571.000 
G1 X1.872 Y-11.586 F571.000 
G1 X1.952 Y-11.571 F571.000 
G1 X2.025 Y-11.549 F571.000 
G1 X2.093 Y-11.520 F571.000 
G1 X2.158 Y-11.485 F571.000 
G1 X2.222 Y-11.441 F571.000 
G1 X2.281 Y-11.390 F571.000 
G1 X2.333 Y-11.335 F571.000 
G1 X2.380 Y-11.274 F571.000 
G1 X2.421 Y-11.209 F571.000 
G1 X2.456 Y-11.137 F571.000 
G1 X2.482 Y-11.063 F571.000 
G1 X2.500 Y-10.992 F571.000 
G1 X2.511 Y-10.915 F571.000 
G1 X2.514 Y-10.839 F571.000 
G1 X2.509 Y-10.761 F571.000 
G1 X2.496 Y-10.684 F571.000 
G1 X2.476 Y-10.608 F571.000 
G1 X2.447 Y-10.531 F571.000 
G1 X2.411 Y-10.460 F571.000 
G1 X2.369 Y-10.394 F571.000 
G1 X2.321 Y-10.333 F571.000 
G1 X2.267 Y-10.277 F571.000 
G1 X2.207 Y-10.227 F571.000 
G1 X2.142 Y-10.184 F571.000 
G1 X2.074 Y-10.148 F571.000 
G1 X2.001 Y-10.118 F571.000 
G1 X1.927 Y-10.095 F571.000 
G1 X1.848 Y-10.080 F571.000 
G1 X1.770 Y-10.073 F571.000 
G1 X1.691 Y-10.075 F571.000 
G1 X1.617 Y-10.084 F571.000 
G1 X1.542 Y-10.101 F571.000 
G1 X1.469 Y-10.125 F571.000 
G1 X1.395 Y-10.158 F571.000 
G1 X1.325 Y-10.198 F571.000 
G1 X1.261 Y-10.243 F571.000 
G1 X1.202 Y-10.294 F571.000 
G1 X1.149 Y-10.352 F571.000 
G1 X1.104 Y-10.413 F571.000 
G1 X1.065 Y-10.477 F571.000 
G1 X1.031 Y-10.549 F571.000 
G1 X1.004 Y-10.625 F571.000 
G1 X0.985 Y-10.703 F571.000 
G1 X0.971 Y-10.826 F571.000 
G1 X0.973 Y-10.916 F571.000 
G1 X0.983 Y-10.991 F571.000 
G1 X1.017 Y-11.111 F571.000 
G1 X1.069 Y-11.224 F571.000 
G1 X1.109 Y-11.288 F571.000 
G1 X1.145 Y-11.335 F571.000 
G1 X1.192 Y-11.387 F571.000 
G1 X1.254 Y-11.443 F571.000 
G1 X1.322 Y-11.492 F571.000 
G1 X1.391 Y-11.531 F571.000 
G1 X1.460 Y-11.562 F571.000 
G1 X1.536 Y-11.586 F571.000 
G1 X1.609 Y-11.602 F571.000 
G1 X1.690 Y-11.613 F571.000 
G1 X1.775 Y-11.617 F571.000 
G1 X1.864 Y-11.612 F571.000 
G1 X1.948 Y-11.597 F571.000 
G1 X2.019 Y-11.576 F571.000 
G1 X2.084 Y-11.549 F571.000 
G1 X2.150 Y-11.514 F571.000 
G1 X2.217 Y-11.472 F571.000 
G1 X2.287 Y-11.415 F571.000 
G1 X2.342 Y-11.360 F571.000 
G1 X2.389 Y-11.301 F571.000 
G1 X2.429 Y-11.240 F571.000 
G1 X2.466 Y-11.169 F571.000 
G1 X2.494 Y-11.097 F571.000 
G1 X2.516 Y-11.020 F571.000 
G1 X2.531 Y-10.940 F571.000 
G1 X2.537 Y-10.859 F571.000 
G1 X2.535 Y-10.785 F571.000 
G1 X2.526 Y-10.708 F571.000 
G1 X2.508 Y-10.629 F571.000 
G1 X2.482 Y-10.554 F571.000 
G1 X2.450 Y-10.482 F571.000 
G1 X2.410 Y-10.413 F571.000 
G1 X2.363 Y-10.346 F571.000 
G1 X2.309 Y-10.284 F571.000 
G1 X2.210 Y-10.200 F571.000 
G1 X2.125 Y-10.147 F571.000 
G1 X2.005 Y-10.093 F571.000 
G1 X1.900 Y-10.063 F571.000 
G1 X1.824 Y-10.051 F571.000 
G1 X1.699 Y-10.048 F571.000 
G1 X1.598 Y-10.061 F571.000 
G1 X1.532 Y-10.076 F571.000 
G1 X1.467 Y-10.097 F571.000 
G1 X1.397 Y-10.127 F571.000 
G1 X1.323 Y-10.168 F571.000 
G1 X1.253 Y-10.216 F571.000 
G1 X1.188 Y-10.271 F571.000 
G1 X1.132 Y-10.331 F571.000 
G1 X1.089 Y-10.387 F571.000 
G1 X1.049 Y-10.450 F571.000 
G1 X1.013 Y-10.521 F571.000 
G1 X0.962 Y-10.674 F571.000 
G1 X0.941 Y-10.824 F571.000 
G1 X0.943 Y-10.914 F571.000 
G1 X0.976 Y-11.079 F571.000 
G1 X0.986 Y-11.109 F571.000 
G1 X1.037 Y-11.223 F571.000 
G1 X1.052 Y-11.250 F571.000 
G1 X1.112 Y-11.337 F571.000 
G1 X1.170 Y-11.402 F571.000 
G1 X1.223 Y-11.451 F571.000 
G1 X1.282 Y-11.496 F571.000 
G1 X1.348 Y-11.536 F571.000 
G1 X1.422 Y-11.572 F571.000 
G1 X1.502 Y-11.601 F571.000 
G1 X1.579 Y-11.621 F571.000 
G1 X1.658 Y-11.634 F571.000 
G1 X1.740 Y-11.640 F571.000 
G1 X1.829 Y-11.639 F571.000 
G1 X1.919 Y-11.627 F571.000 
G1 X1.991 Y-11.609 F571.000 
G1 X2.059 Y-11.585 F571.000 
G1 X2.130 Y-11.552 F571.000 
G1 X2.201 Y-11.510 F571.000 
G1 X2.267 Y-11.463 F571.000 
G1 X2.329 Y-11.408 F571.000 
G1 X2.384 Y-11.347 F571.000 
G1 X2.427 Y-11.286 F571.000 
G1 X2.464 Y-11.224 F571.000 
G1 X2.500 Y-11.149 F571.000 
G1 X2.527 Y-11.068 F571.000 
G1 X2.545 Y-10.996 F571.000 
G1 X2.557 Y-10.912 F571.000 
G1 X2.560 Y-10.831 F571.000 
G1 X2.556 Y-10.752 F571.000 
G1 X2.543 Y-10.671 F571.000 
G1 X2.522 Y-10.592 F571.000 
G1 X2.493 Y-10.517 F571.000 
G1 X2.460 Y-10.449 F571.000 
G1 X2.417 Y-10.379 F571.000 
G1 X2.367 Y-10.312 F571.000 
G1 X2.298 Y-10.240 F571.000 
G1 X2.150 Y-10.134 F571.000 
G1 X1.999 Y-10.065 F571.000 
G1 X1.887 Y-10.035 F571.000 
G1 X1.840 Y-10.027 F571.000 
G1 X1.761 Y-10.021 F571.000 
G1 X1.636 Y-10.027 F571.000 
G1 X1.531 Y-10.048 F571.000 
G1 X1.466 Y-10.068 F571.000 
G1 X1.405 Y-10.093 F571.000 
G1 X1.337 Y-10.129 F571.000 
G1 X1.264 Y-10.175 F571.000 
G1 X1.192 Y-10.232 F571.000 
G1 X1.133 Y-10.289 F571.000 
G1 X1.080 Y-10.353 F571.000 
G1 X1.038 Y-10.415 F571.000 
G1 X1.000 Y-10.485 F571.000 
G1 X0.942 Y-10.632 F571.000 
G1 X0.913 Y-10.782 F571.000 
G1 X0.915 Y-10.947 F571.000 
G1 X0.941 Y-11.067 F571.000 
G1 X0.984 Y-11.182 F571.000 
G1 X1.053 Y-11.303 F571.000 
G1 X1.073 Y-11.330 F571.000 
G1 X1.134 Y-11.402 F571.000 
G1 X1.205 Y-11.469 F571.000 
G1 X1.271 Y-11.519 F571.000 
G1 X1.337 Y-11.559 F571.000 
G1 X1.402 Y-11.590 F571.000 
G1 X1.477 Y-11.619 F571.000 
G1 X1.563 Y-11.643 F571.000 
G1 X1.651 Y-11.659 F571.000 
G1 X1.736 Y-11.666 F571.000 
G1 X1.819 Y-11.665 F571.000 
G1 X1.904 Y-11.655 F571.000 
G1 X1.980 Y-11.637 F571.000 
G1 X2.050 Y-11.613 F571.000 
G1 X2.215 Y-11.522 F571.000 
G1 X2.291 Y-11.464 F571.000 
G1 X2.384 Y-11.380 F571.000 
G1 X2.449 Y-11.293 F571.000 
G1 X2.496 Y-11.211 F571.000 
G1 X2.529 Y-11.137 F571.000 
G1 X2.554 Y-11.061 F571.000 
G1 X2.572 Y-10.983 F571.000 
G1 X2.582 Y-10.903 F571.000 
G1 X2.584 Y-10.823 F571.000 
G1 X2.578 Y-10.743 F571.000 
G1 X2.564 Y-10.661 F571.000 
G1 X2.542 Y-10.580 F571.000 
G1 X2.514 Y-10.504 F571.000 
G1 X2.477 Y-10.429 F571.000 
G1 X2.434 Y-10.360 F571.000 
G1 X2.374 Y-10.283 F571.000 
G1 X2.223 Y-10.151 F571.000 
G1 X2.108 Y-10.083 F571.000 
G1 X1.937 Y-10.018 F571.000 
G1 X1.809 Y-9.995 F571.000 
G1 X1.777 Y-9.993 F571.000 
G1 X1.652 Y-9.998 F571.000 
G1 X1.617 Y-10.002 F571.000 
G1 X1.502 Y-10.027 F571.000 
G1 X1.416 Y-10.059 F571.000 
G1 X1.354 Y-10.088 F571.000 
G1 X1.289 Y-10.125 F571.000 
G1 X1.219 Y-10.174 F571.000 
G1 X1.151 Y-10.233 F571.000 
G1 X1.092 Y-10.295 F571.000 
G1 X1.042 Y-10.360 F571.000 
G1 X0.954 Y-10.511 F571.000 
G1 X0.914 Y-10.613 F571.000 
G1 X0.887 Y-10.718 F571.000 
G1 X0.876 Y-10.868 F571.000 
G1 X0.899 Y-11.033 F571.000 
G1 X0.949 Y-11.178 F571.000 
G1 X1.008 Y-11.286 F571.000 
G1 X1.093 Y-11.397 F571.000 
G1 X1.118 Y-11.424 F571.000 
G1 X1.203 Y-11.502 F571.000 
G1 X1.282 Y-11.557 F571.000 
G1 X1.345 Y-11.591 F571.000 
G1 X1.411 Y-11.622 F571.000 
G1 X1.496 Y-11.652 F571.000 
G1 X1.582 Y-11.673 F571.000 
G1 X1.669 Y-11.687 F571.000 
G1 X1.758 Y-11.692 F571.000 
G1 X1.840 Y-11.689 F571.000 
G1 X1.951 Y-11.668 F571.000 
G1 X2.153 Y-11.580 F571.000 
G1 X2.259 Y-11.511 F571.000 
G1 X2.367 Y-11.418 F571.000 
G1 X2.407 Y-11.378 F571.000 
G1 X2.455 Y-11.318 F571.000 
G1 X2.522 Y-11.212 F571.000 
G1 X2.562 Y-11.116 F571.000 
G1 X2.580 Y-11.053 F571.000 
G1 X2.593 Y-10.994 F571.000 
G1 X2.604 Y-10.911 F571.000 
G1 X2.607 Y-10.817 F571.000 
G1 X2.600 Y-10.726 F571.000 
G1 X2.586 Y-10.649 F571.000 
G1 X2.566 Y-10.576 F571.000 
G1 X2.538 Y-10.499 F571.000 
G1 X2.498 Y-10.417 F571.000 
G1 X2.453 Y-10.344 F571.000 
G1 X2.304 Y-10.185 F571.000 
G1 X2.182 Y-10.094 F571.000 
G1 X2.034 Y-10.021 F571.000 
G1 X1.906 Y-9.982 F571.000 
G1 X1.810 Y-9.966 F571.000 
G1 X1.666 Y-9.965 F571.000 
G1 X1.602 Y-9.974 F571.000 
G1 X1.480 Y-10.004 F571.000 
G1 X1.447 Y-10.015 F571.000 
G1 X1.348 Y-10.059 F571.000 
G1 X1.260 Y-10.110 F571.000 
G1 X1.193 Y-10.159 F571.000 
G1 X1.132 Y-10.211 F571.000 
G1 X1.012 Y-10.346 F571.000 
G1 X0.951 Y-10.439 F571.000 
G1 X0.892 Y-10.568 F571.000 
G1 X0.858 Y-10.688 F571.000 
G1 X0.858 Y-10.988 F571.000 
G1 X0.903 Y-11.150 F571.000 
G1 X0.981 Y-11.298 F571.000 
G1 X1.056 Y-11.397 F571.000 
G1 X1.142 Y-11.486 F571.000 
G1 X1.251 Y-11.568 F571.000 
G1 X1.340 Y-11.618 F571.000 
G1 X1.413 Y-11.650 F571.000 
G1 X1.486 Y-11.676 F571.000 
G1 X1.572 Y-11.697 F571.000 
G1 X1.662 Y-11.711 F571.000 
G1 X1.754 Y-11.716 F571.000 
G1 X1.838 Y-11.712 F571.000 
G1 X1.918 Y-11.698 F571.000 
G1 X2.150 Y-11.602 F571.000 
G1 X2.343 Y-11.464 F571.000 
G1 X2.432 Y-11.372 F571.000 
G1 X2.511 Y-11.275 F571.000 
G1 X2.555 Y-11.192 F571.000 
G1 X2.570 Y-11.157 F571.000 
G1 X2.604 Y-11.056 F571.000 
G1 X2.626 Y-10.941 F571.000 
G1 X2.631 Y-10.870 F571.000 
G1 X2.631 Y-10.803 F571.000 
G1 X2.623 Y-10.723 F571.000 
G1 X2.608 Y-10.638 F571.000 
G1 X2.582 Y-10.545 F571.000 
G1 X2.551 Y-10.465 F571.000 
G1 X2.485 Y-10.350 F571.000 
G1 X2.341 Y-10.186 F571.000 
G1 X2.225 Y-10.092 F571.000 
G1 X2.050 Y-9.997 F571.000 
G1 X1.922 Y-9.957 F571.000 
G1 X1.746 Y-9.934 F571.000 
G1 X1.618 Y-9.941 F571.000 
G1 X1.490 Y-9.968 F571.000 
G1 X1.338 Y-10.026 F571.000 
G1 X1.187 Y-10.117 F571.000 
G1 X1.066 Y-10.222 F571.000 
G1 X0.982 Y-10.319 F571.000 
G1 X0.921 Y-10.411 F571.000 
G1 X0.862 Y-10.539 F571.000 
G1 X0.862 Y-10.539 F571.000 
G1 X0.862 Y-10.548 F571.000 
G0 X0.863 Y-10.550 
G0 X0.865 Y-10.553 
G0 X0.912 Y-10.593 
G0 X0.892 Y-10.777 
G0 X0.906 Y-10.944 
G0 X0.867 Y-10.973 
G1 X0.866 Y-10.974 F571.000 
G1 X0.855 Y-10.996 F571.000 
G1 X0.855 Y-10.996 F571.000 
G1 X0.858 Y-10.996 F571.000 
G1 X0.855 Y-11.056 F571.000 
G1 X0.860 Y-11.101 F571.000 
G1 X0.897 Y-11.202 F571.000 
G1 X0.975 Y-11.336 F571.000 
G1 X1.105 Y-11.487 F571.000 
G1 X1.213 Y-11.575 F571.000 
G1 X1.272 Y-11.612 F571.000 
G1 X1.369 Y-11.661 F571.000 
G1 X1.486 Y-11.704 F571.000 
G1 X1.574 Y-11.725 F571.000 
G1 X1.648 Y-11.736 F571.000 
G1 X1.726 Y-11.740 F571.000 
G1 X1.826 Y-11.736 F571.000 
G1 X1.931 Y-11.713 F571.000 
G1 X2.078 Y-11.658 F571.000 
G1 X2.305 Y-11.516 F571.000 
G1 X2.454 Y-11.373 F571.000 
G1 X2.522 Y-11.287 F571.000 
G1 X2.544 Y-11.254 F571.000 
G1 X2.581 Y-11.184 F571.000 
G1 X2.625 Y-11.067 F571.000 
G1 X2.645 Y-10.977 F571.000 
G1 X2.653 Y-10.909 F571.000 
G1 X2.656 Y-10.840 F571.000 
G1 X2.651 Y-10.758 F571.000 
G1 X2.639 Y-10.672 F571.000 
G1 X2.619 Y-10.581 F571.000 
G1 X2.589 Y-10.490 F571.000 
G1 X2.505 Y-10.346 F571.000 
G1 X2.391 Y-10.202 F571.000 
G1 X2.306 Y-10.122 F571.000 
G1 X2.031 Y-9.965 F571.000 
G1 X1.904 Y-9.926 F571.000 
G1 X1.728 Y-9.904 F571.000 
G1 X1.600 Y-9.912 F571.000 
G1 X1.472 Y-9.939 F571.000 
G1 X1.350 Y-9.982 F571.000 
G1 X1.153 Y-10.096 F571.000 
G1 X1.032 Y-10.202 F571.000 
G1 X0.958 Y-10.286 F571.000 
G1 X0.896 Y-10.377 F571.000 
G1 X0.889 Y-10.391 F571.000 
G1 X0.889 Y-10.391 F571.000 
G1 X0.888 Y-10.400 F571.000 
G0 X0.889 Y-10.402 
G0 X0.893 Y-10.409 
G0 X0.937 Y-10.486 
G0 X0.904 Y-10.752 
G0 X0.909 Y-11.011 
G0 X0.866 Y-11.065 
G0 X0.865 Y-11.067 
G1 X0.864 Y-11.068 F571.000 
G1 X0.855 Y-11.092 F571.000 
G1 X0.855 Y-11.092 F571.000 
G1 X0.863 Y-11.167 F571.000 
G1 X0.883 Y-11.225 F571.000 
G1 X0.950 Y-11.346 F571.000 
G1 X1.045 Y-11.464 F571.000 
G1 X1.183 Y-11.585 F571.000 
G1 X1.329 Y-11.671 F571.000 
G1 X1.363 Y-11.686 F571.000 
G1 X1.463 Y-11.724 F571.000 
G1 X1.575 Y-11.752 F571.000 
G1 X1.800 Y-11.753 F571.000 
G1 X1.965 Y-11.722 F571.000 
G1 X2.123 Y-11.654 F571.000 
G1 X2.296 Y-11.546 F571.000 
G1 X2.469 Y-11.383 F571.000 
G1 X2.555 Y-11.265 F571.000 
G1 X2.611 Y-11.161 F571.000 
G1 X2.639 Y-11.089 F571.000 
G1 X2.671 Y-10.968 F571.000 
G1 X2.680 Y-10.867 F571.000 
G1 X2.679 Y-10.803 F571.000 
G1 X2.674 Y-10.738 F571.000 
G1 X2.658 Y-10.639 F571.000 
G1 X2.621 Y-10.527 F571.000 
G1 X2.540 Y-10.362 F571.000 
G1 X2.464 Y-10.252 F571.000 
G1 X2.397 Y-10.176 F571.000 
G1 X2.385 Y-10.165 F571.000 
G1 X2.385 Y-10.165 F571.000 
G1 X2.372 Y-10.160 F571.000 
G0 X2.370 Y-10.160 
G0 X0.879 Y-11.132 
G1 X0.873 Y-11.136 F571.000 
G1 X0.858 Y-11.160 F571.000 
G1 X0.858 Y-11.160 F571.000 
G1 X0.866 Y-11.220 F571.000 
G1 X0.921 Y-11.346 F571.000 
G1 X1.033 Y-11.490 F571.000 
G1 X1.148 Y-11.591 F571.000 
G1 X1.334 Y-11.699 F571.000 
G1 X1.508 Y-11.759 F571.000 
G1 X1.673 Y-11.776 F571.000 
G1 X1.793 Y-11.774 F571.000 
G1 X1.943 Y-11.748 F571.000 
G1 X2.076 Y-11.698 F571.000 
G1 X2.214 Y-11.624 F571.000 
G1 X2.342 Y-11.531 F571.000 
G1 X2.459 Y-11.420 F571.000 
G1 X2.565 Y-11.279 F571.000 
G1 X2.632 Y-11.150 F571.000 
G1 X2.676 Y-11.011 F571.000 
G1 X2.697 Y-10.891 F571.000 
G1 X2.696 Y-10.763 F571.000 
G1 X2.667 Y-10.603 F571.000 
G1 X2.595 Y-10.417 F571.000 
G1 X2.528 Y-10.302 F571.000 
G1 X2.457 Y-10.208 F571.000 
G1 X2.429 Y-10.190 F571.000 
G1 X2.429 Y-10.190 F571.000 
G1 X2.416 Y-10.186 F571.000 
G0 X2.414 Y-10.186 
G0 X0.883 Y-11.196 
G1 X0.877 Y-11.200 F571.000 
G1 X0.864 Y-11.224 F571.000 
G1 X0.864 Y-11.224 F571.000 
G1 X0.886 Y-11.314 F571.000 
G1 X0.945 Y-11.422 F571.000 
G1 X1.012 Y-11.505 F571.000 
G1 X1.151 Y-11.623 F571.000 
G1 X1.311 Y-11.715 F571.000 
G1 X1.471 Y-11.772 F571.000 
G1 X1.666 Y-11.798 F571.000 
G1 X1.786 Y-11.795 F571.000 
G1 X1.906 Y-11.777 F571.000 
G1 X2.097 Y-11.709 F571.000 
G1 X2.181 Y-11.665 F571.000 
G1 X2.299 Y-11.588 F571.000 
G1 X2.443 Y-11.462 F571.000 
G1 X2.564 Y-11.311 F571.000 
G1 X2.635 Y-11.183 F571.000 
G1 X2.674 Y-11.077 F571.000 
G1 X2.708 Y-10.933 F571.000 
G1 X2.715 Y-10.789 F571.000 
G1 X2.692 Y-10.629 F571.000 
G1 X2.629 Y-10.440 F571.000 
G1 X2.592 Y-10.365 F571.000 
G1 X2.519 Y-10.253 F571.000 
G1 X2.507 Y-10.241 F571.000 
G1 X2.507 Y-10.241 F571.000 
G1 X2.494 Y-10.236 F571.000 
G0 X2.492 Y-10.236 
G0 X0.908 Y-11.304 
G1 X0.901 Y-11.308 F571.000 
G1 X0.889 Y-11.327 F571.000 
G1 X0.890 Y-11.332 F571.000 
G1 X0.890 Y-11.332 F571.000 
G1 X0.937 Y-11.446 F571.000 
G1 X1.003 Y-11.530 F571.000 
G1 X1.130 Y-11.638 F571.000 
G1 X1.275 Y-11.724 F571.000 
G1 X1.432 Y-11.784 F571.000 
G1 X1.612 Y-11.816 F571.000 
G1 X1.792 Y-11.814 F571.000 
G1 X1.912 Y-11.795 F571.000 
G1 X2.032 Y-11.757 F571.000 
G1 X2.282 Y-11.617 F571.000 
G1 X2.395 Y-11.532 F571.000 
G1 X2.526 Y-11.393 F571.000 
G1 X2.624 Y-11.244 F571.000 
G1 X2.686 Y-11.094 F571.000 
G1 X2.720 Y-10.950 F571.000 
G1 X2.730 Y-10.854 F571.000 
G1 X2.727 Y-10.726 F571.000 
G1 X2.704 Y-10.598 F571.000 
G1 X2.651 Y-10.439 F571.000 
G1 X2.582 Y-10.307 F571.000 
G1 X2.559 Y-10.283 F571.000 
G1 X2.546 Y-10.273 F571.000 
G1 X2.546 Y-10.273 F571.000 
G1 X2.533 Y-10.268 F571.000 
G0 X2.531 Y-10.268 
G0 X0.949 Y-11.419 
G1 X0.943 Y-11.424 F571.000 
G1 X0.932 Y-11.438 F571.000 
G1 X0.934 Y-11.448 F571.000 
G1 X0.934 Y-11.448 F571.000 
G1 X0.999 Y-11.551 F571.000 
G1 X1.041 Y-11.596 F571.000 
G1 X1.203 Y-11.714 F571.000 
G1 X1.341 Y-11.778 F571.000 
G1 X1.536 Y-11.827 F571.000 
G1 X1.746 Y-11.837 F571.000 
G1 X1.836 Y-11.829 F571.000 
G1 X1.941 Y-11.807 F571.000 
G1 X2.082 Y-11.733 F571.000 
G1 X2.082 Y-11.733 F571.000 
G1 X2.088 Y-11.723 F571.000 
G0 X2.088 Y-11.722 
G0 X1.020 Y-11.557 
G1 X1.015 Y-11.556 F571.000 
G1 X1.005 Y-11.558 F571.000 
G1 X1.010 Y-11.570 F571.000 
G1 X1.010 Y-11.570 F571.000 
G1 X1.080 Y-11.651 F571.000 
G1 X1.150 Y-11.709 F571.000 
G1 X1.299 Y-11.786 F571.000 
G1 X1.446 Y-11.832 F571.000 
G1 X1.641 Y-11.857 F571.000 
G1 X1.761 Y-11.855 F571.000 
G1 X1.851 Y-11.842 F571.000 
G1 X1.911 Y-11.821 F571.000 
G1 X1.911 Y-11.821 F571.000 
G1 X1.919 Y-11.814 F571.000 
G0 X1.919 Y-11.813 
G0 X1.907 Y-11.808 
G0 X1.513 Y-11.717 
G0 X1.163 Y-11.692 
G0 X1.139 Y-11.690 
G1 X1.136 Y-11.690 F571.000 
G1 X1.129 Y-11.691 F571.000 
G1 X1.136 Y-11.704 F571.000 
G1 X1.136 Y-11.704 F571.000 
G1 X1.209 Y-11.758 F571.000 
G1 X1.359 Y-11.831 F571.000 
G1 X1.463 Y-11.859 F571.000 
G1 X1.613 Y-11.875 F571.000 
G1 X1.688 Y-11.875 F571.000 
G1 X1.778 Y-11.862 F571.000 
G1 X1.853 Y-11.843 F571.000 
G1 X1.853 Y-11.843 F571.000 
G1 X1.861 Y-11.836 F571.000 
G0 X1.861 Y-11.835 
G0 X1.851 Y-11.832 
G0 X1.504 Y-11.795 
G0 X1.419 Y-11.833 
G0 X1.414 Y-11.836 
G1 X1.412 Y-11.837 F571.000 
G1 X1.405 Y-11.842 F571.000 
G1 X1.417 Y-11.851 F571.000 
G1 X1.417 Y-11.851 F571.000 
G1 X1.522 Y-11.872 F571.000 
G1 X1.627 Y-11.878 F571.000 
G1 X1.657 Y-11.877 F571.000 
G1 X1.657 Y-11.877 F571.000 
G1 X1.666 Y-11.872 F571.000 
G0 X1.668 Y-11.871 
G0 X1.681 Y-11.864 
G0 X2.133 Y-11.622 
G0 X2.275 Y-11.606 
G0 X2.282 Y-11.605 
G1 X2.284 Y-11.605 F571.000 
G1 X2.310 Y-11.601 F571.000 
G1 X2.310 Y-11.601 F571.000 
G1 X2.403 Y-11.542 F571.000 
G1 X2.506 Y-11.441 F571.000 
G1 X2.602 Y-11.314 F571.000 
G1 X2.687 Y-11.139 F571.000 
G1 X2.724 Y-11.012 F571.000 
G1 X2.745 Y-10.884 F571.000 
G1 X2.743 Y-10.724 F571.000 
G1 X2.727 Y-10.612 F571.000 
G1 X2.659 Y-10.407 F571.000 
G1 X2.645 Y-10.377 F571.000 
G1 X2.615 Y-10.338 F571.000 
G1 X2.603 Y-10.326 F571.000 
G1 X2.603 Y-10.326 F571.000 
G1 X2.592 Y-10.319 F571.000 
G0 X2.590 Y-10.319 
G0 X2.367 Y-11.545 
G1 X2.366 Y-11.551 F571.000 
G1 X2.367 Y-11.562 F571.000 
G1 X2.380 Y-11.561 F571.000 
G1 X2.380 Y-11.561 F571.000 
G1 X2.460 Y-11.508 F571.000 
G1 X2.558 Y-11.404 F571.000 
G1 X2.646 Y-11.269 F571.000 
G1 X2.715 Y-11.106 F571.000 
G1 X2.756 Y-10.930 F571.000 
G1 X2.765 Y-10.850 F571.000 
G1 X2.751 Y-10.642 F571.000 
G1 X2.704 Y-10.466 F571.000 
G1 X2.691 Y-10.435 F571.000 
G1 X2.642 Y-10.368 F571.000 
G1 X2.642 Y-10.368 F571.000 
G1 X2.631 Y-10.361 F571.000 
G0 X2.629 Y-10.361 
G0 X2.439 Y-11.503 
G1 X2.438 Y-11.508 F571.000 
G1 X2.439 Y-11.519 F571.000 
G1 X2.452 Y-11.518 F571.000 
G1 X2.452 Y-11.518 F571.000 
G1 X2.516 Y-11.471 F571.000 
G1 X2.589 Y-11.386 F571.000 
G1 X2.659 Y-11.277 F571.000 
G1 X2.719 Y-11.145 F571.000 
G1 X2.772 Y-10.939 F571.000 
G1 X2.782 Y-10.779 F571.000 
G1 X2.762 Y-10.603 F571.000 
G1 X2.741 Y-10.523 F571.000 
G1 X2.728 Y-10.492 F571.000 
G1 X2.684 Y-10.422 F571.000 
G1 X2.684 Y-10.422 F571.000 
G1 X2.673 Y-10.413 F571.000 
G0 X2.672 Y-10.413 
G0 X2.489 Y-11.470 
G1 X2.488 Y-11.475 F571.000 
G1 X2.489 Y-11.486 F571.000 
G1 X2.502 Y-11.485 F571.000 
G1 X2.502 Y-11.485 F571.000 
G1 X2.575 Y-11.423 F571.000 
G1 X2.644 Y-11.333 F571.000 
G1 X2.712 Y-11.204 F571.000 
G1 X2.762 Y-11.067 F571.000 
G1 X2.795 Y-10.891 F571.000 
G1 X2.801 Y-10.779 F571.000 
G1 X2.785 Y-10.635 F571.000 
G1 X2.758 Y-10.556 F571.000 
G1 X2.744 Y-10.526 F571.000 
G1 X2.744 Y-10.526 F571.000 
G1 X2.735 Y-10.516 F571.000 
G0 X2.734 Y-10.516 
G0 X2.578 Y-11.399 
G1 X2.577 Y-11.404 F571.000 
G1 X2.578 Y-11.414 F571.000 
G1 X2.590 Y-11.410 F571.000 
G1 X2.590 Y-11.410 F571.000 
G1 X2.644 Y-11.352 F571.000 
G1 X2.705 Y-11.258 F571.000 
G1 X2.776 Y-11.078 F571.000 
G1 X2.805 Y-10.950 F571.000 
G1 X2.817 Y-10.838 F571.000 
G1 X2.812 Y-10.742 F571.000 
G1 X2.791 Y-10.646 F571.000 
G1 X2.791 Y-10.646 F571.000 
G1 X2.784 Y-10.635 F571.000 
G0 X2.783 Y-10.635 
G0 X2.651 Y-11.321 
G1 X2.650 Y-11.325 F571.000 
G1 X2.651 Y-11.334 F571.000 
G1 X2.662 Y-11.329 F571.000 
G1 X2.662 Y-11.329 F571.000 
G1 X2.682 Y-11.304 F571.000 
G1 X2.732 Y-11.221 F571.000 
G1 X2.793 Y-11.070 F571.000 
G1 X2.821 Y-10.910 F571.000 
G1 X2.820 Y-10.814 F571.000 
G1 X2.818 Y-10.798 F571.000 
G1 X2.818 Y-10.798 F571.000 
G1 X2.815 Y-10.791 F571.000 
G0 X2.814 Y-10.791 
G0 X2.809 Y-10.794 
G0 X2.759 Y-10.862 
G0 X2.761 Y-10.950 
G0 X2.743 Y-11.029 
G0 X2.772 Y-11.086 
G0 X2.773 Y-11.088 
G1 X2.775 Y-11.090 F571.000 
G1 X2.782 Y-11.096 F571.000 
G1 X2.786 Y-11.093 F571.000 
G1 X2.786 Y-11.093 F571.000 
G1 X2.791 Y-11.078 F571.000 
G1 X2.791 Y-11.078 F571.000 
G1 X2.791 Y-11.065 F571.000 
G0 X2.790 Y-11.063 
G0 X2.057 Y-9.990 
G1 X2.054 Y-9.985 F571.000 
G1 X2.040 Y-9.965 F571.000 
G1 X2.040 Y-9.965 F571.000 
G1 X1.920 Y-9.908 F571.000 
G1 X1.840 Y-9.887 F571.000 
G1 X1.664 Y-9.876 F571.000 
G1 X1.520 Y-9.894 F571.000 
G1 X1.378 Y-9.934 F571.000 
G1 X1.259 Y-9.986 F571.000 
G1 X1.122 Y-10.072 F571.000 
G1 X0.991 Y-10.187 F571.000 
G1 X0.970 Y-10.211 F571.000 
G1 X0.962 Y-10.225 F571.000 
G1 X0.962 Y-10.225 F571.000 
G1 X0.958 Y-10.234 F571.000 
G0 X0.958 Y-10.234 
G0 X1.924 Y-9.925 
G1 X1.928 Y-9.923 F571.000 
G1 X1.938 Y-9.917 F571.000 
G1 X1.933 Y-9.910 F571.000 
G1 X1.933 Y-9.910 F571.000 
G1 X1.839 Y-9.876 F571.000 
G1 X1.759 Y-9.857 F571.000 
G1 X1.631 Y-9.848 F571.000 
G1 X1.423 Y-9.886 F571.000 
G1 X1.300 Y-9.929 F571.000 
G1 X1.170 Y-9.995 F571.000 
G1 X1.132 Y-10.023 F571.000 
G1 X1.132 Y-10.023 F571.000 
G1 X1.126 Y-10.032 F571.000 
G0 X1.126 Y-10.033 
G0 X1.136 Y-10.032 
G0 X1.558 Y-9.933 
G0 X1.652 Y-9.861 
G0 X1.656 Y-9.857 
G1 X1.658 Y-9.856 F571.000 
G1 X1.663 Y-9.849 F571.000 
G1 X1.655 Y-9.845 F571.000 
G1 X1.655 Y-9.845 F571.000 
G1 X1.527 Y-9.851 F571.000 
G1 X1.352 Y-9.896 F571.000 
G1 X1.337 Y-9.902 F571.000 
G1 X1.337 Y-9.902 F571.000 
G1 X1.326 Y-9.908 F571.000 
G1 X1.324 Y-9.910 F571.000 
G1 X1.305 Y-9.915 F571.000 
G1 X1.305 Y-9.915 F571.000 
G1 X1.275 Y-9.929 F571.000 
G1 X1.275 Y-9.929 F571.000 
G1 X1.265 Y-9.936 F571.000 
G0 X1.264 Y-9.938 
G0 X1.263 Y-9.942 
G0 X1.261 Y-9.992 
G0 X1.203 Y-10.021 
G0 X1.174 Y-10.050 
G0 X1.137 Y-10.035 
G1 X1.135 Y-10.035 F571.000 
G1 X1.115 Y-10.038 F571.000 
G1 X1.115 Y-10.038 F571.000 
G1 X1.068 Y-10.083 F571.000 
G1 X1.068 Y-10.083 F571.000 
G1 X1.062 Y-10.092 F571.000 
G0 X1.062 Y-10.094 
G0 X1.062 Y-10.098 
G0 X1.073 Y-10.151 
G0 X1.028 Y-10.198 
G0 X1.010 Y-10.237 
G0 X0.968 Y-10.238 
G1 X0.965 Y-10.238 F571.000 
G1 X0.947 Y-10.250 F571.000 
G1 X0.947 Y-10.250 F571.000 
G1 X0.926 Y-10.292 F571.000 
G1 X0.926 Y-10.292 F571.000 
G1 X0.923 Y-10.301 F571.000 
G0 X0.924 Y-10.302 
G0 X0.930 Y-10.301 
G0 X0.990 Y-10.280 
G0 X1.020 Y-10.214 
G0 X1.060 Y-10.167 
G0 X1.053 Y-10.118 
G1 X1.053 Y-10.115 F571.000 
G1 X1.049 Y-10.109 F571.000 
G1 X1.040 Y-10.115 F571.000 
G1 X1.040 Y-10.115 F571.000 
G1 X1.020 Y-10.139 F571.000 
G1 X1.020 Y-10.139 F571.000 
G1 X1.015 Y-10.149 F571.000 
G0 X1.015 Y-10.151 
G0 X1.015 Y-10.162 
G0 X1.016 Y-10.288 
G0 X0.963 Y-10.403 
G0 X0.918 Y-10.587 
G0 X0.877 Y-10.605 
G1 X0.875 Y-10.606 F571.000 
G1 X0.853 Y-10.630 F571.000 
G1 X0.853 Y-10.630 F571.000 
G1 X0.854 Y-11.108 F571.000 
G1 X0.863 Y-11.226 F571.000 
G1 X0.876 Y-11.288 F571.000 
G1 X0.895 Y-11.355 F571.000 
G1 X0.938 Y-11.457 F571.000 
G1 X0.971 Y-11.517 F571.000 
G1 X1.026 Y-11.593 F571.000 
G1 X1.079 Y-11.654 F571.000 
G1 X1.141 Y-11.711 F571.000 
G1 X1.207 Y-11.759 F571.000 
G1 X1.293 Y-11.806 F571.000 
G1 X1.359 Y-11.834 F571.000 
G1 X1.441 Y-11.859 F571.000 
G1 X1.505 Y-11.872 F571.000 
G1 X1.612 Y-11.880 F571.000 
G1 X1.695 Y-11.877 F571.000 
G1 X1.786 Y-11.862 F571.000 
G1 X1.878 Y-11.836 F571.000 
G1 X1.929 Y-11.817 F571.000 
G1 X2.036 Y-11.763 F571.000 
G1 X2.438 Y-11.529 F571.000 
G1 X2.528 Y-11.468 F571.000 
G1 X2.592 Y-11.412 F571.000 
G1 X2.635 Y-11.368 F571.000 
G1 X2.695 Y-11.288 F571.000 
G1 X2.734 Y-11.224 F571.000 
G1 X2.775 Y-11.130 F571.000 
G1 X2.795 Y-11.071 F571.000 
G1 X2.811 Y-11.000 F571.000 
G1 X2.824 Y-10.905 F571.000 
G1 X2.824 Y-10.834 F571.000 
G1 X2.812 Y-10.727 F571.000 
G1 X2.796 Y-10.653 F571.000 
G1 X2.759 Y-10.552 F571.000 
G1 X2.740 Y-10.511 F571.000 
G1 X2.675 Y-10.406 F571.000 
G1 X2.638 Y-10.360 F571.000 
G1 X2.566 Y-10.286 F571.000 
G1 X2.507 Y-10.238 F571.000 
G1 X2.433 Y-10.190 F571.000 
G1 X2.008 Y-9.947 F571.000 
G1 X1.925 Y-9.905 F571.000 
G1 X1.825 Y-9.870 F571.000 
G1 X1.774 Y-9.857 F571.000 
G1 X1.676 Y-9.844 F571.000 
G1 X1.622 Y-9.843 F571.000 
G1 X1.507 Y-9.853 F571.000 
G1 X1.434 Y-9.868 F571.000 
G1 X1.363 Y-9.890 F571.000 
G1 X1.285 Y-9.921 F571.000 
G1 X1.198 Y-9.971 F571.000 
G1 X1.132 Y-10.020 F571.000 
G1 X1.068 Y-10.081 F571.000 
G1 X1.007 Y-10.154 F571.000 
G1 X0.954 Y-10.234 F571.000 
G1 X0.931 Y-10.276 F571.000 
G1 X0.892 Y-10.375 F571.000 
G1 X0.868 Y-10.468 F571.000 
G1 X0.859 Y-10.527 F571.000 
G1 X0.853 Y-10.630 F571.000 
G1 X0.853 Y-10.630 F571.000 
G0 Z5.000 
(Helix to depth: -0.997891) 
G0 Z5.000 
G0 X1.453 Y-11.237 Z5.000 
G0 X1.453 Y-11.237 Z3.000 
G1 X1.453 Y-11.237 Z-0.500 F571.000 
G1 X1.453 Y-11.237 Z-0.500 F571.000 
G1 X1.532 Y-11.291 Z-0.502 F571.000 
G1 X1.621 Y-11.329 Z-0.503 F571.000 
G1 X1.715 Y-11.348 Z-0.505 F571.000 
G1 X1.811 Y-11.349 Z-0.507 F571.000 
G1 X1.905 Y-11.331 Z-0.509 F571.000 
G1 X1.994 Y-11.295 Z-0.510 F571.000 
G1 X2.075 Y-11.242 Z-0.512 F571.000 
G1 X2.143 Y-11.175 Z-0.514 F571.000 
G1 X2.197 Y-11.096 Z-0.515 F571.000 
G1 X2.235 Y-11.007 Z-0.517 F571.000 
G1 X2.254 Y-10.913 Z-0.519 F571.000 
G1 X2.255 Y-10.817 Z-0.521 F571.000 
G1 X2.237 Y-10.723 Z-0.522 F571.000 
G1 X2.201 Y-10.634 Z-0.524 F571.000 
G1 X2.148 Y-10.553 Z-0.526 F571.000 
G1 X2.081 Y-10.485 Z-0.527 F571.000 
G1 X2.002 Y-10.431 Z-0.529 F571.000 
G1 X1.913 Y-10.393 Z-0.531 F571.000 
G1 X1.819 Y-10.374 Z-0.533 F571.000 
G1 X1.723 Y-10.373 Z-0.534 F571.000 
G1 X1.629 Y-10.391 Z-0.536 F571.000 
G1 X1.540 Y-10.427 Z-0.538 F571.000 
G1 X1.459 Y-10.480 Z-0.539 F571.000 
G1 X1.391 Y-10.547 Z-0.541 F571.000 
G1 X1.337 Y-10.626 Z-0.543 F571.000 
G1 X1.299 Y-10.715 Z-0.545 F571.000 
G1 X1.280 Y-10.809 Z-0.546 F571.000 
G1 X1.279 Y-10.905 Z-0.548 F571.000 
G1 X1.297 Y-10.999 Z-0.550 F571.000 
G1 X1.333 Y-11.088 Z-0.551 F571.000 
G1 X1.386 Y-11.169 Z-0.553 F571.000 
G1 X1.453 Y-11.237 Z-0.555 F571.000 
G1 X1.532 Y-11.291 Z-0.557 F571.000 
G1 X1.621 Y-11.329 Z-0.558 F571.000 
G1 X1.715 Y-11.348 Z-0.560 F571.000 
G1 X1.811 Y-11.349 Z-0.562 F571.000 
G1 X1.905 Y-11.331 Z-0.563 F571.000 
G1 X1.994 Y-11.295 Z-0.565 F571.000 
G1 X2.075 Y-11.242 Z-0.567 F571.000 
G1 X2.143 Y-11.175 Z-0.569 F571.000 
G1 X2.197 Y-11.096 Z-0.570 F571.000 
G1 X2.235 Y-11.007 Z-0.572 F571.000 
G1 X2.254 Y-10.913 Z-0.574 F571.000 
G1 X2.255 Y-10.817 Z-0.575 F571.000 
G1 X2.237 Y-10.723 Z-0.577 F571.000 
G1 X2.201 Y-10.634 Z-0.579 F571.000 
G1 X2.148 Y-10.553 Z-0.581 F571.000 
G1 X2.081 Y-10.485 Z-0.582 F571.000 
G1 X2.002 Y-10.431 Z-0.584 F571.000 
G1 X1.913 Y-10.393 Z-0.586 F571.000 
G1 X1.819 Y-10.374 Z-0.587 F571.000 
G1 X1.723 Y-10.373 Z-0.589 F571.000 
G1 X1.629 Y-10.391 Z-0.591 F571.000 
G1 X1.540 Y-10.427 Z-0.593 F571.000 
G1 X1.459 Y-10.480 Z-0.594 F571.000 
G1 X1.391 Y-10.547 Z-0.596 F571.000 
G1 X1.337 Y-10.626 Z-0.598 F571.000 
G1 X1.299 Y-10.715 Z-0.599 F571.000 
G1 X1.280 Y-10.809 Z-0.601 F571.000 
G1 X1.279 Y-10.905 Z-0.603 F571.000 
G1 X1.297 Y-10.999 Z-0.605 F571.000 
G1 X1.333 Y-11.088 Z-0.606 F571.000 
G1 X1.386 Y-11.169 Z-0.608 F571.000 
G1 X1.453 Y-11.237 Z-0.610 F571.000 
G1 X1.532 Y-11.291 Z-0.611 F571.000 
G1 X1.621 Y-11.329 Z-0.613 F571.000 
G1 X1.715 Y-11.348 Z-0.615 F571.000 
G1 X1.811 Y-11.349 Z-0.617 F571.000 
G1 X1.905 Y-11.331 Z-0.618 F571.000 
G1 X1.994 Y-11.295 Z-0.620 F571.000 
G1 X2.075 Y-11.242 Z-0.622 F571.000 
G1 X2.143 Y-11.175 Z-0.623 F571.000 
G1 X2.197 Y-11.096 Z-0.625 F571.000 
G1 X2.235 Y-11.007 Z-0.627 F571.000 
G1 X2.254 Y-10.913 Z-0.629 F571.000 
G1 X2.255 Y-10.817 Z-0.630 F571.000 
G1 X2.237 Y-10.723 Z-0.632 F571.000 
G1 X2.201 Y-10.634 Z-0.634 F571.000 
G1 X2.148 Y-10.553 Z-0.635 F571.000 
G1 X2.081 Y-10.485 Z-0.637 F571.000 
G1 X2.002 Y-10.431 Z-0.639 F571.000 
G1 X1.913 Y-10.393 Z-0.641 F571.000 
G1 X1.819 Y-10.374 Z-0.642 F571.000 
G1 X1.723 Y-10.373 Z-0.644 F571.000 
G1 X1.629 Y-10.391 Z-0.646 F571.000 
G1 X1.540 Y-10.427 Z-0.647 F571.000 
G1 X1.459 Y-10.480 Z-0.649 F571.000 
G1 X1.391 Y-10.547 Z-0.651 F571.000 
G1 X1.337 Y-10.626 Z-0.653 F571.000 
G1 X1.299 Y-10.715 Z-0.654 F571.000 
G1 X1.280 Y-10.809 Z-0.656 F571.000 
G1 X1.279 Y-10.905 Z-0.658 F571.000 
G1 X1.297 Y-10.999 Z-0.659 F571.000 
G1 X1.333 Y-11.088 Z-0.661 F571.000 
G1 X1.386 Y-11.169 Z-0.663 F571.000 
G1 X1.453 Y-11.237 Z-0.665 F571.000 
G1 X1.532 Y-11.291 Z-0.666 F571.000 
G1 X1.621 Y-11.329 Z-0.668 F571.000 
G1 X1.715 Y-11.348 Z-0.670 F571.000 
G1 X1.811 Y-11.349 Z-0.671 F571.000 
G1 X1.905 Y-11.331 Z-0.673 F571.000 
G1 X1.994 Y-11.295 Z-0.675 F571.000 
G1 X2.075 Y-11.242 Z-0.677 F571.000 
G1 X2.143 Y-11.175 Z-0.678 F571.000 
G1 X2.197 Y-11.096 Z-0.680 F571.000 
G1 X2.235 Y-11.007 Z-0.682 F571.000 
G1 X2.254 Y-10.913 Z-0.683 F571.000 
G1 X2.255 Y-10.817 Z-0.685 F571.000 
G1 X2.237 Y-10.723 Z-0.687 F571.000 
G1 X2.201 Y-10.634 Z-0.689 F571.000 
G1 X2.148 Y-10.553 Z-0.690 F571.000 
G1 X2.081 Y-10.485 Z-0.692 F571.000 
G1 X2.002 Y-10.431 Z-0.694 F571.000 
G1 X1.913 Y-10.393 Z-0.695 F571.000 
G1 X1.819 Y-10.374 Z-0.697 F571.000 
G1 X1.723 Y-10.373 Z-0.699 F571.000 
G1 X1.629 Y-10.391 Z-0.700 F571.000 
G1 X1.540 Y-10.427 Z-0.702 F571.000 
G1 X1.459 Y-10.480 Z-0.704 F571.000 
G1 X1.391 Y-10.547 Z-0.706 F571.000 
G1 X1.337 Y-10.626 Z-0.707 F571.000 
G1 X1.299 Y-10.715 Z-0.709 F571.000 
G1 X1.280 Y-10.809 Z-0.711 F571.000 
G1 X1.279 Y-10.905 Z-0.712 F571.000 
G1 X1.297 Y-10.999 Z-0.714 F571.000 
G1 X1.333 Y-11.088 Z-0.716 F571.000 
G1 X1.386 Y-11.169 Z-0.718 F571.000 
G1 X1.453 Y-11.237 Z-0.719 F571.000 
G1 X1.532 Y-11.291 Z-0.721 F571.000 
G1 X1.621 Y-11.329 Z-0.723 F571.000 
G1 X1.715 Y-11.348 Z-0.724 F571.000 
G1 X1.811 Y-11.349 Z-0.726 F571.000 
G1 X1.905 Y-11.331 Z-0.728 F571.000 
G1 X1.994 Y-11.295 Z-0.730 F571.000 
G1 X2.075 Y-11.242 Z-0.731 F571.000 
G1 X2.143 Y-11.175 Z-0.733 F571.000 
G1 X2.197 Y-11.096 Z-0.735 F571.000 
G1 X2.235 Y-11.007 Z-0.736 F571.000 
G1 X2.254 Y-10.913 Z-0.738 F571.000 
G1 X2.255 Y-10.817 Z-0.740 F571.000 
G1 X2.237 Y-10.723 Z-0.742 F571.000 
G1 X2.201 Y-10.634 Z-0.743 F571.000 
G1 X2.148 Y-10.553 Z-0.745 F571.000 
G1 X2.081 Y-10.485 Z-0.747 F571.000 
G1 X2.002 Y-10.431 Z-0.748 F571.000 
G1 X1.913 Y-10.393 Z-0.750 F571.000 
G1 X1.819 Y-10.374 Z-0.752 F571.000 
G1 X1.723 Y-10.373 Z-0.754 F571.000 
G1 X1.629 Y-10.391 Z-0.755 F571.000 
G1 X1.540 Y-10.427 Z-0.757 F571.000 
G1 X1.459 Y-10.480 Z-0.759 F571.000 
G1 X1.391 Y-10.547 Z-0.760 F571.000 
G1 X1.337 Y-10.626 Z-0.762 F571.000 
G1 X1.299 Y-10.715 Z-0.764 F571.000 
G1 X1.280 Y-10.809 Z-0.766 F571.000 
G1 X1.279 Y-10.905 Z-0.767 F571.000 
G1 X1.297 Y-10.999 Z-0.769 F571.000 
G1 X1.333 Y-11.088 Z-0.771 F571.000 
G1 X1.386 Y-11.169 Z-0.772 F571.000 
G1 X1.453 Y-11.237 Z-0.774 F571.000 
G1 X1.532 Y-11.291 Z-0.776 F571.000 
G1 X1.621 Y-11.329 Z-0.778 F571.000 
G1 X1.715 Y-11.348 Z-0.779 F571.000 
G1 X1.811 Y-11.349 Z-0.781 F571.000 
G1 X1.905 Y-11.331 Z-0.783 F571.000 
G1 X1.994 Y-11.295 Z-0.784 F571.000 
G1 X2.075 Y-11.242 Z-0.786 F571.000 
G1 X2.143 Y-11.175 Z-0.788 F571.000 
G1 X2.197 Y-11.096 Z-0.790 F571.000 
G1 X2.235 Y-11.007 Z-0.791 F571.000 
G1 X2.254 Y-10.913 Z-0.793 F571.000 
G1 X2.255 Y-10.817 Z-0.795 F571.000 
G1 X2.237 Y-10.723 Z-0.796 F571.000 
G1 X2.201 Y-10.634 Z-0.798 F571.000 
G1 X2.148 Y-10.553 Z-0.800 F571.000 
G1 X2.081 Y-10.485 Z-0.802 F571.000 
G1 X2.002 Y-10.431 Z-0.803 F571.000 
G1 X1.913 Y-10.393 Z-0.805 F571.000 
G1 X1.819 Y-10.374 Z-0.807 F571.000 
G1 X1.723 Y-10.373 Z-0.808 F571.000 
G1 X1.629 Y-10.391 Z-0.810 F571.000 
G1 X1.540 Y-10.427 Z-0.812 F571.000 
G1 X1.459 Y-10.480 Z-0.814 F571.000 
G1 X1.391 Y-10.547 Z-0.815 F571.000 
G1 X1.337 Y-10.626 Z-0.817 F571.000 
G1 X1.299 Y-10.715 Z-0.819 F571.000 
G1 X1.280 Y-10.809 Z-0.820 F571.000 
G1 X1.279 Y-10.905 Z-0.822 F571.000 
G1 X1.297 Y-10.999 Z-0.824 F571.000 
G1 X1.333 Y-11.088 Z-0.826 F571.000 
G1 X1.386 Y-11.169 Z-0.827 F571.000 
G1 X1.453 Y-11.237 Z-0.829 F571.000 
G1 X1.532 Y-11.291 Z-0.831 F571.000 
G1 X1.621 Y-11.329 Z-0.832 F571.000 
G1 X1.715 Y-11.348 Z-0.834 F571.000 
G1 X1.811 Y-11.349 Z-0.836 F571.000 
G1 X1.905 Y-11.331 Z-0.838 F571.000 
G1 X1.994 Y-11.295 Z-0.839 F571.000 
G1 X2.075 Y-11.242 Z-0.841 F571.000 
G1 X2.143 Y-11.175 Z-0.843 F571.000 
G1 X2.197 Y-11.096 Z-0.844 F571.000 
G1 X2.235 Y-11.007 Z-0.846 F571.000 
G1 X2.254 Y-10.913 Z-0.848 F571.000 
G1 X2.255 Y-10.817 Z-0.850 F571.000 
G1 X2.237 Y-10.723 Z-0.851 F571.000 
G1 X2.201 Y-10.634 Z-0.853 F571.000 
G1 X2.148 Y-10.553 Z-0.855 F571.000 
G1 X2.081 Y-10.485 Z-0.856 F571.000 
G1 X2.002 Y-10.431 Z-0.858 F571.000 
G1 X1.913 Y-10.393 Z-0.860 F571.000 
G1 X1.819 Y-10.374 Z-0.862 F571.000 
G1 X1.723 Y-10.373 Z-0.863 F571.000 
G1 X1.629 Y-10.391 Z-0.865 F571.000 
G1 X1.540 Y-10.427 Z-0.867 F571.000 
G1 X1.459 Y-10.480 Z-0.868 F571.000 
G1 X1.391 Y-10.547 Z-0.870 F571.000 
G1 X1.337 Y-10.626 Z-0.872 F571.000 
G1 X1.299 Y-10.715 Z-0.874 F571.000 
G1 X1.280 Y-10.809 Z-0.875 F571.000 
G1 X1.279 Y-10.905 Z-0.877 F571.000 
G1 X1.297 Y-10.999 Z-0.879 F571.000 
G1 X1.333 Y-11.088 Z-0.880 F571.000 
G1 X1.386 Y-11.169 Z-0.882 F571.000 
G1 X1.453 Y-11.237 Z-0.884 F571.000 
G1 X1.532 Y-11.291 Z-0.886 F571.000 
G1 X1.621 Y-11.329 Z-0.887 F571.000 
G1 X1.715 Y-11.348 Z-0.889 F571.000 
G1 X1.811 Y-11.349 Z-0.891 F571.000 
G1 X1.905 Y-11.331 Z-0.892 F571.000 
G1 X1.994 Y-11.295 Z-0.894 F571.000 
G1 X2.075 Y-11.242 Z-0.896 F571.000 
G1 X2.143 Y-11.175 Z-0.898 F571.000 
G1 X2.197 Y-11.096 Z-0.899 F571.000 
G1 X2.235 Y-11.007 Z-0.901 F571.000 
G1 X2.254 Y-10.913 Z-0.903 F571.000 
G1 X2.255 Y-10.817 Z-0.904 F571.000 
G1 X2.237 Y-10.723 Z-0.906 F571.000 
G1 X2.201 Y-10.634 Z-0.908 F571.000 
G1 X2.148 Y-10.553 Z-0.910 F571.000 
G1 X2.081 Y-10.485 Z-0.911 F571.000 
G1 X2.002 Y-10.431 Z-0.913 F571.000 
G1 X1.913 Y-10.393 Z-0.915 F571.000 
G1 X1.819 Y-10.374 Z-0.916 F571.000 
G1 X1.723 Y-10.373 Z-0.918 F571.000 
G1 X1.629 Y-10.391 Z-0.920 F571.000 
G1 X1.540 Y-10.427 Z-0.922 F571.000 
G1 X1.459 Y-10.480 Z-0.923 F571.000 
G1 X1.391 Y-10.547 Z-0.925 F571.000 
G1 X1.337 Y-10.626 Z-0.927 F571.000 
G1 X1.299 Y-10.715 Z-0.928 F571.000 
G1 X1.280 Y-10.809 Z-0.930 F571.000 
G1 X1.279 Y-10.905 Z-0.932 F571.000 
G1 X1.297 Y-10.999 Z-0.934 F571.000 
G1 X1.333 Y-11.088 Z-0.935 F571.000 
G1 X1.386 Y-11.169 Z-0.937 F571.000 
G1 X1.453 Y-11.237 Z-0.939 F571.000 
G1 X1.532 Y-11.291 Z-0.940 F571.000 
G1 X1.621 Y-11.329 Z-0.942 F571.000 
G1 X1.715 Y-11.348 Z-0.944 F571.000 
G1 X1.811 Y-11.349 Z-0.946 F571.000 
G1 X1.905 Y-11.331 Z-0.947 F571.000 
G1 X1.994 Y-11.295 Z-0.949 F571.000 
G1 X2.075 Y-11.242 Z-0.951 F571.000 
G1 X2.143 Y-11.175 Z-0.952 F571.000 
G1 X2.197 Y-11.096 Z-0.954 F571.000 
G1 X2.235 Y-11.007 Z-0.956 F571.000 
G1 X2.254 Y-10.913 Z-0.958 F571.000 
G1 X2.255 Y-10.817 Z-0.959 F571.000 
G1 X2.237 Y-10.723 Z-0.961 F571.000 
G1 X2.201 Y-10.634 Z-0.963 F571.000 
G1 X2.148 Y-10.553 Z-0.964 F571.000 
G1 X2.081 Y-10.485 Z-0.966 F571.000 
G1 X2.002 Y-10.431 Z-0.968 F571.000 
G1 X1.913 Y-10.393 Z-0.970 F571.000 
G1 X1.819 Y-10.374 Z-0.971 F571.000 
G1 X1.723 Y-10.373 Z-0.973 F571.000 
G1 X1.629 Y-10.391 Z-0.975 F571.000 
G1 X1.540 Y-10.427 Z-0.976 F571.000 
G1 X1.459 Y-10.480 Z-0.978 F571.000 
G1 X1.391 Y-10.547 Z-0.980 F571.000 
G1 X1.337 Y-10.626 Z-0.982 F571.000 
G1 X1.299 Y-10.715 Z-0.983 F571.000 
G1 X1.280 Y-10.809 Z-0.985 F571.000 
G1 X1.279 Y-10.905 Z-0.987 F571.000 
G1 X1.297 Y-10.999 Z-0.988 F571.000 
G1 X1.333 Y-11.088 Z-0.990 F571.000 
G1 X1.386 Y-11.169 Z-0.992 F571.000 
G1 X1.453 Y-11.237 Z-0.994 F571.000 
G1 X1.532 Y-11.291 Z-0.995 F571.000 
G1 X1.621 Y-11.329 Z-0.997 F571.000 
G1 X1.715 Y-11.348 Z-0.998 F571.000 
G1 X1.811 Y-11.349 Z-0.998 F571.000 
G1 X1.905 Y-11.331 Z-0.998 F571.000 
G1 X1.994 Y-11.295 Z-0.998 F571.000 
G1 X2.075 Y-11.242 Z-0.998 F571.000 
G1 X2.143 Y-11.175 Z-0.998 F571.000 
G1 X2.197 Y-11.096 Z-0.998 F571.000 
G1 X2.235 Y-11.007 Z-0.998 F571.000 
G1 X2.254 Y-10.913 Z-0.998 F571.000 
G1 X2.255 Y-10.817 Z-0.998 F571.000 
G1 X2.237 Y-10.723 Z-0.998 F571.000 
G1 X2.201 Y-10.634 Z-0.998 F571.000 
G1 X2.148 Y-10.553 Z-0.998 F571.000 
G1 X2.081 Y-10.485 Z-0.998 F571.000 
G1 X2.002 Y-10.431 Z-0.998 F571.000 
G1 X1.913 Y-10.393 Z-0.998 F571.000 
G1 X1.819 Y-10.374 Z-0.998 F571.000 
G1 X1.723 Y-10.373 Z-0.998 F571.000 
G1 X1.629 Y-10.391 Z-0.998 F571.000 
G1 X1.540 Y-10.427 Z-0.998 F571.000 
G1 X1.459 Y-10.480 Z-0.998 F571.000 
G1 X1.391 Y-10.547 Z-0.998 F571.000 
G1 X1.337 Y-10.626 Z-0.998 F571.000 
G1 X1.299 Y-10.715 Z-0.998 F571.000 
G1 X1.280 Y-10.809 Z-0.998 F571.000 
G1 X1.279 Y-10.905 Z-0.998 F571.000 
G1 X1.297 Y-10.999 Z-0.998 F571.000 
G1 X1.333 Y-11.088 Z-0.998 F571.000 
G1 X1.386 Y-11.169 Z-0.998 F571.000 
G1 X1.453 Y-11.237 Z-0.998 F571.000 
G1 X1.532 Y-11.291 Z-0.998 F571.000 
G1 X1.621 Y-11.329 Z-0.998 F571.000 
(Adaptive - depth: -0.997891) 
G1 X1.767 Y-11.361 F571.000 
G1 X1.827 Y-11.366 F571.000 
G1 X1.902 Y-11.353 F571.000 
G1 X2.020 Y-11.314 F571.000 
G1 X2.077 Y-11.275 F571.000 
G1 X2.135 Y-11.226 F571.000 
G1 X2.186 Y-11.167 F571.000 
G1 X2.221 Y-11.110 F571.000 
G1 X2.244 Y-11.061 F571.000 
G1 X2.264 Y-11.004 F571.000 
G1 X2.279 Y-10.935 F571.000 
G1 X2.285 Y-10.866 F571.000 
G1 X2.282 Y-10.803 F571.000 
G1 X2.272 Y-10.743 F571.000 
G1 X2.254 Y-10.684 F571.000 
G1 X2.230 Y-10.627 F571.000 
G1 X2.194 Y-10.566 F571.000 
G1 X2.155 Y-10.515 F571.000 
G1 X2.109 Y-10.468 F571.000 
G1 X2.059 Y-10.430 F571.000 
G1 X2.008 Y-10.399 F571.000 
G1 X1.948 Y-10.372 F571.000 
G1 X1.885 Y-10.353 F571.000 
G1 X1.820 Y-10.342 F571.000 
G1 X1.755 Y-10.339 F571.000 
G1 X1.693 Y-10.344 F571.000 
G1 X1.629 Y-10.357 F571.000 
G1 X1.567 Y-10.378 F571.000 
G1 X1.508 Y-10.407 F571.000 
G1 X1.457 Y-10.440 F571.000 
G1 X1.409 Y-10.480 F571.000 
G1 X1.365 Y-10.527 F571.000 
G1 X1.327 Y-10.579 F571.000 
G1 X1.295 Y-10.636 F571.000 
G1 X1.271 Y-10.696 F571.000 
G1 X1.255 Y-10.759 F571.000 
G1 X1.247 Y-10.820 F571.000 
G1 X1.246 Y-10.883 F571.000 
G1 X1.252 Y-10.946 F571.000 
G1 X1.268 Y-11.013 F571.000 
G1 X1.291 Y-11.074 F571.000 
G1 X1.320 Y-11.129 F571.000 
G1 X1.354 Y-11.179 F571.000 
G1 X1.397 Y-11.228 F571.000 
G1 X1.446 Y-11.271 F571.000 
G1 X1.498 Y-11.307 F571.000 
G1 X1.557 Y-11.337 F571.000 
G1 X1.618 Y-11.359 F571.000 
G1 X1.697 Y-11.376 F571.000 
G1 X1.787 Y-11.382 F571.000 
G1 X1.862 Y-11.376 F571.000 
G1 X1.945 Y-11.359 F571.000 
G1 X1.973 Y-11.351 F571.000 
G1 X2.029 Y-11.326 F571.000 
G1 X2.110 Y-11.274 F571.000 
G1 X2.164 Y-11.223 F571.000 
G1 X2.197 Y-11.182 F571.000 
G1 X2.226 Y-11.136 F571.000 
G1 X2.255 Y-11.081 F571.000 
G1 X2.283 Y-11.008 F571.000 
G1 X2.299 Y-10.938 F571.000 
G1 X2.304 Y-10.874 F571.000 
G1 X2.302 Y-10.816 F571.000 
G1 X2.293 Y-10.752 F571.000 
G1 X2.275 Y-10.686 F571.000 
G1 X2.249 Y-10.622 F571.000 
G1 X2.217 Y-10.565 F571.000 
G1 X2.180 Y-10.513 F571.000 
G1 X2.135 Y-10.465 F571.000 
G1 X2.085 Y-10.423 F571.000 
G1 X2.031 Y-10.388 F571.000 
G1 X1.972 Y-10.359 F571.000 
G1 X1.910 Y-10.338 F571.000 
G1 X1.847 Y-10.324 F571.000 
G1 X1.782 Y-10.318 F571.000 
G1 X1.717 Y-10.320 F571.000 
G1 X1.650 Y-10.330 F571.000 
G1 X1.585 Y-10.348 F571.000 
G1 X1.525 Y-10.373 F571.000 
G1 X1.468 Y-10.405 F571.000 
G1 X1.416 Y-10.444 F571.000 
G1 X1.368 Y-10.489 F571.000 
G1 X1.326 Y-10.540 F571.000 
G1 X1.291 Y-10.595 F571.000 
G1 X1.263 Y-10.652 F571.000 
G1 X1.242 Y-10.712 F571.000 
G1 X1.229 Y-10.777 F571.000 
G1 X1.223 Y-10.838 F571.000 
G1 X1.225 Y-10.906 F571.000 
G1 X1.235 Y-10.973 F571.000 
G1 X1.253 Y-11.040 F571.000 
G1 X1.279 Y-11.101 F571.000 
G1 X1.310 Y-11.156 F571.000 
G1 X1.349 Y-11.209 F571.000 
G1 X1.394 Y-11.256 F571.000 
G1 X1.444 Y-11.297 F571.000 
G1 X1.498 Y-11.331 F571.000 
G1 X1.556 Y-11.359 F571.000 
G1 X1.619 Y-11.380 F571.000 
G1 X1.684 Y-11.395 F571.000 
G1 X1.849 Y-11.394 F571.000 
G1 X1.894 Y-11.387 F571.000 
G1 X2.014 Y-11.355 F571.000 
G1 X2.083 Y-11.316 F571.000 
G1 X2.142 Y-11.271 F571.000 
G1 X2.190 Y-11.221 F571.000 
G1 X2.228 Y-11.170 F571.000 
G1 X2.257 Y-11.120 F571.000 
G1 X2.283 Y-11.062 F571.000 
G1 X2.305 Y-10.993 F571.000 
G1 X2.319 Y-10.921 F571.000 
G1 X2.323 Y-10.854 F571.000 
G1 X2.319 Y-10.791 F571.000 
G1 X2.307 Y-10.727 F571.000 
G1 X2.287 Y-10.663 F571.000 
G1 X2.261 Y-10.602 F571.000 
G1 X2.226 Y-10.541 F571.000 
G1 X2.184 Y-10.487 F571.000 
G1 X2.139 Y-10.441 F571.000 
G1 X2.089 Y-10.400 F571.000 
G1 X2.033 Y-10.365 F571.000 
G1 X1.971 Y-10.336 F571.000 
G1 X1.908 Y-10.315 F571.000 
G1 X1.843 Y-10.301 F571.000 
G1 X1.776 Y-10.295 F571.000 
G1 X1.710 Y-10.297 F571.000 
G1 X1.643 Y-10.307 F571.000 
