(Exported by FreeCAD)
(Post Processor: linuxcnc_post)
(Output Time:2024-06-05 20:02:21.394692)
(begin preamble)
G17 G54 G40 G49 G80 G90
G21
(begin operation: Fixture)
(machine units: mm/min)
G54 
(finish operation: Fixture)
(begin operation: TC: v_15deg_.3mmtip)
(machine units: mm/min)
(TC: v_15deg_.3mmtip) 
M5
M6 T6 
G43 H6 
M3 S15000 
(finish operation: TC: v_15deg_.3mmtip)
(begin operation: Slot001)
(machine units: mm/min)
(Slot001) 
(Slot001) 
(Tool type: v_bit) 
(Compensated Tool Path. Diameter: 0.3 mm) 
() 
G0 Z5.000 
G0 X5.300 Y21.615 
G1 Z-0.300 F571.000 
G1 X-0.300 Y21.615 F571.000 
G0 Z3.000 
G0 Z5.000 
G0 Z5.000 
(finish operation: Slot001)
(begin operation: Slot002)
(machine units: mm/min)
(Slot002) 
(Slot002) 
(Tool type: v_bit) 
(Compensated Tool Path. Diameter: 0.3 mm) 
() 
G0 Z5.000 
G0 X-0.300 Y16.145 
G1 Z-0.300 F571.000 
G1 X5.300 Y16.145 F571.000 
G0 Z3.000 
G0 Z5.000 
G0 Z5.000 
(finish operation: Slot002)
(begin operation: Slot003)
(machine units: mm/min)
(Slot003) 
(Slot003) 
(Tool type: v_bit) 
(Compensated Tool Path. Diameter: 0.3 mm) 
() 
G0 Z5.000 
G0 X-0.300 Y10.675 
G1 Z-0.300 F571.000 
G1 X5.300 Y10.675 F571.000 
G0 Z3.000 
G0 Z5.000 
G0 Z5.000 
(finish operation: Slot003)
(begin operation: Slot004)
(machine units: mm/min)
(Slot004) 
(Slot004) 
(Tool type: v_bit) 
(Compensated Tool Path. Diameter: 0.3 mm) 
() 
G0 Z5.000 
G0 X9.470 Y36.300 
G1 Z-0.300 F571.000 
G1 X9.470 Y30.700 F571.000 
G0 Z3.000 
G0 Z5.000 
G0 Z5.000 
(finish operation: Slot004)
(begin operation: Slot005)
(machine units: mm/min)
(Slot005) 
(Slot005) 
(Tool type: v_bit) 
(Compensated Tool Path. Diameter: 0.3 mm) 
() 
G0 Z5.000 
G0 X20.220 Y36.300 
G1 Z-0.300 F571.000 
G1 X20.220 Y30.700 F571.000 
G0 Z3.000 
G0 Z5.000 
G0 Z5.000 
(finish operation: Slot005)
(begin operation: Slot006)
(machine units: mm/min)
(Slot006) 
(Slot006) 
(Tool type: v_bit) 
(Compensated Tool Path. Diameter: 0.3 mm) 
() 
G0 Z5.000 
G0 X31.300 Y21.615 
G1 Z-0.300 F571.000 
G1 X25.700 Y21.615 F571.000 
G0 Z3.000 
G0 Z5.000 
G0 Z5.000 
(finish operation: Slot006)
(begin operation: Slot007)
(machine units: mm/min)
(Slot007) 
(Slot007) 
(Tool type: v_bit) 
(Compensated Tool Path. Diameter: 0.3 mm) 
() 
G0 Z5.000 
G0 X31.300 Y10.675 
G1 Z-0.300 F571.000 
G1 X25.700 Y10.675 F571.000 
G0 Z3.000 
G0 Z5.000 
G0 Z5.000 
(finish operation: Slot007)
(begin operation: Slot)
(machine units: mm/min)
(Slot) 
(Slot) 
(Tool type: v_bit) 
(Compensated Tool Path. Diameter: 0.3 mm) 
() 
G0 Z5.000 
G0 X5.000 Y16.145 
G1 Z-1.900 F571.000 
G1 X10.300 Y16.145 F571.000 
G0 Z3.000 
G0 Z5.000 
G0 Z5.000 
(finish operation: Slot)
(begin operation: TC: 1mm_cut3mm)
(machine units: mm/min)
(TC: 1mm_cut3mm) 
M5
M6 T4 
G43 H4 
M3 S15000 
(finish operation: TC: 1mm_cut3mm)
(begin operation: Helix)
(machine units: mm/min)
(Helix) 
(helix cut operation) 
G0 Z5.000 
G0 Z5.000 
G0 X1.300 Y13.410 Z5.000 
G0 X1.300 Y13.410 Z0.000 
G0 X1.550 Y13.410 
G1 Z0.000 F571.000 
G2 X1.050 Y13.410 Z-0.383 I-0.250 J0.000 F571.000 
G2 X1.550 Y13.410 Z-0.767 I0.250 J0.000 F571.000 
G2 X1.050 Y13.410 Z-1.150 I-0.250 J0.000 F571.000 
G2 X1.550 Y13.410 Z-1.533 I0.250 J0.000 F571.000 
G2 X1.050 Y13.410 Z-1.917 I-0.250 J0.000 F571.000 
G2 X1.550 Y13.410 Z-2.300 I0.250 J0.000 F571.000 
G2 X1.050 Y13.410 Z-2.300 I-0.250 J0.000 F571.000 
G2 X1.550 Y13.410 Z-2.300 I0.250 J0.000 F571.000 
G0 X1.300 Y13.410 Z-2.300 
G0 Z0.000 
G0 Z5.000 
G0 X1.300 Y18.000 Z5.000 
G0 X1.300 Y18.000 Z0.000 
G0 X1.550 Y18.000 
G1 Z0.000 F571.000 
G2 X1.050 Y18.000 Z-0.383 I-0.250 J0.000 F571.000 
G2 X1.550 Y18.000 Z-0.767 I0.250 J0.000 F571.000 
G2 X1.050 Y18.000 Z-1.150 I-0.250 J0.000 F571.000 
G2 X1.550 Y18.000 Z-1.533 I0.250 J0.000 F571.000 
G2 X1.050 Y18.000 Z-1.917 I-0.250 J0.000 F571.000 
G2 X1.550 Y18.000 Z-2.300 I0.250 J0.000 F571.000 
G2 X1.050 Y18.000 Z-2.300 I-0.250 J0.000 F571.000 
G2 X1.550 Y18.000 Z-2.300 I0.250 J0.000 F571.000 
G0 X1.300 Y18.000 Z-2.300 
G0 Z0.000 
G0 Z5.000 
G0 X14.845 Y34.700 Z5.000 
G0 X14.845 Y34.700 Z0.000 
G0 X15.095 Y34.700 
G1 Z0.000 F571.000 
G2 X14.595 Y34.700 Z-0.383 I-0.250 J0.000 F571.000 
G2 X15.095 Y34.700 Z-0.767 I0.250 J0.000 F571.000 
G2 X14.595 Y34.700 Z-1.150 I-0.250 J0.000 F571.000 
G2 X15.095 Y34.700 Z-1.533 I0.250 J0.000 F571.000 
G2 X14.595 Y34.700 Z-1.917 I-0.250 J0.000 F571.000 
G2 X15.095 Y34.700 Z-2.300 I0.250 J0.000 F571.000 
G2 X14.595 Y34.700 Z-2.300 I-0.250 J0.000 F571.000 
G2 X15.095 Y34.700 Z-2.300 I0.250 J0.000 F571.000 
G0 X14.845 Y34.700 Z-2.300 
G0 Z0.000 
G0 Z5.000 
G0 X29.700 Y16.380 Z5.000 
G0 X29.700 Y16.380 Z0.000 
G0 X29.950 Y16.380 
G1 Z0.000 F571.000 
G2 X29.450 Y16.380 Z-0.383 I-0.250 J0.000 F571.000 
G2 X29.950 Y16.380 Z-0.767 I0.250 J0.000 F571.000 
G2 X29.450 Y16.380 Z-1.150 I-0.250 J0.000 F571.000 
G2 X29.950 Y16.380 Z-1.533 I0.250 J0.000 F571.000 
G2 X29.450 Y16.380 Z-1.917 I-0.250 J0.000 F571.000 
G2 X29.950 Y16.380 Z-2.300 I0.250 J0.000 F571.000 
G2 X29.450 Y16.380 Z-2.300 I-0.250 J0.000 F571.000 
G2 X29.950 Y16.380 Z-2.300 I0.250 J0.000 F571.000 
G0 X29.700 Y16.380 Z-2.300 
G0 Z0.000 
G0 Z5.000 
(finish operation: Helix)
(begin operation: Profile)
(machine units: mm/min)
(Profile) 
(Compensated Tool Path. Diameter: 1.0) 
G0 Z5.000 
G0 X28.600 Y33.600 
G0 Z3.000 
G1 X28.600 Y33.600 Z-0.300 F571.000 
G1 X28.600 Y29.600 Z-0.300 F571.000 
G1 X28.500 Y29.600 Z-0.300 F571.000 
G1 X28.500 Y33.000 Z-0.300 F571.000 
G3 X28.000 Y33.500 Z-0.300 I-0.500 J0.000 F571.000 
G1 X24.600 Y33.500 Z-0.300 F571.000 
G1 X24.600 Y33.600 Z-0.300 F571.000 
G1 X28.600 Y33.600 Z-0.300 F571.000 
G0 Z5.000 
G0 X6.400 Y33.600 Z5.000 
G0 X6.400 Y33.600 Z3.000 
G1 X6.400 Y33.600 Z-0.300 F571.000 
G1 X6.400 Y33.500 Z-0.300 F571.000 
G1 X3.000 Y33.500 Z-0.300 F571.000 
G3 X2.500 Y33.000 Z-0.300 I-0.000 J-0.500 F571.000 
G1 X2.500 Y29.600 Z-0.300 F571.000 
G1 X2.400 Y29.600 Z-0.300 F571.000 
G1 X2.400 Y33.600 Z-0.300 F571.000 
G1 X6.400 Y33.600 Z-0.300 F571.000 
G0 Z5.000 
G0 X2.500 Y6.400 Z5.000 
G0 X2.500 Y6.400 Z3.000 
G1 X2.500 Y6.400 Z-0.300 F571.000 
G1 X2.500 Y3.000 Z-0.300 F571.000 
G3 X3.000 Y2.500 Z-0.300 I0.500 J-0.000 F571.000 
G1 X6.400 Y2.500 Z-0.300 F571.000 
G1 X6.400 Y2.400 Z-0.300 F571.000 
G1 X2.400 Y2.400 Z-0.300 F571.000 
G1 X2.400 Y6.400 Z-0.300 F571.000 
G1 X2.500 Y6.400 Z-0.300 F571.000 
G0 Z5.000 
G0 X24.600 Y2.500 Z5.000 
G0 X24.600 Y2.500 Z3.000 
G1 X24.600 Y2.500 Z-0.300 F571.000 
G1 X28.000 Y2.500 Z-0.300 F571.000 
G3 X28.500 Y3.000 Z-0.300 I0.000 J0.500 F571.000 
G1 X28.500 Y6.400 Z-0.300 F571.000 
G1 X28.600 Y6.400 Z-0.300 F571.000 
G1 X28.600 Y2.400 Z-0.300 F571.000 
G1 X24.600 Y2.400 Z-0.300 F571.000 
G1 X24.600 Y2.500 Z-0.300 F571.000 
G0 Z5.000 
G0 Z5.000 
(finish operation: Profile)
(begin operation: Profile001)
(machine units: mm/min)
(Profile001) 
(Compensated Tool Path. Diameter: 1.0) 
G0 Z5.000 
G0 X25.500 Y30.500 
G0 Z3.000 
G1 X25.500 Y30.500 Z-2.300 F571.000 
G1 X25.500 Y18.950 Z-2.300 F571.000 
G1 X21.000 Y18.950 Z-2.300 F571.000 
G3 X20.500 Y18.450 Z-2.300 I-0.000 J-0.500 F571.000 
G1 X20.500 Y17.650 Z-2.300 F571.000 
G3 X21.000 Y17.150 Z-2.300 I0.500 J-0.000 F571.000 
G1 X25.500 Y17.150 Z-2.300 F571.000 
G1 X25.500 Y5.500 Z-2.300 F571.000 
G1 X16.565 Y5.500 Z-2.300 F571.000 
G1 X16.565 Y10.000 Z-2.300 F571.000 
G3 X16.065 Y10.500 Z-2.300 I-0.500 J0.000 F571.000 
G1 X15.265 Y10.500 Z-2.300 F571.000 
G3 X14.765 Y10.000 Z-2.300 I-0.000 J-0.500 F571.000 
G1 X14.765 Y5.500 Z-2.300 F571.000 
G1 X5.500 Y5.500 Z-2.300 F571.000 
G1 X5.500 Y14.610 Z-2.300 F571.000 
G1 X10.000 Y14.610 Z-2.300 F571.000 
G3 X10.500 Y15.110 Z-2.300 I0.000 J0.500 F571.000 
G1 X10.500 Y15.910 Z-2.300 F571.000 
G3 X10.433 Y16.145 Z-2.300 I-0.317 J0.036 F571.000 
G3 X10.500 Y16.380 Z-2.300 I-0.250 J0.199 F571.000 
G1 X10.500 Y17.180 Z-2.300 F571.000 
G3 X10.000 Y17.680 Z-2.300 I-0.500 J0.000 F571.000 
G1 X5.500 Y17.680 Z-2.300 F571.000 
G1 X5.500 Y30.500 Z-2.300 F571.000 
G1 X13.965 Y30.500 Z-2.300 F571.000 
G1 X13.965 Y26.000 Z-2.300 F571.000 
G3 X14.465 Y25.500 Z-2.300 I0.500 J-0.000 F571.000 
G1 X15.265 Y25.500 Z-2.300 F571.000 
G3 X15.765 Y26.000 Z-2.300 I0.000 J0.500 F571.000 
G1 X15.765 Y30.500 Z-2.300 F571.000 
G1 X25.500 Y30.500 Z-2.300 F571.000 
G0 Z5.000 
G0 Z5.000 
(finish operation: Profile001)
(begin operation: Profile002)
(machine units: mm/min)
(Profile002) 
(Compensated Tool Path. Diameter: 1.0) 
G0 Z5.000 
G0 X31.354 Y36.354 
G0 Z3.000 
G1 X31.354 Y36.354 Z-2.300 F571.000 
G2 X31.500 Y36.000 Z-2.300 I-0.354 J-0.354 F571.000 
G1 X31.500 Y0.000 Z-2.300 F571.000 
G2 X31.000 Y-0.500 Z-2.300 I-0.500 J-0.000 F571.000 
G1 X0.000 Y-0.500 Z-2.300 F571.000 
G2 X-0.500 Y0.000 Z-2.300 I-0.000 J0.500 F571.000 
G1 X-0.500 Y36.000 Z-2.300 F571.000 
G2 X0.000 Y36.500 Z-2.300 I0.500 J0.000 F571.000 
G1 X31.000 Y36.500 Z-2.300 F571.000 
G2 X31.354 Y36.354 Z-2.300 I0.000 J-0.500 F571.000 
G0 Z5.000 
G0 Z5.000 
(finish operation: Profile002)
(begin postamble)
M05
G17 G54 G90 G80 G40
M2
